; generated by PrusaSlicer 2.8.1 on 2024-10-24 at 19:22:19 UTC

; 

; external perimeters extrusion width = 0.42mm
; perimeters extrusion width = 0.44mm
; infill extrusion width = 0.44mm
; solid infill extrusion width = 0.44mm
; top infill extrusion width = 0.40mm
; first layer extrusion width = 0.42mm

M73 P0 R43

EXCLUDE_OBJECT_DEFINE NAME='ringing_tower_stl' CENTER=75.496,89.147 POLYGON=[[120.027,60.500],[126.499,60.500],[130.000,55.500],[163.000,55.500],[163.000,63.500],[51.000,63.500],[51.000,175.500],[43.000,175.500],[43.000,101.974],[48.000,98.473],[48.000,92.001],[43.000,88.500],[43.000,55.500],[116.526,55.500]]

M190 S60 ; set bed temperature and wait for it to be reached
M104 S205 ; set temperature
;TYPE:Custom
START_PRINT BED_TEMP=60 EXTRUDER_TEMP=205
;M220 S150
M109 S205 ; set temperature and wait for it to be reached
G21 ; set units to millimeters
G90 ; use absolute coordinates
M83 ; use relative distances for extrusion
; Filament gcode
M107
;LAYER_CHANGE
;Z:0.2
;HEIGHT:0.2
G1 E-1.5 F3600
G1 Z.2 F9000
G1 X41.289 Y52.809
G1 Z.2
G1 E1.5 F2400
;TYPE:Skirt/Brim
;WIDTH:0.42
G1 X43 Y52.311 E.05587
G1 X163 Y52.311 E3.76252
G1 X164.535 Y52.705 E.04969
G1 X165.691 Y53.789 E.04969
G1 X166.189 Y55.5 E.05587
G1 X166.189 Y63.5 E.25083
G1 X165.795 Y65.035 E.04969
G1 X165.255 Y65.755 E.02822
G1 X53.255 Y177.755 E4.96627
G1 X51.891 Y178.562 E.04969
G1 X51 Y178.689 E.02822
G1 X43 Y178.689 E.25083
G1 X41.465 Y178.295 E.04969
G1 X40.309 Y177.211 E.04969
G1 X39.811 Y175.5 E.05587
G1 X39.811 Y55.5 E3.76252
G1 X40.205 Y53.965 E.04969
G1 X41.248 Y52.853 E.0478
G1 E-1.05 F3600
;WIPE_START
G1 F7200
G1 X41.289 Y52.809 E-.02857
G1 X42.141 Y52.561 E-.42143
;WIPE_END
G1 Z.7 F9000
EXCLUDE_OBJECT_START NAME='ringing_tower_stl'
G1 X43.31 Y55.81
G1 Z.2
G1 E1.5 F2400
;TYPE:External perimeter
G1 X75.771 Y55.81 E1.01779
G1 X75.771 Y55.902 E.00288
G1 X72.568 Y60.476 E.17508
G1 X72.742 Y60.81 E.01181
G1 X79.57 Y60.81 E.21409
G1 X79.744 Y60.476 E.01181
G1 X76.541 Y55.902 E.17508
G1 X76.541 Y55.81 E.00288
G1 X115.418 Y55.81 E1.21896
G1 X118.919 Y60.81 E.19138
G1 X119.575 Y60.81 E.02057
G1 X126.742 Y60.81 E.22472
G1 X130.243 Y55.81 E.19138
G1 X130.58 Y55.81 E.01057
G1 X162.69 Y55.81 E1.00679
G1 X162.69 Y63.19 E.23139
G1 X111.128 Y63.19 E1.61669
G1 X109.628 Y61.69 E.06651
G1 X104.372 Y61.69 E.1648
G1 X102.872 Y63.19 E.06651
G1 X50.69 Y63.19 E1.63613
G1 X50.69 Y97.714 E1.08248
G1 X49.19 Y99.441 E.07172
G1 X49.19 Y105.43 E.18778
G1 X50.69 Y107.157 E.07172
G1 X50.69 Y131.843 E.77401
G1 X49.19 Y133.57 E.07172
G1 X49.19 Y139.559 E.18778
G1 X50.69 Y141.286 E.07172
G1 X50.69 Y175.19 E1.06304
G1 X43.31 Y175.19 E.23139
G1 X43.31 Y142.729 E1.01779
G1 X43.402 Y142.729 E.00288
G1 X47.976 Y145.932 E.17508
G1 X48.31 Y145.758 E.01181
G1 X48.31 Y138.93 E.21409
G1 X47.976 Y138.756 E.01181
G1 X43.402 Y141.959 E.17508
G1 X43.31 Y141.959 E.00288
G1 X43.31 Y103.082 E1.21896
G1 X48.31 Y99.581 E.19138
G1 X48.31 Y98.926 E.02054
G1 X48.31 Y91.758 E.22475
G1 X43.31 Y88.257 E.19138
G1 X43.31 Y55.87 E1.01547
;LAYER_CHANGE
;Z:0.4
;HEIGHT:0.2
;BEFORE_LAYER_CHANGE
G92 E0
;0.4


G1 Z0.200 F9000
;AFTER_LAYER_CHANGE
;0.4
G1 F4800
G1 Z0.200 X43.21 Y55.71 E0.00000
G1 Z0.212 X76.034 Y55.71 E0.06407
G1 Z0.213 X76.034 Y55.934 E0.00044
M73 P1 R43
G1 Z0.215 X72.689 Y60.71 E0.01347
G1 Z0.217 X79.948 Y60.71 E0.01989
G1 Z0.220 X76.604 Y55.934 E0.01799
G1 Z0.220 X76.604 Y55.71 E0.00069
G1 Z0.234 X115.632 Y55.71 E0.21106
G1 Z0.237 X119.133 Y60.71 E0.03521
G1 Z0.240 X126.852 Y60.71 E0.04806
G1 Z0.242 X130.353 Y55.71 E0.04021
G1 Z0.254 X162.79 Y55.71 E0.27593
G1 Z0.257 X162.79 Y63.29 E0.06788
G1 Z0.277 X111.087 Y63.29 E0.62122
G1 Z0.277 X109.587 Y61.79 E0.02575
G1 Z0.279 X104.413 Y61.79 E0.06440
G1 Z0.280 X102.913 Y63.29 E0.02667
G1 Z0.300 X50.79 Y63.29 E0.81609
G1 Z0.313 X50.79 Y97.866 E0.61211
G1 Z0.314 X49.29 Y99.593 E0.04080
G1 Z0.316 X49.29 Y105.507 E0.10757
G1 Z0.317 X50.79 Y107.234 E0.04191
G1 Z0.326 X50.79 Y131.766 E0.48514
G1 Z0.327 X49.29 Y133.493 E0.04554
G1 Z0.329 X49.29 Y139.407 E0.11982
G1 Z0.330 X50.79 Y141.134 E0.04666
G1 Z0.343 X50.79 Y175.29 E0.76571
G1 Z0.346 X43.21 Y175.29 E0.17333
G1 Z0.358 X43.21 Y142.466 E0.81433
G1 Z0.358 X43.434 Y142.466 E0.00556
G1 Z0.361 X48.21 Y145.811 E0.14675
G1 Z0.363 X48.21 Y138.552 E0.18581
G1 Z0.365 X43.434 Y141.896 E0.15125
G1 Z0.366 X43.21 Y141.896 E0.00581
G1 Z0.380 X43.21 Y102.868 E1.10313
G1 Z0.383 X48.21 Y99.367 E0.17473
G1 Z0.386 X48.21 Y91.648 E0.22449
G1 Z0.388 X43.21 Y88.147 E0.17972
G1 Z0.400 X43.21 Y55.87 E1.01202
;LAYER_CHANGE
;Z:0.6
;HEIGHT:0.2
;BEFORE_LAYER_CHANGE
G92 E0
;0.6


G1 Z0.400 F9000
;AFTER_LAYER_CHANGE
;0.6
G1 F4800
G1 Z0.400 X43.210 Y55.710 E0.00502
G1 Z0.413 X76.044 Y55.710 E1.02949
G1 Z0.413 X76.044 Y55.934 E0.00702
G1 Z0.415 X72.852 Y60.710 E0.18012
G1 Z0.418 X79.962 Y60.710 E0.22294
G1 Z0.420 X76.668 Y56.003 E0.18015
G1 Z0.420 X76.766 Y55.710 E0.00967
G1 Z0.435 X115.705 Y55.773 E1.22089
G1 Z0.437 X119.296 Y60.710 E0.19141
G1 Z0.440 X126.927 Y60.649 E0.23927
G1 Z0.442 X130.515 Y55.710 E0.19141
G1 Z0.454 X162.790 Y55.710 E1.01196
G1 Z0.457 X162.790 Y63.290 E0.23767
G1 Z0.477 X111.087 Y63.290 E1.62111
G1 Z0.477 X109.587 Y61.790 E0.06651
G1 Z0.479 X104.413 Y61.790 E0.16223
G1 Z0.480 X102.913 Y63.290 E0.06651
G1 Z0.500 X50.790 Y63.290 E1.63428
G1 Z0.513 X50.765 Y97.959 E1.08701
G1 Z0.514 X49.290 Y99.707 E0.07173
G1 Z0.516 X49.314 Y105.600 E0.18479
G1 Z0.517 X50.790 Y107.348 E0.07173
G1 Z0.526 X50.790 Y131.652 E0.76203
G1 Z0.527 X49.311 Y133.397 E0.07173
G1 Z0.529 X49.290 Y139.293 E0.18487
G1 Z0.530 X50.770 Y141.037 E0.07172
G1 Z0.543 X50.790 Y175.290 E1.07397
G1 Z0.546 X43.210 Y175.290 E0.23767
G1 Z0.558 X43.210 Y142.338 E1.03319
G1 Z0.558 X43.434 Y142.338 E0.00702
G1 Z0.561 X48.210 Y145.648 E0.18221
G1 Z0.563 X48.210 Y138.420 E0.22664
G1 Z0.566 X43.447 Y141.753 E0.18228
G1 Z0.566 X43.210 Y141.734 E0.00745
G1 Z0.580 X43.218 Y102.716 E1.22339
G1 Z0.583 X48.210 Y99.204 E0.19138
G1 Z0.586 X48.205 Y91.494 E0.24174
G1 Z0.588 X43.210 Y87.985 E0.19138
G1 Z0.600 X43.210 Y55.870 E1.00694
M106 S255
;LAYER_CHANGE
;Z:0.8
;HEIGHT:0.2
;BEFORE_LAYER_CHANGE
G92 E0
;0.8


G1 Z0.600 F9000
;AFTER_LAYER_CHANGE
;0.8
G1 F4800
G1 Z0.600 X43.210 Y55.710 E0.00502
G1 Z0.613 X76.204 Y55.710 E1.03452
G1 Z0.613 X76.205 Y55.934 E0.00702
G1 Z0.615 X72.987 Y60.710 E0.18056
G1 Z0.618 X80.122 Y60.710 E0.22371
G1 Z0.620 X76.819 Y55.991 E0.18059
G1 Z0.620 X76.901 Y55.710 E0.00917
G1 Z0.635 X115.855 Y55.762 E1.22138
G1 Z0.637 X119.431 Y60.710 E0.19140
G1 Z0.640 X127.077 Y60.659 E0.23973
G1 Z0.642 X130.651 Y55.710 E0.19140
G1 Z0.654 X162.790 Y55.710 E1.00770
G1 Z0.657 X162.790 Y63.290 E0.23767
G1 Z0.677 X111.087 Y63.290 E1.62111
G1 Z0.677 X109.587 Y61.790 E0.06651
G1 Z0.679 X104.413 Y61.790 E0.16223
G1 Z0.680 X102.913 Y63.290 E0.06651
G1 Z0.700 X50.790 Y63.290 E1.63428
G1 Z0.713 X50.765 Y98.073 E1.09058
G1 Z0.714 X49.290 Y99.821 E0.07173
G1 Z0.716 X49.314 Y105.714 E0.18479
G1 Z0.717 X50.790 Y107.462 E0.07173
G1 Z0.726 X50.790 Y131.538 E0.75489
G1 Z0.727 X49.311 Y133.283 E0.07173
G1 Z0.729 X49.290 Y139.179 E0.18487
G1 Z0.730 X50.770 Y140.923 E0.07172
G1 Z0.743 X50.790 Y175.290 E1.07755
G1 Z0.746 X43.210 Y175.290 E0.23767
G1 Z0.758 X43.210 Y142.197 E1.03761
G1 Z0.758 X43.434 Y142.197 E0.00702
G1 Z0.761 X48.210 Y145.513 E0.18231
G1 Z0.763 X48.210 Y138.279 E0.22682
G1 Z0.766 X43.445 Y141.615 E0.18237
G1 Z0.766 X43.210 Y141.599 E0.00738
G1 Z0.780 X43.216 Y102.579 E1.22345
G1 Z0.783 X48.210 Y99.069 E0.19138
G1 Z0.786 X48.205 Y91.357 E0.24181
G1 Z0.788 X43.210 Y87.849 E0.19138
G1 Z0.800 X43.210 Y55.870 E1.00268
;LAYER_CHANGE
;Z:1
;HEIGHT:0.2
;BEFORE_LAYER_CHANGE
G92 E0
;1


G1 Z0.800 F9000
;AFTER_LAYER_CHANGE
;1
G1 F4800
G1 Z0.800 X43.210 Y55.710 E0.00502
G1 Z0.813 X76.337 Y55.710 E1.03868
G1 Z0.813 X76.337 Y55.934 E0.00702
G1 Z0.815 X73.085 Y60.710 E0.18117
G1 Z0.818 X80.255 Y60.710 E0.22480
M73 P2 R43
G1 Z0.820 X76.940 Y55.975 E0.18122
G1 Z0.820 X76.999 Y55.710 E0.00852
G1 Z0.835 X115.974 Y55.748 E1.22203
G1 Z0.837 X119.529 Y60.710 E0.19139
G1 Z0.840 X127.195 Y60.674 E0.24036
G1 Z0.842 X130.748 Y55.710 E0.19139
G1 Z0.854 X162.790 Y55.710 E1.00465
G1 Z0.857 X162.790 Y63.290 E0.23767
G1 Z0.877 X111.087 Y63.290 E1.62111
G1 Z0.877 X109.587 Y61.790 E0.06651
G1 Z0.879 X104.413 Y61.790 E0.16223
G1 Z0.880 X102.913 Y63.290 E0.06651
G1 Z0.900 X50.790 Y63.290 E1.63428
G1 Z0.913 X50.765 Y98.187 E1.09416
M73 P2 R42
G1 Z0.914 X49.290 Y99.935 E0.07173
G1 Z0.916 X49.314 Y105.828 E0.18479
G1 Z0.917 X50.790 Y107.576 E0.07173
G1 Z0.926 X50.790 Y131.424 E0.74774
G1 Z0.927 X49.311 Y133.169 E0.07173
G1 Z0.929 X49.290 Y139.065 E0.18487
G1 Z0.930 X50.770 Y140.809 E0.07172
G1 Z0.943 X50.790 Y175.290 E1.08112
G1 Z0.946 X43.210 Y175.290 E0.23767
G1 Z0.958 X43.210 Y142.091 E1.04092
G1 Z0.958 X43.434 Y142.091 E0.00702
G1 Z0.961 X48.210 Y145.415 E0.18244
G1 Z0.963 X48.210 Y138.175 E0.22701
G1 Z0.966 X43.442 Y141.512 E0.18249
G1 Z0.966 X43.210 Y141.501 E0.00728
G1 Z0.980 X43.215 Y102.478 E1.22353
G1 Z0.983 X48.210 Y98.971 E0.19138
G1 Z0.986 X48.207 Y91.258 E0.24184
G1 Z0.988 X43.210 Y87.752 E0.19138
G1 Z1.000 X43.210 Y55.870 E0.99964
;LAYER_CHANGE
;Z:1.2
;HEIGHT:0.2
;BEFORE_LAYER_CHANGE
G92 E0
;1.2


G1 Z1.000 F9000
;AFTER_LAYER_CHANGE
;1.2
G1 F4800
G1 Z1.000 X43.210 Y55.710 E0.00502
G1 Z1.013 X76.435 Y55.710 E1.04175
G1 Z1.013 X76.435 Y55.934 E0.00702
G1 Z1.015 X73.182 Y60.710 E0.18118
G1 Z1.018 X80.352 Y60.710 E0.22480
G1 Z1.020 X77.038 Y55.975 E0.18120
G1 Z1.020 X77.097 Y55.710 E0.00852
G1 Z1.035 X116.071 Y55.748 E1.22201
G1 Z1.037 X119.626 Y60.710 E0.19139
G1 Z1.040 X127.292 Y60.673 E0.24037
G1 Z1.042 X130.846 Y55.710 E0.19139
G1 Z1.054 X162.790 Y55.710 E1.00158
G1 Z1.057 X162.790 Y63.290 E0.23767
G1 Z1.077 X111.087 Y63.290 E1.62111
G1 Z1.077 X109.587 Y61.790 E0.06651
G1 Z1.079 X104.413 Y61.790 E0.16223
G1 Z1.080 X102.913 Y63.290 E0.06651
G1 Z1.100 X50.790 Y63.290 E1.63428
G1 Z1.113 X50.765 Y98.301 E1.09773
G1 Z1.114 X49.290 Y100.049 E0.07173
G1 Z1.116 X49.314 Y105.942 E0.18479
G1 Z1.117 X50.790 Y107.690 E0.07173
G1 Z1.126 X50.790 Y131.310 E0.74059
G1 Z1.127 X49.311 Y133.055 E0.07173
G1 Z1.129 X49.290 Y138.951 E0.18487
G1 Z1.130 X50.770 Y140.695 E0.07172
G1 Z1.143 X50.790 Y175.290 E1.08469
G1 Z1.146 X43.210 Y175.290 E0.23767
G1 Z1.158 X43.210 Y141.993 E1.04399
G1 Z1.159 X43.434 Y141.993 E0.00702
G1 Z1.161 X48.210 Y145.318 E0.18246
G1 Z1.163 X48.210 Y138.077 E0.22704
G1 Z1.166 X43.442 Y141.414 E0.18249
G1 Z1.166 X43.210 Y141.403 E0.00728
G1 Z1.180 X43.214 Y102.381 E1.22350
G1 Z1.183 X48.210 Y98.874 E0.19138
G1 Z1.186 X48.207 Y91.160 E0.24187
G1 Z1.188 X43.210 Y87.654 E0.19138
G1 Z1.200 X43.210 Y55.870 E0.99657
;LAYER_CHANGE
;Z:1.4
;HEIGHT:0.2
;BEFORE_LAYER_CHANGE
G92 E0
;1.4


G1 Z1.200 F9000
;AFTER_LAYER_CHANGE
;1.4
G1 F4800
G1 Z1.200 X43.210 Y55.710 E0.00502
G1 Z1.213 X76.533 Y55.710 E1.04482
G1 Z1.213 X76.533 Y55.934 E0.00702
G1 Z1.215 X73.280 Y60.710 E0.18119
G1 Z1.218 X80.450 Y60.710 E0.22480
G1 Z1.220 X77.136 Y55.975 E0.18120
G1 Z1.220 X77.195 Y55.710 E0.00852
G1 Z1.235 X116.169 Y55.748 E1.22200
G1 Z1.237 X119.724 Y60.710 E0.19139
G1 Z1.240 X127.390 Y60.673 E0.24037
G1 Z1.242 X130.944 Y55.710 E0.19139
G1 Z1.254 X162.790 Y55.710 E0.99851
G1 Z1.257 X162.790 Y63.290 E0.23767
G1 Z1.277 X111.087 Y63.290 E1.62111
G1 Z1.277 X109.587 Y61.790 E0.06651
G1 Z1.279 X104.413 Y61.790 E0.16223
G1 Z1.280 X102.913 Y63.290 E0.06651
G1 Z1.300 X50.790 Y63.290 E1.63428
G1 Z1.313 X50.765 Y98.415 E1.10131
G1 Z1.314 X49.290 Y100.163 E0.07173
G1 Z1.316 X49.314 Y106.056 E0.18479
G1 Z1.317 X50.790 Y107.804 E0.07173
G1 Z1.326 X50.790 Y131.196 E0.73344
G1 Z1.327 X49.311 Y132.941 E0.07173
G1 Z1.329 X49.290 Y138.837 E0.18487
G1 Z1.330 X50.770 Y140.581 E0.07172
G1 Z1.343 X50.790 Y175.290 E1.08827
G1 Z1.346 X43.210 Y175.290 E0.23767
G1 Z1.358 X43.210 Y141.895 E1.04706
G1 Z1.359 X43.434 Y141.895 E0.00702
G1 Z1.361 X48.210 Y145.220 E0.18246
G1 Z1.363 X48.210 Y137.979 E0.22704
G1 Z1.366 X43.442 Y141.316 E0.18249
G1 Z1.366 X43.210 Y141.305 E0.00728
G1 Z1.381 X43.214 Y102.283 E1.22350
G1 Z1.383 X48.210 Y98.776 E0.19138
G1 Z1.386 X48.207 Y91.062 E0.24187
G1 Z1.388 X43.210 Y87.556 E0.19138
G1 Z1.400 X43.210 Y55.870 E0.99349
;LAYER_CHANGE
;Z:1.6
;HEIGHT:0.2
;BEFORE_LAYER_CHANGE
G92 E0
;1.6


G1 Z1.400 F9000
;AFTER_LAYER_CHANGE
;1.6
G1 F4800
G1 Z1.400 X43.210 Y55.710 E0.00502
G1 Z1.413 X76.628 Y55.710 E1.04781
G1 Z1.413 X76.628 Y55.934 E0.00702
G1 Z1.415 X73.334 Y60.710 E0.18192
G1 Z1.418 X80.544 Y60.710 E0.22606
G1 Z1.420 X77.216 Y55.956 E0.18193
G1 Z1.420 X77.248 Y55.710 E0.00779
G1 Z1.435 X116.247 Y55.731 E1.22279
G1 Z1.437 X119.778 Y60.710 E0.19138
M73 P3 R42
G1 Z1.440 X127.468 Y60.690 E0.24111
G1 Z1.442 X130.998 Y55.710 E0.19138
G1 Z1.454 X162.790 Y55.710 E0.99682
G1 Z1.457 X162.790 Y63.290 E0.23767
G1 Z1.477 X111.087 Y63.290 E1.62111
G1 Z1.477 X109.587 Y61.790 E0.06651
G1 Z1.479 X104.413 Y61.790 E0.16223
G1 Z1.480 X102.913 Y63.290 E0.06651
G1 Z1.500 X50.790 Y63.290 E1.63428
G1 Z1.513 X50.765 Y98.530 E1.10491
G1 Z1.514 X49.290 Y100.278 E0.07173
G1 Z1.516 X49.314 Y106.171 E0.18478
G1 Z1.517 X50.790 Y107.919 E0.07173
G1 Z1.526 X50.790 Y131.081 E0.72623
G1 Z1.527 X49.311 Y132.826 E0.07173
G1 Z1.529 X49.290 Y138.722 E0.18486
G1 Z1.530 X50.770 Y140.466 E0.07172
G1 Z1.543 X50.790 Y175.290 E1.09188
G1 Z1.546 X43.210 Y175.290 E0.23767
G1 Z1.558 X43.210 Y141.833 E1.04903
G1 Z1.559 X43.434 Y141.833 E0.00702
G1 Z1.561 X48.210 Y145.166 E0.18261
G1 Z1.564 X48.210 Y137.917 E0.22729
G1 Z1.566 X43.438 Y141.258 E0.18264
G1 Z1.566 X43.210 Y141.252 E0.00716
G1 Z1.581 X43.212 Y102.227 E1.22362
G1 Z1.583 X48.210 Y98.722 E0.19138
G1 Z1.586 X48.208 Y91.006 E0.24194
G1 Z1.588 X43.210 Y87.502 E0.19138
G1 Z1.600 X43.210 Y55.870 E0.99180
;LAYER_CHANGE
;Z:1.8
;HEIGHT:0.2
;BEFORE_LAYER_CHANGE
G92 E0
;1.8


G1 Z1.600 F9000
;AFTER_LAYER_CHANGE
;1.8
G1 F4800
G1 Z1.600 X43.210 Y55.710 E0.00502
G1 Z1.613 X76.681 Y55.710 E1.04946
G1 Z1.613 X76.681 Y55.934 E0.00702
G1 Z1.615 X73.380 Y60.710 E0.18203
G1 Z1.618 X80.597 Y60.710 E0.22629
G1 Z1.620 X77.267 Y55.954 E0.18206
G1 Z1.620 X77.295 Y55.710 E0.00769
G1 Z1.635 X116.297 Y55.728 E1.22290
G1 Z1.637 X119.824 Y60.710 E0.19138
G1 Z1.640 X127.518 Y60.693 E0.24125
G1 Z1.642 X131.044 Y55.710 E0.19138
G1 Z1.654 X162.790 Y55.710 E0.99537
G1 Z1.657 X162.790 Y63.290 E0.23767
G1 Z1.677 X111.087 Y63.290 E1.62111
G1 Z1.677 X109.587 Y61.790 E0.06651
G1 Z1.679 X104.413 Y61.790 E0.16223
G1 Z1.680 X102.913 Y63.290 E0.06651
G1 Z1.700 X50.790 Y63.290 E1.63428
G1 Z1.713 X50.766 Y98.644 E1.10849
G1 Z1.714 X49.290 Y100.392 E0.07173
G1 Z1.716 X49.314 Y106.285 E0.18479
G1 Z1.717 X50.790 Y108.033 E0.07173
G1 Z1.726 X50.790 Y130.967 E0.71908
G1 Z1.727 X49.311 Y132.712 E0.07173
G1 Z1.729 X49.290 Y138.608 E0.18487
G1 Z1.730 X50.770 Y140.352 E0.07172
G1 Z1.743 X50.790 Y175.290 E1.09545
G1 Z1.746 X43.210 Y175.290 E0.23767
G1 Z1.759 X43.210 Y141.785 E1.05053
G1 Z1.759 X43.434 Y141.785 E0.00702
G1 Z1.761 X48.210 Y145.120 E0.18265
G1 Z1.764 X48.210 Y137.869 E0.22734
G1 Z1.766 X43.438 Y141.210 E0.18266
G1 Z1.766 X43.210 Y141.205 E0.00714
G1 Z1.781 X43.212 Y102.180 E1.22361
G1 Z1.783 X48.210 Y98.676 E0.19138
G1 Z1.786 X48.208 Y90.959 E0.24195
G1 Z1.788 X43.210 Y87.456 E0.19138
G1 Z1.800 X43.210 Y55.870 E0.99036
;LAYER_CHANGE
;Z:2
;HEIGHT:0.2
;BEFORE_LAYER_CHANGE
G92 E0
;2


G1 Z1.800 F9000
;AFTER_LAYER_CHANGE
;2
G1 F4800
G1 Z1.800 X43.210 Y55.710 E0.00502
G1 Z1.813 X76.728 Y55.710 E1.05093
G1 Z1.813 X76.728 Y55.934 E0.00702
G1 Z1.815 X73.427 Y60.710 E0.18204
G1 Z1.818 X80.643 Y60.710 E0.22626
G1 Z1.820 X77.313 Y55.953 E0.18206
G1 Z1.820 X77.341 Y55.710 E0.00768
G1 Z1.835 X116.344 Y55.728 E1.22291
G1 Z1.837 X119.871 Y60.710 E0.19138
G1 Z1.840 X127.564 Y60.693 E0.24122
G1 Z1.842 X131.090 Y55.710 E0.19138
G1 Z1.854 X162.790 Y55.710 E0.99393
G1 Z1.857 X162.790 Y63.290 E0.23767
G1 Z1.877 X111.087 Y63.290 E1.62111
G1 Z1.877 X109.587 Y61.790 E0.06651
G1 Z1.879 X104.413 Y61.790 E0.16223
G1 Z1.880 X102.913 Y63.290 E0.06651
G1 Z1.900 X50.790 Y63.290 E1.63428
G1 Z1.913 X50.766 Y98.758 E1.11206
G1 Z1.914 X49.290 Y100.506 E0.07173
G1 Z1.916 X49.314 Y106.400 E0.18479
G1 Z1.917 X50.790 Y108.147 E0.07173
