; generated by PrusaSlicer 2.8.1 on 2024-10-25 at 16:48:08 UTC

; 

; external perimeters extrusion width = 0.42mm
; perimeters extrusion width = 0.44mm
; infill extrusion width = 0.44mm
; solid infill extrusion width = 0.44mm
; top infill extrusion width = 0.40mm
; support material extrusion width = 0.36mm
; first layer extrusion width = 0.42mm

M73 P0 R48

EXCLUDE_OBJECT_DEFINE NAME='tank_mower_Track_assemblyOverWheel_stl_(Instance_1)' CENTER=127.072,115.500 POLYGON=[[134.197,95.513],[134.950,96.711],[134.072,100.559],[135.321,101.211],[137.116,102.410],[138.739,103.833],[140.080,105.350],[143.636,103.638],[144.971,104.105],[147.141,108.610],[146.673,109.945],[143.118,111.657],[143.430,113.346],[143.571,115.500],[143.430,117.654],[143.118,119.343],[146.673,121.055],[147.141,122.390],[144.971,126.895],[143.636,127.362],[140.080,125.650],[138.739,127.167],[137.116,128.590],[135.321,129.789],[134.072,130.441],[134.950,134.289],[134.197,135.487],[129.323,136.599],[128.125,135.847],[127.247,131.999],[124.918,131.859],[122.801,131.438],[120.757,130.744],[119.754,130.289],[117.293,133.375],[115.888,133.533],[111.979,130.415],[111.821,129.010],[114.281,125.924],[112.782,123.750],[111.827,121.814],[111.133,119.771],[110.947,119.000],[107.000,119.000],[106.000,118.000],[106.000,113.000],[107.000,112.000],[110.947,112.000],[111.133,111.229],[111.827,109.186],[112.782,107.250],[114.281,105.076],[111.821,101.990],[111.979,100.585],[115.888,97.467],[117.293,97.625],[119.754,100.711],[120.757,100.256],[122.801,99.562],[124.918,99.141],[127.247,99.001],[128.125,95.153],[129.323,94.401]]
EXCLUDE_OBJECT_DEFINE NAME='tank_mower_Track_assemblyOverWheel_stl_(Instance_2)' CENTER=79.932,115.500 POLYGON=[[87.057,95.513],[87.809,96.711],[86.931,100.559],[88.181,101.211],[89.975,102.410],[91.598,103.833],[92.940,105.350],[96.496,103.638],[97.831,104.105],[100.000,108.610],[99.533,109.945],[95.977,111.657],[96.290,113.346],[96.431,115.500],[96.290,117.654],[95.977,119.343],[99.533,121.055],[100.000,122.390],[97.831,126.895],[96.496,127.362],[92.940,125.650],[91.598,127.167],[89.975,128.590],[88.181,129.789],[86.931,130.441],[87.809,134.289],[87.057,135.487],[82.182,136.599],[80.985,135.847],[80.107,131.999],[77.777,131.859],[75.660,131.438],[73.616,130.744],[72.614,130.289],[70.153,133.375],[68.748,133.533],[64.838,130.415],[64.680,129.010],[67.141,125.924],[65.641,123.750],[64.687,121.814],[63.993,119.771],[63.806,119.000],[59.860,119.000],[58.860,118.000],[58.860,113.000],[59.860,112.000],[63.806,112.000],[63.993,111.229],[64.687,109.186],[65.641,107.250],[67.141,105.076],[64.680,101.990],[64.838,100.585],[68.748,97.467],[70.153,97.625],[72.614,100.711],[73.616,100.256],[75.660,99.562],[77.777,99.141],[80.107,99.001],[80.985,95.153],[82.182,94.401]]

M190 S60 ; set bed temperature and wait for it to be reached
M104 S205 ; set temperature
;TYPE:Custom
START_PRINT BED_TEMP=60 EXTRUDER_TEMP=205
;M220 S150
M109 S205 ; set temperature and wait for it to be reached
G21 ; set units to millimeters
G90 ; use absolute coordinates
M83 ; use relative distances for extrusion
; Filament gcode
M107
;LAYER_CHANGE
;Z:0.2
;HEIGHT:0.2
G1 E-1.5 F3600
G1 Z.2 F9000
G1 X61.885 Y92.578
G1 Z.2
G1 E1.5 F2400
;TYPE:Skirt/Brim
;WIDTH:0.42
G1 X64.519 Y91.261 E.09234
G1 X65.253 Y91 E.02443
G1 X77.107 Y88.366 E.38074
G1 X77.798 Y88.29 E.0218
G1 X134.787 Y88.29 E1.78685
G1 X135.795 Y88.453 E.03202
G1 X139.747 Y89.77 E.13061
G1 X140.78 Y90.346 E.03708
G1 X148.895 Y97.126 E.33156
G1 X151.53 Y99.76 E.11682
G1 X152.3 Y101.007 E.04595
G1 X153.617 Y104.958 E.13058
G1 X153.781 Y105.966 E.03202
G1 X153.781 Y125.034 E.59786
G1 X153.617 Y126.042 E.03202
G1 X152.3 Y129.993 E.13058
G1 X151.53 Y131.24 E.04595
G1 X148.895 Y133.874 E.11682
G1 X140.78 Y140.654 E.33156
G1 X139.747 Y141.23 E.03708
G1 X135.795 Y142.547 E.13061
G1 X134.787 Y142.71 E.03202
G1 X77.798 Y142.71 E1.78685
G1 X77.107 Y142.634 E.0218
G1 X65.253 Y140 E.38074
G1 X64.519 Y139.739 E.02443
G1 X61.885 Y138.422 E.09234
G1 X61.056 Y137.825 E.03203
G1 X58.422 Y135.191 E.1168
G1 X57.691 Y134.056 E.04233
G1 X53.74 Y123.519 E.35284
G1 X53.537 Y122.4 E.03566
G1 X53.537 Y108.6 E.43269
G1 X53.74 Y107.481 E.03566
G1 X57.691 Y96.944 E.35284
G1 X58.422 Y95.809 E.04233
G1 X61.056 Y93.175 E.1168
G1 X61.836 Y92.613 E.03014
G1 E-1.05 F3600
;WIPE_START
G1 F7200
G1 X61.885 Y92.578 E-.0286
G1 X62.678 Y92.181 E-.4214
;WIPE_END
G1 Z.7 F9000
EXCLUDE_OBJECT_START NAME='tank_mower_Track_assemblyOverWheel_stl_(Instance_1)'
G1 X134.787 Y92.795
G1 Z.2
G1 E1.5 F2400
;TYPE:Support material
G1 X138.738 Y92.795 E.12388
G1 X138.738 Y98.064 E.16521
G1 X140.055 Y98.064 E.04129
G1 X140.055 Y99.381 E.04129
G1 X146.641 Y99.381 E.2065
G1 X146.641 Y100.698 E.04129
G1 X147.958 Y100.698 E.04129
G1 X147.958 Y102.015 E.04129
G1 X149.275 Y102.015 E.04129
G1 X149.275 Y105.966 E.12388
G1 X150.592 Y105.966 E.04129
G1 X150.592 Y113.18 E.22619
G1 X149.275 Y113.18 E.04129
G1 X149.275 Y114.497 E.04129
G1 X146.641 Y114.497 E.08259
G1 X146.641 Y116.503 E.0629
G1 X149.275 Y116.503 E.08259
G1 X149.275 Y117.82 E.04129
G1 X150.592 Y117.82 E.04129
G1 X150.592 Y125.034 E.22619
G1 X149.275 Y125.034 E.04129
G1 X149.275 Y128.985 E.12388
G1 X147.958 Y128.985 E.04129
G1 X147.958 Y130.302 E.04129
G1 X146.641 Y130.302 E.04129
G1 X146.641 Y131.619 E.04129
G1 X140.055 Y131.619 E.2065
G1 X140.055 Y132.936 E.04129
G1 X138.738 Y132.936 E.04129
G1 X138.738 Y138.205 E.16521
G1 X134.787 Y138.205 E.12388
G1 X134.787 Y139.522 E.04129
G1 X124.939 Y139.522 E.30878
G1 X124.939 Y138.205 E.04129
G1 X123.622 Y138.205 E.04129
G1 X123.622 Y135.57 E.08262
G1 X121.616 Y135.57 E.0629
G1 X121.616 Y136.888 E.04132
G1 X113.085 Y136.888 E.26748
G1 X113.085 Y135.57 E.04132
G1 X110.451 Y135.57 E.08259
G1 X110.451 Y134.253 E.04129
G1 X109.134 Y134.253 E.04129
G1 X109.134 Y132.936 E.04129
G1 X107.817 Y132.936 E.04129
G1 X107.817 Y122.4 E.33035
G1 X103.866 Y122.4 E.12388
G1 X103.866 Y108.6 E.43269
G1 X107.817 Y108.6 E.12388
G1 X107.817 Y98.064 E.33035
G1 X109.134 Y98.064 E.04129
G1 X109.134 Y96.747 E.04129
G1 X110.451 Y96.747 E.04129
G1 X110.451 Y95.43 E.04129
G1 X113.085 Y95.43 E.08259
G1 X113.085 Y94.112 E.04132
G1 X121.616 Y94.112 E.26748
G1 X121.616 Y95.43 E.04132
G1 X123.622 Y95.43 E.0629
G1 X123.622 Y92.795 E.08262
G1 X124.939 Y92.795 E.04129
G1 X124.939 Y91.478 E.04129
G1 X134.787 Y91.478 E.30878
G1 X134.787 Y92.739 E.03954
G1 X134.787 Y92.739 F9000
G1 X131.997 Y99.326
G1 F2400
G1 X133.524 Y99.326 E.04788
G1 X133.524 Y100.643 E.04129
G1 X136.158 Y100.643 E.08259
G1 X136.158 Y101.961 E.04132
G1 X137.476 Y101.961 E.04132
G1 X137.476 Y103.278 E.04129
G1 X138.793 Y103.278 E.04129
G1 X138.793 Y104.595 E.04129
G1 X140.11 Y104.595 E.04129
G1 X140.11 Y105.912 E.04129
G1 X141.427 Y105.912 E.04129
G1 X141.427 Y108.546 E.08259
G1 X142.744 Y108.546 E.04129
G1 X142.744 Y112.497 E.12388
G1 X144.061 Y112.497 E.04129
G1 X144.061 Y118.503 E.18831
G1 X142.744 Y118.503 E.04129
G1 X142.744 Y122.454 E.12388
G1 X141.427 Y122.454 E.04129
G1 X141.427 Y125.088 E.08259
G1 X140.11 Y125.088 E.04129
G1 X140.11 Y126.405 E.04129
G1 X138.793 Y126.405 E.04129
G1 X138.793 Y127.722 E.04129
G1 X137.476 Y127.722 E.04129
G1 X137.476 Y129.039 E.04129
G1 X136.158 Y129.039 E.04132
G1 X136.158 Y130.357 E.04132
G1 X133.524 Y130.357 E.08259
G1 X133.524 Y131.674 E.04129
G1 X120.933 Y131.674 E.39478
G1 X120.933 Y130.357 E.04129
G1 X118.299 Y130.357 E.08259
G1 X118.299 Y129.039 E.04132
G1 X115.665 Y129.039 E.08259
G1 X115.665 Y127.722 E.04129
G1 X114.348 Y127.722 E.04129
G1 X114.348 Y126.405 E.04129
G1 X113.031 Y126.405 E.04129
G1 X113.031 Y123.771 E.08259
G1 X111.714 Y123.771 E.04129
G1 X111.714 Y119.82 E.12388
G1 X110.397 Y119.82 E.04129
G1 X110.397 Y112.707 E.22302
G1 X110.397 Y111.18 E.04788
G1 X111.714 Y111.18 E.04129
G1 X111.714 Y107.229 E.12388
G1 X113.031 Y107.229 E.04129
G1 X113.031 Y104.595 E.08259
G1 X114.348 Y104.595 E.04129
G1 X114.348 Y103.278 E.04129
G1 X115.665 Y103.278 E.04129
G1 X115.665 Y101.961 E.04129
G1 X118.299 Y101.961 E.08259
G1 X118.299 Y100.643 E.04132
G1 X120.933 Y100.643 E.08259
G1 X120.933 Y99.326 E.04129
G1 X131.941 Y99.326 E.34515
G1 E-1.05 F3600
;WIPE_START
G1 F7200
G1 X130.994 Y99.326 E-.45
;WIPE_END
G1 Z.7 F9000
G1 X150.033 Y124.864
G1 Z.2
G1 E1.5 F2400
G1 X150.033 Y118.159 E.21023
G1 X149.614 Y118.159 E.01314
G1 X149.614 Y124.694 E.2049
G1 X149.195 Y124.694 E.01314
G1 X149.195 Y118.159 E.2049
G1 X148.936 Y118.159 E.00812
G1 X148.936 Y116.842 E.04129
G1 X148.776 Y116.842 E.00502
G1 X148.776 Y128.646 E.37011
G1 X148.357 Y128.646 E.01314
G1 X148.357 Y116.842 E.37011
G1 X147.938 Y116.842 E.01314
G1 X147.938 Y128.646 E.37011
G1 X147.618 Y128.646 E.01003
G1 X147.618 Y129.963 E.04129
G1 X147.519 Y129.963 E.0031
G1 X147.519 Y116.842 E.4114
G1 X147.1 Y116.842 E.01314
G1 X147.1 Y129.963 E.4114
G1 X146.681 Y129.963 E.01314
G1 X146.681 Y116.842 E.4114
G1 X146.301 Y116.842 E.01191
G1 X146.301 Y114.158 E.08415
G1 X146.681 Y114.158 E.01191
G1 X146.681 Y101.037 E.4114
G1 X147.1 Y101.037 E.01314
G1 X147.1 Y114.158 E.4114
G1 X147.519 Y114.158 E.01314
G1 X147.519 Y101.037 E.4114
G1 X147.618 Y101.037 E.0031
G1 X147.618 Y102.354 E.04129
G1 X147.938 Y102.354 E.01003
G1 X147.938 Y114.158 E.37011
G1 X148.357 Y114.158 E.01314
G1 X148.357 Y102.354 E.37011
G1 X148.776 Y102.354 E.01314
G1 X148.776 Y114.158 E.37011
G1 X148.936 Y114.158 E.00502
G1 X148.936 Y112.841 E.04129
G1 X149.195 Y112.841 E.00812
G1 X149.195 Y106.306 E.2049
G1 X149.614 Y106.306 E.01314
G1 X149.614 Y112.841 E.2049
G1 X150.033 Y112.841 E.01314
G1 X150.033 Y106.136 E.21023
G1 E-1.05 F3600
;WIPE_START
G1 F7200
G1 X150.033 Y107.083 E-.45
;WIPE_END
G1 Z.7 F9000
G1 X146.262 Y131.45
G1 Z.2
G1 E1.5 F2400
G1 X146.262 Y99.72 E.99487
G1 X145.843 Y99.72 E.01314
G1 X145.843 Y131.28 E.98954
G1 X145.424 Y131.28 E.01314
M73 P1 R47
G1 X145.424 Y99.72 E.98954
G1 X145.005 Y99.72 E.01314
G1 X145.005 Y131.28 E.98954
G1 X144.586 Y131.28 E.01314
G1 X144.586 Y99.72 E.98954
G1 X144.167 Y99.72 E.01314
G1 X144.167 Y112.158 E.38998
G1 X143.748 Y112.158 E.01314
G1 X143.748 Y99.72 E.38998
G1 X143.329 Y99.72 E.01314
G1 X143.329 Y112.158 E.38998
G1 X143.083 Y112.158 E.00771
G1 X143.083 Y108.207 E.12388
G1 X142.91 Y108.207 E.00542
G1 X142.91 Y99.72 E.2661
G1 X142.491 Y99.72 E.01314
G1 X142.491 Y108.207 E.2661
G1 X142.072 Y108.207 E.01314
G1 X142.072 Y99.72 E.2661
G1 X141.653 Y99.72 E.01314
G1 X141.653 Y105.572 E.18349
G1 X141.234 Y105.572 E.01314
G1 X141.234 Y99.72 E.18349
G1 X140.815 Y99.72 E.01314
G1 X140.815 Y105.572 E.18349
G1 X140.449 Y105.572 E.01148
G1 X140.396 Y99.72 E.18349
G1 X139.978 Y99.72 E.01311
G1 X139.978 Y104.255 E.14219
G1 X139.559 Y104.255 E.01314
G1 X139.559 Y98.403 E.18349
G1 X139.14 Y98.403 E.01314
G1 X139.14 Y104.255 E.18349
G1 X139.132 Y102.938 E.04129
G1 X138.721 Y102.938 E.01289
G1 X138.721 Y98.403 E.14219
G1 X138.399 Y98.403 E.0101
G1 X138.399 Y93.135 E.16517
G1 X138.302 Y93.135 E.00304
G1 X138.302 Y102.938 E.30737
G1 X137.883 Y102.938 E.01314
G1 X137.883 Y93.135 E.30737
G1 X137.464 Y93.135 E.01314
G1 X137.464 Y101.621 E.26607
G1 X137.045 Y101.621 E.01314
G1 X137.045 Y93.135 E.26607
G1 X136.626 Y93.135 E.01314
G1 X136.626 Y101.621 E.26607
G1 X136.498 Y101.621 E.00401
G1 X136.498 Y100.304 E.04129
G1 X136.207 Y100.304 E.00912
G1 X136.207 Y93.135 E.22478
G1 X135.788 Y93.135 E.01314
G1 X135.788 Y100.304 E.22478
G1 X135.369 Y100.304 E.01314
G1 X135.369 Y93.135 E.22478
G1 X134.95 Y93.135 E.01314
G1 X134.95 Y100.304 E.22478
G1 X134.531 Y100.304 E.01314
G1 X134.531 Y93.135 E.22478
G1 X134.448 Y93.135 E.0026
G1 X134.448 Y91.818 E.04129
G1 X134.112 Y91.818 E.01054
G1 X134.112 Y100.304 E.26607
G1 X133.864 Y100.304 E.00778
G1 X133.864 Y98.987 E.04129
G1 X133.693 Y98.987 E.00536
G1 X133.693 Y91.818 E.22478
G1 X133.274 Y91.818 E.01314
G1 X133.274 Y98.987 E.22478
G1 X132.855 Y98.987 E.01314
G1 X132.855 Y91.818 E.22478
G1 X132.436 Y91.818 E.01314
G1 X132.436 Y98.987 E.22478
G1 X132.017 Y98.987 E.01314
G1 X132.017 Y91.818 E.22478
G1 X131.598 Y91.818 E.01314
G1 X131.598 Y98.987 E.22478
G1 X131.179 Y98.987 E.01314
G1 X131.179 Y91.818 E.22478
G1 X130.76 Y91.818 E.01314
G1 X130.76 Y98.987 E.22478
G1 X130.341 Y98.987 E.01314
G1 X130.341 Y91.818 E.22478
G1 X129.922 Y91.818 E.01314
G1 X129.922 Y98.987 E.22478
G1 X129.503 Y98.987 E.01314
G1 X129.503 Y91.818 E.22478
G1 X129.084 Y91.818 E.01314
G1 X129.084 Y98.987 E.22478
G1 X128.665 Y98.987 E.01314
G1 X128.665 Y91.818 E.22478
G1 X128.246 Y91.818 E.01314
G1 X128.246 Y98.987 E.22478
G1 X127.827 Y98.987 E.01314
G1 X127.827 Y91.818 E.22478
G1 X127.408 Y91.818 E.01314
G1 X127.408 Y98.987 E.22478
G1 X126.989 Y98.987 E.01314
G1 X126.989 Y91.818 E.22478
G1 X126.57 Y91.818 E.01314
G1 X126.57 Y98.987 E.22478
G1 X126.151 Y98.987 E.01314
G1 X126.151 Y91.818 E.22478
G1 X125.732 Y91.818 E.01314
G1 X125.732 Y98.987 E.22478
G1 X125.313 Y98.987 E.01314
G1 X125.278 Y91.818 E.22478
G1 X125.278 Y93.135 E.04129
G1 X124.894 Y93.135 E.01204
G1 X124.894 Y98.987 E.18349
G1 X124.475 Y98.987 E.01314
G1 X124.475 Y93.135 E.18349
G1 X124.056 Y93.135 E.01314
G1 X124.056 Y98.987 E.18349
G1 X123.637 Y98.987 E.01314
G1 X123.637 Y95.769 E.1009
G1 X123.218 Y95.769 E.01314
G1 X123.218 Y98.987 E.1009
G1 X122.799 Y98.987 E.01314
G1 X122.799 Y95.769 E.1009
G1 X122.38 Y95.769 E.01314
G1 X122.38 Y98.987 E.1009
G1 X121.962 Y98.987 E.01311
G1 X121.962 Y95.769 E.1009
G1 X121.543 Y95.769 E.01314
G1 X121.543 Y98.987 E.1009
G1 X121.124 Y98.987 E.01314
G1 X121.124 Y94.452 E.14219
G1 X120.705 Y94.452 E.01314
G1 X120.705 Y98.987 E.14219
G1 X120.594 Y98.987 E.00348
G1 X120.594 Y100.304 E.04129
G1 X120.286 Y100.304 E.00966
G1 X120.286 Y94.452 E.18349
G1 X119.867 Y94.452 E.01314
G1 X119.867 Y100.304 E.18349
G1 X119.448 Y100.304 E.01314
G1 X119.448 Y94.452 E.18349
G1 X119.029 Y94.452 E.01314
G1 X119.029 Y100.304 E.18349
G1 X118.61 Y100.304 E.01314
G1 X118.61 Y94.452 E.18349
G1 X118.191 Y94.452 E.01314
G1 X118.191 Y100.304 E.18349
G1 X117.96 Y100.304 E.00724
G1 X117.96 Y101.621 E.04129
G1 X117.772 Y101.621 E.00589
G1 X117.772 Y94.452 E.22478
G1 X117.353 Y94.452 E.01314
G1 X117.353 Y101.621 E.22478
G1 X116.934 Y101.621 E.01314
G1 X116.934 Y94.452 E.22478
G1 X116.515 Y94.452 E.01314
G1 X116.515 Y101.621 E.22478
G1 X116.096 Y101.621 E.01314
G1 X116.096 Y94.452 E.22478
G1 X115.677 Y94.452 E.01314
G1 X115.677 Y101.621 E.22478
G1 X115.326 Y101.621 E.01101
G1 X115.326 Y102.938 E.04129
G1 X115.258 Y102.938 E.00213
G1 X115.258 Y94.452 E.26607
G1 X114.839 Y94.452 E.01314
G1 X114.839 Y102.938 E.26607
G1 X114.42 Y102.938 E.01314
G1 X114.42 Y94.452 E.26607
G1 X114.001 Y94.452 E.01314
G1 X114.001 Y104.255 E.30737
G1 X113.582 Y104.255 E.01314
G1 X113.582 Y94.452 E.30737
G1 X113.425 Y94.452 E.00492
G1 X113.425 Y95.769 E.04129
G1 X113.163 Y95.769 E.00821
G1 X113.163 Y104.255 E.26607
G1 X112.744 Y104.255 E.01314
G1 X112.744 Y95.769 E.26607
G1 X112.325 Y95.769 E.01314
G1 X112.325 Y106.89 E.34869
G1 X111.906 Y106.89 E.01314
G1 X111.906 Y95.769 E.34869
G1 X111.487 Y95.769 E.01314
G1 X111.487 Y106.89 E.34869
G1 X111.374 Y106.89 E.00354
G1 X111.374 Y110.841 E.12388
G1 X111.068 Y110.841 E.00959
G1 X111.068 Y95.769 E.47257
G1 X110.79 Y95.769 E.00872
G1 X110.79 Y97.086 E.04129
G1 X110.649 Y97.086 E.00442
G1 X110.649 Y110.841 E.43128
G1 X110.23 Y110.841 E.01314
G1 X110.23 Y97.086 E.43128
G1 X109.811 Y97.086 E.01314
G1 X109.811 Y133.914 E1.15472
G1 X110.23 Y133.914 E.01314
G1 X110.23 Y120.159 E.43128
G1 X110.649 Y120.159 E.01314
G1 X110.649 Y133.914 E.43128
G1 X110.79 Y133.914 E.00442
G1 X110.79 Y135.231 E.04129
G1 X111.068 Y135.231 E.00872
G1 X111.068 Y120.159 E.47257
G1 X111.374 Y120.159 E.00959
G1 X111.374 Y124.11 E.12388
G1 X111.487 Y124.111 E.00354
G1 X111.487 Y135.231 E.34866
G1 X111.906 Y135.231 E.01314
G1 X111.906 Y124.111 E.34866
G1 X112.325 Y124.111 E.01314
G1 X112.325 Y135.231 E.34866
G1 X112.744 Y135.231 E.01314
G1 X112.744 Y126.745 E.26607
G1 X113.163 Y126.745 E.01314
G1 X113.163 Y135.231 E.26607
G1 X113.425 Y135.231 E.00821
G1 X113.425 Y136.548 E.04129
G1 X113.582 Y136.548 E.00492
G1 X113.582 Y126.745 E.30737
G1 X114.001 Y126.745 E.01314
G1 X114.001 Y136.548 E.30737
G1 X114.42 Y136.548 E.01314
