; generated by PrusaSlicer 2.8.1 on 2024-10-16 at 06:21:34 UTC

; 

; external perimeters extrusion width = 0.42mm
; perimeters extrusion width = 0.44mm
; infill extrusion width = 0.44mm
; solid infill extrusion width = 0.44mm
; top infill extrusion width = 0.40mm
; first layer extrusion width = 0.42mm

M73 P0 R142

EXCLUDE_OBJECT_DEFINE NAME='tank_mower_Body023_stl' CENTER=111.319,123.808 POLYGON=[[165.960,27.468],[168.172,27.699],[170.349,28.148],[171.419,28.452],[173.506,29.218],[175.508,30.185],[176.470,30.742],[178.307,31.995],[179.177,32.688],[180.809,34.198],[181.566,35.012],[182.283,35.862],[183.586,37.663],[184.705,39.585],[185.629,41.607],[186.015,42.650],[186.630,44.786],[187.031,46.973],[187.214,49.189],[187.224,50.301],[186.282,108.015],[186.206,108.876],[185.913,109.990],[185.557,110.777],[184.913,111.732],[99.673,197.012],[98.784,197.745],[98.034,198.175],[96.673,198.639],[95.528,198.769],[36.702,199.701],[34.487,199.517],[33.388,199.344],[31.224,198.835],[29.120,198.116],[27.098,197.192],[25.177,196.073],[23.375,194.770],[22.525,194.053],[20.936,192.498],[19.508,190.794],[18.255,188.957],[17.190,187.006],[16.322,184.958],[15.661,182.836],[15.213,180.658],[14.981,178.447],[14.969,176.224],[15.177,174.010],[15.601,171.828],[16.240,169.698],[16.637,168.659],[17.583,166.647],[18.722,164.738],[20.045,162.951],[21.537,161.303],[149.622,33.257],[151.342,31.848],[153.192,30.615],[155.155,29.571],[157.211,28.726],[159.341,28.088],[161.523,27.663],[163.737,27.456]]

M190 S60 ; set bed temperature and wait for it to be reached
M104 S215 ; set temperature
;TYPE:Custom
START_PRINT BED_TEMP=60 EXTRUDER_TEMP=215
M109 S215 ; set temperature and wait for it to be reached
G21 ; set units to millimeters
G90 ; use absolute coordinates
M83 ; use relative distances for extrusion
; Filament gcode
M107
;LAYER_CHANGE
;Z:0.2
;HEIGHT:0.2
G1 E-5 F3600
G1 Z.2 F9000
G1 X89.163 Y89.191
G1 Z.2
G1 E5 F2400
M204 S500
;TYPE:Skirt/Brim
;WIDTH:0.42
G1 F1200
G1 X147.424 Y30.948 E2.58299
G1 X149.382 Y29.333 E.07958
G1 X151.49 Y27.919 E.07959
G1 X153.728 Y26.72 E.07961
G1 X156.038 Y25.761 E.07842
G1 X157.429 Y25.305 E.0459
G1 X159.895 Y24.705 E.07958
G1 X162.409 Y24.351 E.0796
G1 X164.945 Y24.247 E.07958
G1 X167.322 Y24.378 E.07464
G1 X168.738 Y24.561 E.04477
G1 X171.222 Y25.081 E.07957
G1 X173.495 Y25.789 E.07465
G1 X174.822 Y26.313 E.04473
G1 X177.104 Y27.425 E.07959
G1 X179.135 Y28.668 E.07466
G1 X180.294 Y29.501 E.04475
G1 X182.119 Y31.03 E.07465
G1 X183.9 Y32.839 E.0796
G1 X184.82 Y33.93 E.04475
G1 X186.215 Y35.859 E.07464
G1 X186.981 Y37.107 E.04591
G1 X188.124 Y39.331 E.0784
G1 X189.005 Y41.543 E.07465
G1 X189.715 Y43.98 E.07959
G1 X190.201 Y46.632 E.08454
G1 X190.397 Y49.005 E.07466
G1 X190.412 Y50.274 E.03979
G1 X189.468 Y108.143 E1.81468
G1 X189.287 Y109.744 E.05052
G1 X188.878 Y111.163 E.0463
G1 X188.179 Y112.615 E.05053
G1 X187.324 Y113.819 E.0463
G1 X101.927 Y199.267 E3.78778
G1 X100.864 Y200.178 E.04389
G1 X99.487 Y201.013 E.05049
G1 X97.688 Y201.676 E.06012
G1 X96.537 Y201.89 E.03671
G1 X95.657 Y201.955 E.02767
G1 X36.518 Y202.884 E1.85449
G1 X34.145 Y202.688 E.07466
G1 X31.647 Y202.237 E.07959
G1 X30.266 Y201.877 E.04475
G1 X28.014 Y201.106 E.07463
G1 X26.702 Y200.545 E.04474
G1 X24.587 Y199.45 E.07467
G1 X22.456 Y198.072 E.07957
G1 X21.32 Y197.208 E.04475
G1 X19.426 Y195.518 E.07959
G1 X17.707 Y193.65 E.0796
G1 X16.181 Y191.622 E.07958
G1 X14.863 Y189.453 E.07958
G1 X13.765 Y187.164 E.0796
G1 X12.899 Y184.778 E.07959
G1 X12.272 Y182.318 E.0796
G1 X11.891 Y179.809 E.07957
G1 X11.76 Y177.274 E.07959
G1 X11.879 Y174.739 E.07957
G1 X12.248 Y172.227 E.07961
G1 X12.863 Y169.765 E.07957
G1 X13.718 Y167.375 E.07959
G1 X14.805 Y165.081 E.07959
G1 X16.113 Y162.905 E.0796
G1 X17.629 Y160.87 E.07957
G1 X19.283 Y159.049 E.07713
G1 X89.12 Y89.233 E3.09622
G1 E-3.5 F3600
;WIPE_START
G1 F7200
G1 X89.163 Y89.191 E-.02855
G1 X91.354 Y87.001 E-1.47145
;WIPE_END
EXCLUDE_OBJECT_START NAME='tank_mower_Body023_stl'
G1 X122.18 Y113.864 F9000
G1 E5 F2400
;TYPE:External perimeter
;WIDTH:0.419999
G1 F1200
G1 X122.335 Y113.667 E.00786
G1 X122.701 Y113.357 E.01504
G1 X123.122 Y113.126 E.01506
G1 X123.575 Y112.983 E.01489
G1 X123.943 Y112.935 E.01164
G1 X124.416 Y112.957 E.01485
G1 X124.881 Y113.073 E.01503
G1 X125.315 Y113.28 E.01508
G1 X125.698 Y113.568 E.01502
G1 X126.018 Y113.926 E.01506
G1 X126.259 Y114.34 E.01502
G1 X126.414 Y114.794 E.01504
G1 X126.476 Y115.27 E.01505
G1 X126.443 Y115.749 E.01505
G1 X126.315 Y116.211 E.01503
G1 X126.098 Y116.639 E.01505
G1 X125.8 Y117.015 E.01504
G1 X125.434 Y117.326 E.01506
G1 X125.014 Y117.557 E.01503
G1 X124.561 Y117.7 E.01489
G1 X124.033 Y117.741 E.0166
G1 X123.72 Y117.725 E.00983
G1 X123.254 Y117.609 E.01506
G1 X122.821 Y117.403 E.01503
G1 X122.437 Y117.115 E.01505
G1 X122.118 Y116.757 E.01503
G1 X121.877 Y116.342 E.01505
G1 X121.722 Y115.888 E.01504
G1 X121.66 Y115.413 E.01502
G1 X121.693 Y114.934 E.01505
G1 X121.821 Y114.472 E.01503
G1 X122.038 Y114.044 E.01505
G1 X122.142 Y113.911 E.00529
G1 E-3.5 F3600
;WIPE_START
G1 F7200
G1 X122.18 Y113.864 E-.02871
G1 X122.335 Y113.667 E-.11907
G1 X122.701 Y113.357 E-.22783
G1 X123.122 Y113.126 E-.2281
G1 X123.575 Y112.983 E-.22564
G1 X123.943 Y112.935 E-.17628
G1 X124.416 Y112.957 E-.22492
G1 X124.881 Y113.073 E-.22764
G1 X124.96 Y113.111 E-.04181
;WIPE_END
G1 X104.38 Y134.702 F9000
G1 E5 F2400
G1 F1200
G1 X104.485 Y134.781 E.00412
G1 X104.804 Y135.139 E.01503
G1 X105.046 Y135.553 E.01504
G1 X105.201 Y136.007 E.01504
G1 X105.263 Y136.483 E.01505
G1 X105.229 Y136.962 E.01506
G1 X105.062 Y137.504 E.01778
G1 X104.885 Y137.852 E.01224
G1 X104.587 Y138.229 E.01507
G1 X104.221 Y138.539 E.01504
G1 X103.801 Y138.77 E.01503
G1 X103.348 Y138.913 E.01489
G1 X102.986 Y138.96 E.01145
G1 X102.507 Y138.939 E.01503
G1 X102.041 Y138.822 E.01506
G1 X101.608 Y138.616 E.01503
G1 X101.224 Y138.328 E.01505
G1 X100.905 Y137.97 E.01503
G1 X100.663 Y137.556 E.01504
G1 X100.508 Y137.102 E.01504
G1 X100.447 Y136.654 E.01418
G1 X100.48 Y136.147 E.01593
G1 X100.608 Y135.685 E.01503
G1 X100.825 Y135.257 E.01505
G1 X101.122 Y134.88 E.01505
G1 X101.488 Y134.57 E.01504
G1 X101.908 Y134.339 E.01503
G1 X102.362 Y134.196 E.01492
G1 X102.73 Y134.149 E.01163
G1 X103.203 Y134.17 E.01485
G1 X103.668 Y134.287 E.01503
G1 X104.101 Y134.493 E.01503
G1 X104.332 Y134.666 E.00905
G1 E-3.5 F3600
;WIPE_START
G1 F7200
G1 X104.38 Y134.702 E-.0285
G1 X104.485 Y134.781 E-.06242
G1 X104.804 Y135.139 E-.22776
G1 X105.046 Y135.553 E-.22778
G1 X105.201 Y136.007 E-.22787
G1 X105.263 Y136.483 E-.22801
G1 X105.229 Y136.962 E-.2281
G1 X105.062 Y137.504 E-.26939
G1 X105.062 Y137.504 E-.00017
;WIPE_END
G1 X47.632 Y167.928 F9000
G1 E5 F2400
G1 F1200
G1 X47.757 Y168.138 E.00766
G1 X47.925 Y168.616 E.01589
G1 X47.995 Y169.118 E.01589
G1 X47.966 Y169.619 E.01573
G1 X47.838 Y170.11 E.01591
G1 X47.615 Y170.568 E.01597
G1 X47.365 Y170.907 E.01321
G1 X46.998 Y171.252 E.01579
G1 X46.568 Y171.52 E.01589
G1 X46.082 Y171.7 E.01625
G1 X45.578 Y171.778 E.01599
G1 X45.071 Y171.756 E.01591
G1 X44.575 Y171.632 E.01603
G1 X44.114 Y171.413 E.016
G1 X43.713 Y171.115 E.01566
G1 X43.367 Y170.727 E.0163
G1 X43.111 Y170.288 E.01593
G1 X42.946 Y169.808 E.01591
G1 X42.88 Y169.3 E.01606
G1 X42.892 Y169.099 E.00631
G1 X42.915 Y168.791 E.00968
G1 X43.047 Y168.308 E.0157
G1 X43.275 Y167.853 E.01596
G1 X43.585 Y167.456 E.01579
G1 X43.971 Y167.124 E.01596
G1 X44.415 Y166.876 E.01595
G1 X44.899 Y166.72 E.01594
G1 X45.304 Y166.667 E.01281
G1 X45.806 Y166.69 E.01576
G1 X46.301 Y166.813 E.01599
G1 X46.761 Y167.032 E.01597
G1 X47.162 Y167.331 E.01568
G1 X47.498 Y167.703 E.01572
G1 X47.601 Y167.876 E.00631
G1 E-3.5 F3600
;WIPE_START
G1 F7200
G1 X47.632 Y167.928 E-.02876
G1 X47.757 Y168.138 E-.11608
G1 X47.925 Y168.616 E-.24067
G1 X47.995 Y169.118 E-.24076
G1 X47.966 Y169.619 E-.23837
G1 X47.838 Y170.11 E-.24102
G1 X47.615 Y170.568 E-.24197
G1 X47.425 Y170.826 E-.15237
;WIPE_END
G1 X51.66 Y181.642 F9000
G1 E5 F2400
G1 F1200
G1 X51.985 Y181.56 E.01051
G1 X52.456 Y181.568 E.01477
G1 X52.825 Y181.661 E.01193
G1 X53.168 Y181.825 E.01192
G1 X53.471 Y182.054 E.01191
G1 X53.724 Y182.338 E.01193
G1 X53.915 Y182.667 E.01193
G1 X54.037 Y183.027 E.01192
G1 X54.085 Y183.404 E.01192
G1 X54.058 Y183.783 E.01191
G1 X53.956 Y184.15 E.01194
G1 X53.783 Y184.489 E.01193
G1 X53.547 Y184.786 E.01189
G1 X53.256 Y185.032 E.01195
G1 X52.923 Y185.214 E.0119
G1 X52.565 Y185.327 E.01177
G1 X52.276 Y185.364 E.00914
G1 X51.897 Y185.346 E.0119
G1 X51.528 Y185.253 E.01193
G1 X51.185 Y185.089 E.01192
G1 X50.881 Y184.86 E.01193
G1 X50.629 Y184.576 E.0119
G1 X50.389 Y184.106 E.01655
G1 X50.304 Y183.797 E.01005
G1 X50.273 Y183.434 E.01142
G1 X50.317 Y183.05 E.01212
G1 X50.439 Y182.679 E.01225
G1 X50.628 Y182.35 E.0119
G1 X50.857 Y182.084 E.01101
G1 X51.097 Y181.882 E.00984
G1 X51.43 Y181.699 E.01191
G1 X51.601 Y181.657 E.00552
G1 E-3.5 F3600
;WIPE_START
G1 F7200
G1 X51.66 Y181.642 E-.02892
G1 X51.985 Y181.56 E-.15921
G1 X52.456 Y181.568 E-.22376
M73 P0 R141
G1 X52.825 Y181.661 E-.18076
G1 X53.168 Y181.825 E-.18059
G1 X53.471 Y182.054 E-.18041
G1 X53.724 Y182.338 E-.18067
G1 X53.915 Y182.667 E-.1807
G1 X54.037 Y183.027 E-.18055
G1 X54.038 Y183.036 E-.00443
;WIPE_END
G1 X56.97 Y171.421 F9000
G1 E5 F2400
G1 F1200
G1 X56.855 Y171.367 E.00398
G1 X56.484 Y171.087 E.01457
G1 X56.182 Y170.747 E.01426
G1 X55.95 Y170.35 E.01442
G1 X55.802 Y169.915 E.01441
G1 X55.743 Y169.459 E.01442
G1 X55.775 Y169 E.01443
G1 X55.898 Y168.557 E.01442
G1 X56.106 Y168.146 E.01444
G1 X56.391 Y167.786 E.0144
G1 X56.742 Y167.489 E.01442
G1 X57.145 Y167.267 E.01443
G1 X57.579 Y167.13 E.01427
G1 X57.932 Y167.085 E.01116
G1 X58.385 Y167.106 E.01422
G1 X58.831 Y167.218 E.01442
G1 X59.246 Y167.415 E.0144
G1 X59.614 Y167.691 E.01442
G1 X59.92 Y168.035 E.01444
G1 X60.152 Y168.432 E.01442
G1 X60.3 Y168.867 E.01441
G1 X60.359 Y169.323 E.01442
G1 X60.327 Y169.782 E.01443
G1 X60.155 Y170.332 E.01807
G1 X59.813 Y170.883 E.02033
G1 X59.453 Y171.226 E.01559
G1 X59.062 Y171.467 E.0144
G1 X58.63 Y171.626 E.01443
G1 X58.176 Y171.697 E.01441
G1 X57.717 Y171.676 E.01441
G1 X57.27 Y171.564 E.01445
G1 X57.024 Y171.447 E.00854
G1 E-3.5 F3600
;WIPE_START
G1 F7200
G1 X56.97 Y171.421 E-.02847
G1 X56.855 Y171.367 E-.06035
G1 X56.484 Y171.087 E-.22078
G1 X56.182 Y170.747 E-.21601
G1 X55.95 Y170.35 E-.21841
G1 X55.802 Y169.915 E-.21826
G1 X55.743 Y169.459 E-.21841
G1 X55.775 Y169 E-.21855
G1 X55.832 Y168.795 E-.10076
;WIPE_END
G1 X46.729 Y158.484 F9000
G1 E5 F2400
G1 F1200
G1 X46.636 Y158.563 E.00383
G1 X46.328 Y158.742 E.01117
G1 X45.902 Y158.898 E.01422
G1 X45.448 Y158.969 E.01441
G1 X44.989 Y158.948 E.01441
G1 X44.543 Y158.836 E.01442
G1 X44.141 Y158.648 E.01391
G1 X43.76 Y158.363 E.01492
G1 X43.454 Y158.019 E.01444
G1 X43.222 Y157.622 E.01442
G1 X43.074 Y157.187 E.01441
G1 X43.015 Y156.731 E.01442
G1 X43.047 Y156.272 E.01443
G1 X43.17 Y155.829 E.01442
G1 X43.378 Y155.419 E.01441
G1 X43.663 Y155.058 E.01442
G1 X44.014 Y154.761 E.01442
G1 X44.417 Y154.539 E.01443
G1 X44.851 Y154.402 E.01427
G1 X45.204 Y154.357 E.01116
G1 X45.657 Y154.378 E.01422
G1 X46.173 Y154.522 E.0168
G1 X46.519 Y154.687 E.01202
G1 X46.886 Y154.963 E.0144
G1 X47.192 Y155.307 E.01444
G1 X47.424 Y155.704 E.01442
G1 X47.572 Y156.139 E.01441
G1 X47.631 Y156.595 E.01442
G1 X47.599 Y157.054 E.01443
G1 X47.476 Y157.497 E.01442
G1 X47.268 Y157.907 E.01441
G1 X46.983 Y158.268 E.01442
G1 X46.775 Y158.445 E.00856
G1 E-3.5 F3600
;WIPE_START
G1 F7200
G1 X46.729 Y158.484 E-.02865
G1 X46.636 Y158.563 E-.05796
G1 X46.328 Y158.742 E-.16921
G1 X45.902 Y158.898 E-.21549
G1 X45.448 Y158.969 E-.21827
G1 X44.989 Y158.948 E-.21825
G1 X44.543 Y158.836 E-.21843
G1 X44.141 Y158.648 E-.2108
G1 X43.866 Y158.442 E-.16294
;WIPE_END
G1 X93.468 Y191.386 F9000
G1 E5 F2400
G1 F1200
G1 X93.698 Y191.095 E.01163
G1 X94.064 Y190.785 E.01504
G1 X94.484 Y190.554 E.01503
G1 X94.937 Y190.411 E.01489
G1 X95.305 Y190.364 E.01163
G1 X95.778 Y190.385 E.01485
G1 X96.244 Y190.502 E.01506
G1 X96.677 Y190.708 E.01503
G1 X97.061 Y190.996 E.01505
G1 X97.38 Y191.354 E.01503
G1 X97.622 Y191.768 E.01504
G1 X97.776 Y192.222 E.01503
G1 X97.838 Y192.698 E.01505
G1 X97.805 Y193.177 E.01505
G1 X97.677 Y193.639 E.01503
G1 X97.46 Y194.067 E.01505
G1 X97.166 Y194.44 E.01489
G1 X96.894 Y194.683 E.01144
G1 X96.486 Y194.935 E.01504
G1 X95.981 Y195.11 E.01676
G1 X95.512 Y195.173 E.01484
G1 X95.082 Y195.154 E.0135
G1 X94.617 Y195.037 E.01503
G1 X94.183 Y194.831 E.01506
G1 X93.8 Y194.543 E.01502
G1 X93.481 Y194.185 E.01503
G1 X93.239 Y193.771 E.01504
G1 X93.084 Y193.317 E.01504
G1 X93.022 Y192.841 E.01505
G1 X93.055 Y192.362 E.01505
G1 X93.183 Y191.9 E.01503
G1 X93.4 Y191.472 E.01505
G1 X93.431 Y191.433 E.00156
G1 E-3.5 F3600
;WIPE_START
G1 F7200
G1 X93.468 Y191.386 E-.02841
G1 X93.698 Y191.095 E-.17619
G1 X94.064 Y190.785 E-.22783
G1 X94.484 Y190.554 E-.22768
G1 X94.937 Y190.411 E-.22564
G1 X95.305 Y190.364 E-.17622
G1 X95.778 Y190.385 E-.2249
G1 X96.213 Y190.494 E-.21313
;WIPE_END
G1 X82.441 Y160.028 F9000
G1 E5 F2400
G1 F1200
G1 X82.247 Y160.1 E.00649
G1 X81.773 Y160.173 E.01504
G1 X81.175 Y160.123 E.01882
G1 X80.85 Y160.044 E.01049
G1 X80.397 Y159.831 E.0157
G1 X80.011 Y159.541 E.01514
G1 X79.692 Y159.183 E.01503
G1 X79.45 Y158.769 E.01504
G1 X79.295 Y158.315 E.01504
G1 X79.233 Y157.839 E.01505
G1 X79.267 Y157.36 E.01506
G1 X79.395 Y156.898 E.01503
G1 X79.612 Y156.47 E.01505
G1 X79.909 Y156.094 E.01502
G1 X80.275 Y155.783 E.01506
G1 X80.695 Y155.552 E.01503
G1 X81.149 Y155.409 E.01492
G1 X81.517 Y155.362 E.01163
G1 X81.989 Y155.384 E.01482
G1 X82.455 Y155.5 E.01506
G1 X82.888 Y155.706 E.01503
G1 X83.272 Y155.994 E.01505
G1 X83.591 Y156.352 E.01503
G1 X83.833 Y156.767 E.01506
G1 X83.988 Y157.221 E.01504
G1 X84.05 Y157.696 E.01502
G1 X84.016 Y158.175 E.01506
G1 X83.888 Y158.637 E.01503
G1 X83.671 Y159.065 E.01505
G1 X83.374 Y159.442 E.01505
G1 X83.012 Y159.75 E.0149
G1 X82.691 Y159.936 E.01163
G1 X82.497 Y160.008 E.00649
G1 E-3.5 F3600
;WIPE_START
G1 F7200
G1 X82.441 Y160.028 E-.02825
G1 X82.247 Y160.1 E-.09829
G1 X81.773 Y160.173 E-.2278
G1 X81.175 Y160.123 E-.28504
G1 X80.85 Y160.044 E-.15887
G1 X80.397 Y159.831 E-.23777
G1 X80.011 Y159.541 E-.22933
G1 X79.692 Y159.183 E-.22776
G1 X79.685 Y159.17 E-.00689
;WIPE_END
G1 X178.158 Y109.031 F9000
G1 E5 F2400
G1 F1200
G1 X178.091 Y108.918 E.00412
G1 X177.937 Y108.464 E.01503
G1 X177.875 Y107.988 E.01505
G1 X177.908 Y107.509 E.01505
G1 X178.036 Y107.047 E.01503
G1 X178.253 Y106.619 E.01505
G1 X178.55 Y106.243 E.01502
G1 X178.916 Y105.932 E.01506
G1 X179.337 Y105.701 E.01506
G1 X179.79 Y105.558 E.01489
G1 X180.158 Y105.511 E.01163
G1 X180.631 Y105.533 E.01485
G1 X181.096 Y105.649 E.01503
G1 X181.53 Y105.855 E.01506
G1 X181.913 Y106.143 E.01502
G1 X182.232 Y106.501 E.01503
G1 X182.474 Y106.916 E.01506
G1 X182.629 Y107.37 E.01504
G1 X182.691 Y107.845 E.01502
G1 X182.658 Y108.324 E.01505
G1 X182.53 Y108.786 E.01503
G1 X182.316 Y109.21 E.01489
G1 X181.976 Y109.617 E.01663
G1 X181.747 Y109.83 E.00981
G1 X181.338 Y110.082 E.01506
G1 X180.888 Y110.249 E.01505
G1 X180.414 Y110.322 E.01504
G1 X179.935 Y110.301 E.01503
G1 X179.469 Y110.184 E.01506
G1 X179.036 Y109.978 E.01503
G1 X178.652 Y109.69 E.01505
G1 X178.333 Y109.332 E.01503
G1 X178.188 Y109.083 E.00903
G1 E-3.5 F3600
;WIPE_START
G1 F7200
G1 X178.158 Y109.031 E-.02852
G1 X178.091 Y108.918 E-.0624
G1 X177.937 Y108.464 E-.22772
G1 X177.875 Y107.988 E-.22801
G1 X177.908 Y107.509 E-.22806
G1 X178.036 Y107.047 E-.22772
G1 X178.253 Y106.619 E-.22794
G1 X178.55 Y106.243 E-.2276
G1 X178.618 Y106.186 E-.04203
;WIPE_END
G1 X139.559 Y148.651 F9000
G1 E5 F2400
G1 F1200
G1 X139.806 Y148.928 E.01164
G1 X140.048 Y149.342 E.01504
G1 X140.203 Y149.796 E.01504
G1 X140.265 Y150.272 E.01505
G1 X140.231 Y150.75 E.01503
G1 X140.103 Y151.213 E.01506
G1 X139.886 Y151.641 E.01505
G1 X139.589 Y152.017 E.01502
G1 X139.223 Y152.327 E.01504
G1 X138.803 Y152.559 E.01504
G1 X138.382 Y152.694 E.01386
G1 X137.988 Y152.749 E.01247
G1 X137.509 Y152.727 E.01503
G1 X137.043 Y152.611 E.01506
G1 X136.61 Y152.405 E.01503
G1 X136.226 Y152.117 E.01505
