; generated by PrusaSlicer 2.8.1 on 2024-10-01 at 18:03:02 UTC

; 

; external perimeters extrusion width = 0.42mm
; perimeters extrusion width = 0.44mm
; infill extrusion width = 0.44mm
; solid infill extrusion width = 0.44mm
; top infill extrusion width = 0.40mm
; first layer extrusion width = 0.42mm

M73 P0 R20

EXCLUDE_OBJECT_DEFINE NAME='bearing_stl' CENTER=103.000,115.500 POLYGON=[[104.274,102.563],[105.536,102.750],[106.774,103.060],[107.975,103.490],[109.128,104.035],[110.222,104.691],[111.247,105.451],[112.192,106.308],[113.049,107.253],[113.809,108.278],[114.465,109.372],[115.010,110.525],[115.440,111.726],[115.750,112.964],[115.937,114.226],[116.000,115.500],[115.937,116.774],[115.750,118.036],[115.440,119.274],[115.010,120.475],[114.465,121.628],[113.809,122.722],[113.049,123.747],[112.192,124.692],[111.247,125.549],[110.222,126.309],[109.128,126.965],[107.975,127.510],[106.774,127.940],[105.536,128.250],[104.274,128.437],[103.000,128.500],[101.726,128.437],[100.464,128.250],[99.226,127.940],[98.025,127.510],[96.872,126.965],[95.778,126.309],[94.753,125.549],[93.808,124.692],[92.951,123.747],[92.191,122.722],[91.535,121.628],[90.990,120.475],[90.560,119.274],[90.250,118.036],[90.063,116.774],[90.000,115.500],[90.063,114.226],[90.250,112.964],[90.560,111.726],[90.990,110.525],[91.535,109.372],[92.191,108.278],[92.951,107.253],[93.808,106.308],[94.753,105.451],[95.778,104.691],[96.872,104.035],[98.025,103.490],[99.226,103.060],[100.464,102.750],[101.726,102.563],[103.000,102.500]]

M190 S60 ; set bed temperature and wait for it to be reached
M104 S200 ; set temperature
;TYPE:Custom
START_PRINT BED_TEMP=60 EXTRUDER_TEMP=200
M109 S200 ; set temperature and wait for it to be reached
G21 ; set units to millimeters
G90 ; use absolute coordinates
M83 ; use relative distances for extrusion
; Filament gcode
M107
;LAYER_CHANGE
;Z:0.2
;HEIGHT:0.2
G1 E-1.5 F3600
G1 Z.2 F9000
G1 X92.495 Y102.976
G1 Z.2
G1 E1.5 F2400
M204 S500
;TYPE:Skirt/Brim
;WIDTH:0.42
G1 F1200
G1 X93.774 Y102.007 E.05031
G1 X95.141 Y101.167 E.05031
G1 X96.583 Y100.466 E.05027
G1 X98.088 Y99.909 E.05032
G1 X99.64 Y99.503 E.0503
G1 X101.224 Y99.251 E.05029
G1 X102.825 Y99.155 E.05029
G1 X104.428 Y99.216 E.0503
G1 X106.017 Y99.435 E.05029
G1 X107.577 Y99.808 E.05029
G1 X109.093 Y100.332 E.05029
G1 X110.551 Y101.002 E.05031
G1 X111.936 Y101.812 E.05031
G1 X113.234 Y102.754 E.05029
G1 X114.434 Y103.818 E.05029
G1 X115.524 Y104.995 E.0503
G1 X116.493 Y106.274 E.05031
G1 X117.333 Y107.641 E.05031
G1 X118.034 Y109.083 E.05027
G1 X118.591 Y110.588 E.05032
G1 X118.997 Y112.14 E.0503
G1 X119.249 Y113.724 E.05029
G1 X119.345 Y115.325 E.05029
G1 X119.284 Y116.928 E.0503
G1 X119.065 Y118.517 E.05029
G1 X118.692 Y120.077 E.05029
G1 X118.168 Y121.593 E.05029
G1 X117.498 Y123.051 E.05031
G1 X116.688 Y124.436 E.05031
G1 X115.746 Y125.734 E.05029
G1 X114.682 Y126.934 E.05029
G1 X113.505 Y128.024 E.0503
G1 X112.226 Y128.993 E.05031
G1 X110.859 Y129.833 E.05031
G1 X109.417 Y130.534 E.05027
G1 X107.912 Y131.091 E.05032
G1 X106.36 Y131.497 E.0503
G1 X104.776 Y131.749 E.05029
G1 X103.175 Y131.845 E.05029
G1 X101.572 Y131.784 E.0503
G1 X99.983 Y131.565 E.05029
G1 X98.423 Y131.192 E.05029
G1 X96.907 Y130.668 E.05029
G1 X95.449 Y129.998 E.05031
G1 X94.064 Y129.188 E.05031
G1 X92.766 Y128.246 E.05029
G1 X91.566 Y127.182 E.05029
G1 X90.476 Y126.005 E.0503
G1 X89.507 Y124.726 E.05031
G1 X88.667 Y123.359 E.05031
G1 X87.966 Y121.917 E.05027
G1 X87.409 Y120.412 E.05032
G1 X87.003 Y118.86 E.0503
G1 X86.751 Y117.276 E.05029
G1 X86.655 Y115.675 E.05029
G1 X86.716 Y114.072 E.0503
G1 X86.935 Y112.483 E.05029
G1 X87.308 Y110.923 E.05029
G1 X87.832 Y109.407 E.05029
G1 X88.502 Y107.949 E.05031
G1 X89.312 Y106.564 E.05031
G1 X90.254 Y105.266 E.05029
G1 X91.318 Y104.066 E.05029
G1 X92.451 Y103.017 E.04841
G1 X92.451 Y103.017 F9000
G1 X92.707 Y103.293
G1 F1200
G1 X92.749 Y103.255 E.00178
G1 X93.998 Y102.309 E.04913
G1 X95.334 Y101.491 E.04912
G1 X96.744 Y100.807 E.04914
G1 X98.215 Y100.264 E.04916
G1 X99.731 Y99.869 E.04912
G1 X101.279 Y99.624 E.04914
G1 X102.844 Y99.531 E.04916
G1 X104.41 Y99.593 E.04914
G1 X105.962 Y99.808 E.04913
G1 X107.486 Y100.173 E.04914
G1 X108.966 Y100.687 E.04912
G1 X110.39 Y101.343 E.04916
G1 X111.742 Y102.136 E.04914
G1 X113.01 Y103.057 E.04914
G1 X114.181 Y104.098 E.04913
G1 X115.245 Y105.249 E.04915
G1 X116.191 Y106.498 E.04913
G1 X117.009 Y107.834 E.04912
G1 X117.693 Y109.244 E.04914
G1 X118.236 Y110.715 E.04916
G1 X118.631 Y112.231 E.04912
G1 X118.876 Y113.779 E.04914
G1 X118.969 Y115.344 E.04916
G1 X118.907 Y116.91 E.04914
G1 X118.692 Y118.462 E.04913
G1 X118.327 Y119.986 E.04914
G1 X117.813 Y121.466 E.04912
G1 X117.157 Y122.89 E.04916
G1 X116.364 Y124.242 E.04914
G1 X115.443 Y125.51 E.04914
G1 X114.402 Y126.681 E.04913
G1 X113.251 Y127.745 E.04915
G1 X112.002 Y128.691 E.04913
G1 X110.666 Y129.509 E.04912
G1 X109.256 Y130.193 E.04914
G1 X107.785 Y130.736 E.04916
G1 X106.269 Y131.131 E.04912
G1 X104.721 Y131.376 E.04914
G1 X103.156 Y131.469 E.04916
G1 X101.59 Y131.407 E.04914
G1 X100.038 Y131.192 E.04913
G1 X98.514 Y130.827 E.04914
G1 X97.034 Y130.313 E.04912
G1 X95.61 Y129.657 E.04916
G1 X94.258 Y128.864 E.04914
G1 X92.99 Y127.943 E.04914
G1 X91.819 Y126.902 E.04913
G1 X90.755 Y125.751 E.04915
G1 X89.809 Y124.502 E.04913
G1 X88.991 Y123.166 E.04912
G1 X88.307 Y121.756 E.04914
G1 X87.764 Y120.285 E.04916
G1 X87.369 Y118.769 E.04912
G1 X87.124 Y117.221 E.04914
G1 X87.031 Y115.656 E.04916
G1 X87.093 Y114.09 E.04914
G1 X87.308 Y112.538 E.04913
G1 X87.673 Y111.014 E.04914
G1 X88.187 Y109.534 E.04912
G1 X88.843 Y108.11 E.04916
G1 X89.636 Y106.758 E.04914
G1 X90.557 Y105.49 E.04914
G1 X91.598 Y104.319 E.04913
G1 X92.663 Y103.334 E.04548
G1 E-1.05 F3600
;WIPE_START
G1 F7200
G1 X92.707 Y103.293 E-.02857
G1 X92.749 Y103.255 E-.0269
G1 X93.411 Y102.754 E-.39453
;WIPE_END
EXCLUDE_OBJECT_START NAME='bearing_stl'
G1 X96.411 Y107.192 F9000
G1 E1.5 F2400
;TYPE:Perimeter
;WIDTH:0.419999
G1 F1200
G1 X96.77 Y107.006 E.01268
G1 X97.201 Y106.97 E.01356
G1 X97.614 Y107.101 E.01359
G1 X97.944 Y107.381 E.01357
G1 X98.143 Y107.765 E.01356
G1 X98.181 Y108.088 E.0102
G1 X98.179 Y108.197 E.00342
G1 X98.048 Y108.609 E.01356
G1 X97.769 Y108.94 E.01357
G1 X97.384 Y109.139 E.01359
G1 X96.953 Y109.175 E.01356
G1 X96.54 Y109.044 E.01359
G1 X96.209 Y108.764 E.01359
G1 X96.011 Y108.38 E.01355
G1 X95.974 Y107.948 E.01359
G1 X96.106 Y107.536 E.01356
G1 X96.365 Y107.229 E.01259
G1 X96.365 Y107.229 F9000
G1 X96.107 Y106.964
;TYPE:External perimeter
G1 F1200
G1 X96.394 Y106.75 E.01122
G1 X96.808 Y106.616 E.01364
G1 X97.244 Y106.593 E.01369
G1 X97.663 Y106.712 E.01366
G1 X98.037 Y106.935 E.01365
G1 X98.32 Y107.267 E.01368
G1 X98.507 Y107.661 E.01367
G1 X98.558 Y108.093 E.01364
G1 X98.556 Y108.239 E.00458
G1 X98.437 Y108.659 E.01369
G1 X98.214 Y109.033 E.01365
M73 P1 R20
G1 X97.882 Y109.316 E.01368
G1 X97.489 Y109.503 E.01365
G1 X97.056 Y109.554 E.01367
G1 X96.625 Y109.491 E.01366
G1 X96.237 Y109.293 E.01366
G1 X95.913 Y109.001 E.01368
G1 X95.7 Y108.62 E.01369
G1 X95.594 Y108.198 E.01364
G1 X95.628 Y107.763 E.01368
G1 X95.774 Y107.353 E.01365
G1 X96.044 Y107.011 E.01366
G1 X96.059 Y107 E.00058
G1 X96.059 Y107 F9000
G1 X97.252 Y107.112
;TYPE:Solid infill
;WIDTH:0.444408
G1 F1200
G1 X97.742 Y107.602 E.02313
G1 X97.803 Y107.697 E.00377
G1 X97.863 Y107.846 E.00536
G1 X97.892 Y108.004 E.00536
G1 X97.89 Y108.164 E.00534
G1 X97.863 Y108.291 E.00433
G1 X96.859 Y107.287 E.0474
G1 X96.701 Y107.346 E.00563
G1 X96.501 Y107.497 E.00837
G1 X97.652 Y108.648 E.05434
G1 X97.587 Y108.712 E.00305
G1 X97.452 Y108.799 E.00536
G1 X97.296 Y108.86 E.00559
G1 X96.291 Y107.855 E.04745
G1 X96.264 Y107.981 E.0043
G1 X96.262 Y108.141 E.00534
G1 X96.291 Y108.299 E.00536
G1 X96.35 Y108.448 E.00535
G1 X96.412 Y108.544 E.00382
G1 X96.912 Y109.043 E.02358
G1 E-1.05 F3600
;WIPE_START
G1 F7200
G1 X96.412 Y108.544 E-.33554
G1 X96.35 Y108.448 E-.05428
G1 X96.303 Y108.33 E-.06018
;WIPE_END
G1 X95.302 Y110.695 F9000
G1 E1.5 F2400
;TYPE:Perimeter
;WIDTH:0.419999
G1 F1200
G1 X95.488 Y111.012 E.01152
G1 X95.544 Y111.332 E.01019
G1 X95.549 Y111.44 E.00339
G1 X95.44 Y111.86 E.01361
G1 X95.18 Y112.205 E.01355
G1 X94.807 Y112.425 E.01358
G1 X94.379 Y112.486 E.01356
G1 X93.959 Y112.378 E.0136
G1 X93.613 Y112.117 E.01359
G1 X93.393 Y111.745 E.01355
G1 X93.333 Y111.316 E.01358
G1 X93.441 Y110.897 E.01357
G1 X93.701 Y110.551 E.01357
G1 X94.074 Y110.331 E.01358
G1 X94.503 Y110.27 E.01359
G1 X94.922 Y110.378 E.01357
G1 X95.268 Y110.639 E.01359
G1 X95.271 Y110.644 E.00018
G1 X95.271 Y110.644 F9000
G1 X95.565 Y110.429
;TYPE:External perimeter
G1 F1200
G1 X95.637 Y110.504 E.00326
G1 X95.846 Y110.886 E.01365
G1 X95.921 Y111.316 E.01369
G1 X95.927 Y111.462 E.00458
G1 X95.832 Y111.887 E.01365
G1 X95.63 Y112.273 E.01366
G1 X95.315 Y112.574 E.01366
G1 X94.932 Y112.783 E.01368
G1 X94.503 Y112.858 E.01365
G1 X94.069 Y112.819 E.01366
G1 X93.67 Y112.643 E.01367
G1 X93.331 Y112.37 E.01365
G1 X93.097 Y112.002 E.01367
G1 X92.967 Y111.586 E.01367
G1 X92.977 Y111.15 E.01367
G1 X93.1 Y110.732 E.01366
G1 X93.35 Y110.376 E.01364
G1 X93.685 Y110.096 E.01369
G1 X94.091 Y109.939 E.01365
G1 X94.524 Y109.892 E.01366
G1 X94.95 Y109.987 E.01369
G1 X95.336 Y110.189 E.01366
G1 X95.524 Y110.386 E.00854
G1 X95.524 Y110.386 F9000
G1 X95.413 Y111.212
;TYPE:Solid infill
;WIDTH:0.4452
G1 F1200
G1 X94.913 Y110.713 E.02363
G1 X94.799 Y110.643 E.00447
G1 X94.566 Y110.575 E.00812
G1 X94.323 Y110.569 E.00813
G1 X94.225 Y110.593 E.00337
G1 X95.228 Y111.596 E.04745
G1 X95.178 Y111.733 E.00488
G1 X95.094 Y111.87 E.00538
G1 X95.017 Y111.954 E.00381
G1 X93.865 Y110.802 E.0545
G1 X93.787 Y110.886 E.00383
G1 X93.704 Y111.023 E.00536
G1 X93.654 Y111.16 E.00488
G1 X94.657 Y112.163 E.04745
G1 X94.555 Y112.188 E.00351
G1 X94.395 Y112.195 E.00536
G1 X94.237 Y112.17 E.00535
G1 X94.086 Y112.115 E.00538
G1 X93.968 Y112.043 E.00462
G1 X93.469 Y111.544 E.02361
G1 E-1.05 F3600
;WIPE_START
G1 F7200
G1 X93.968 Y112.043 E-.3352
G1 X94.086 Y112.115 E-.06566
G1 X94.183 Y112.15 E-.04914
;WIPE_END
G1 X93.57 Y114.412 F9000
G1 E1.5 F2400
;TYPE:Perimeter
;WIDTH:0.419999
G1 F1200
G1 X93.716 Y114.412 E.00458
G1 X94.116 Y114.577 E.01357
G1 X94.423 Y114.884 E.01361
G1 X94.588 Y115.284 E.01357
G1 X94.599 Y115.608 E.01016
G1 X94.588 Y115.716 E.0034
G1 X94.423 Y116.116 E.01357
G1 X94.116 Y116.423 E.01361
G1 X93.716 Y116.588 E.01357
G1 X93.284 Y116.588 E.01355
G1 X92.884 Y116.423 E.01357
G1 X92.577 Y116.116 E.01361
G1 X92.412 Y115.716 E.01357
G1 X92.412 Y115.284 E.01355
G1 X92.577 Y114.884 E.01357
G1 X92.884 Y114.577 E.01361
G1 X93.284 Y114.412 E.01357
G1 X93.51 Y114.412 E.00709
G1 X93.51 Y114.412 F9000
G1 X93.547 Y114.032
;TYPE:External perimeter
G1 F1200
G1 X93.79 Y114.04 E.00762
G1 X94.198 Y114.194 E.01367
G1 X94.553 Y114.447 E.01367
G1 X94.806 Y114.802 E.01367
G1 X94.96 Y115.21 E.01367
G1 X94.974 Y115.645 E.01365
G1 X94.96 Y115.79 E.00457
G1 X94.806 Y116.198 E.01367
G1 X94.553 Y116.553 E.01367
G1 X94.198 Y116.806 E.01367
G1 X93.79 Y116.96 E.01367
G1 X93.355 Y116.974 E.01365
G1 X92.93 Y116.875 E.01368
G1 X92.56 Y116.645 E.01366
G1 X92.262 Y116.327 E.01366
G1 X92.082 Y115.93 E.01367
G1 X92.012 Y115.5 E.01366
G1 X92.082 Y115.07 E.01366
G1 X92.262 Y114.673 E.01367
G1 X92.56 Y114.355 E.01366
G1 X92.93 Y114.125 E.01366
G1 X93.355 Y114.026 E.01368
G1 X93.487 Y114.03 E.00414
G1 X93.487 Y114.03 F9000
G1 X94.472 Y115.332
;TYPE:Solid infill
;WIDTH:0.445833
G1 F1200
G1 X93.983 Y114.844 E.02314
G1 X93.816 Y114.746 E.00649
G1 X93.58 Y114.691 E.00812
G1 X93.285 Y114.715 E.00992
G1 X94.285 Y115.715 E.04738
G1 X94.18 Y115.954 E.00875
G1 X94.078 Y116.078 E.00538
G1 X92.922 Y114.922 E.05477
G1 X92.82 Y115.046 E.00538
G1 X92.715 Y115.285 E.00875
G1 X93.715 Y116.285 E.04738
G1 X93.66 Y116.302 E.00193
G1 X93.5 Y116.318 E.00539
G1 X93.34 Y116.302 E.00539
G1 X93.187 Y116.256 E.00535
G1 X93.046 Y116.18 E.00537
G1 X92.528 Y115.668 E.0244
G1 E-1.05 F3600
;WIPE_START
G1 F7200
G1 X93.046 Y116.18 E-.34596
G1 X93.187 Y116.256 E-.07608
G1 X93.244 Y116.273 E-.02796
;WIPE_END
G1 X94.031 Y118.611 F9000
G1 E1.5 F2400
;TYPE:Perimeter
;WIDTH:0.419999
G1 F1200
G1 X94.164 Y118.547 E.00463
G1 X94.596 Y118.523 E.01357
G1 X95.005 Y118.666 E.01359
G1 X95.327 Y118.955 E.01357
G1 X95.515 Y119.345 E.01357
G1 X95.544 Y119.668 E.01017
G1 X95.539 Y119.777 E.00342
G1 X95.396 Y120.186 E.01359
G1 X95.108 Y120.508 E.01355
G1 X94.718 Y120.696 E.01357
G1 X94.286 Y120.721 E.01357
G1 X93.877 Y120.578 E.01359
G1 X93.554 Y120.289 E.01359
G1 X93.366 Y119.899 E.01357
G1 X93.342 Y119.467 E.01357
G1 X93.485 Y119.058 E.01359
G1 X93.774 Y118.735 E.01359
G1 X93.977 Y118.637 E.00707
G1 X93.977 Y118.637 F9000
G1 X93.842 Y118.267
;TYPE:External perimeter
G1 F1200
G1 X94.213 Y118.158 E.01212
G1 X94.649 Y118.148 E.01367
G1 X95.065 Y118.278 E.01367
G1 X95.433 Y118.512 E.01367
G1 X95.706 Y118.851 E.01365
G1 X95.882 Y119.25 E.01367
G1 X95.921 Y119.684 E.01366
G1 X95.915 Y119.83 E.00458
G1 X95.784 Y120.246 E.01367
G1 X95.551 Y120.614 E.01366
G1 X95.211 Y120.887 E.01367
G1 X94.813 Y121.063 E.01364
G1 X94.378 Y121.102 E.01369
G1 X93.949 Y121.027 E.01365
G1 X93.567 Y120.818 E.01365
G1 X93.251 Y120.517 E.01368
G1 X93.05 Y120.131 E.01365
G1 X92.955 Y119.705 E.01369
G1 X93.001 Y119.272 E.01365
G1 X93.159 Y118.866 E.01366
G1 X93.438 Y118.531 E.01367
G1 X93.786 Y118.287 E.01333
G1 X93.786 Y118.287 F9000
G1 X94.619 Y118.663
;TYPE:Solid infill
;WIDTH:0.445199
G1 F1200
G1 X95.106 Y119.149 E.02301
G1 X95.178 Y119.267 E.00462
G1 X95.233 Y119.418 E.00538
G1 X95.257 Y119.576 E.00535
G1 X95.226 Y119.838 E.00882
G1 X94.223 Y118.835 E.04745
G1 X94.086 Y118.885 E.00488
G1 X93.949 Y118.968 E.00536
G1 X93.865 Y119.046 E.00383
G1 X95.017 Y120.198 E.0545
G1 X94.933 Y120.275 E.00381
G1 X94.796 Y120.359 E.00538
G1 X94.659 Y120.409 E.00488
G1 X93.656 Y119.406 E.04745
G1 X93.631 Y119.508 E.00351
G1 X93.624 Y119.668 E.00536
G1 X93.649 Y119.826 E.00535
G1 X93.704 Y119.977 E.00538
G1 X93.776 Y120.095 E.00462
G1 X94.275 Y120.594 E.02361
G1 E-1.05 F3600
;WIPE_START
G1 F7200
G1 X93.776 Y120.095 E-.3352
G1 X93.704 Y119.977 E-.06566
G1 X93.669 Y119.88 E-.04914
;WIPE_END
G1 X96.27 Y122.194 F9000
G1 E1.5 F2400
;TYPE:Perimeter
;WIDTH:0.419999
G1 F1200
G1 X96.361 Y122.08 E.00457
G1 X96.74 Y121.87 E.01359
G1 X97.17 Y121.822 E.01357
G1 X97.586 Y121.942 E.01358
G1 X97.925 Y122.212 E.01359
G1 X98.134 Y122.59 E.01354
G1 X98.181 Y122.912 E.0102
G1 X98.183 Y123.021 E.00342
G1 X98.063 Y123.437 E.01358
G1 X97.793 Y123.775 E.01356
G1 X97.414 Y123.985 E.01359
G1 X96.984 Y124.033 E.01357
G1 X96.568 Y123.913 E.01358
G1 X96.229 Y123.643 E.01359
G1 X96.02 Y123.264 E.01357
G1 X95.971 Y122.834 E.01357
G1 X96.091 Y122.418 E.01358
G1 X96.232 Y122.241 E.0071
G1 X96.232 Y122.241 F9000
G1 X95.957 Y121.973
;TYPE:External perimeter
G1 F1200
G1 X96.015 Y121.895 E.00305
G1 X96.357 Y121.625 E.01366
G1 X96.768 Y121.479 E.01368
G1 X97.202 Y121.444 E.01365
G1 X97.624 Y121.551 E.01365
G1 X98.005 Y121.764 E.01369
G1 X98.297 Y122.087 E.01365
G1 X98.495 Y122.475 E.01366
G1 X98.558 Y122.907 E.01369
G1 X98.56 Y123.053 E.00458
G1 X98.453 Y123.475 E.01365
G1 X98.241 Y123.855 E.01364
G1 X97.917 Y124.147 E.01368
G1 X97.529 Y124.346 E.01367
G1 X97.098 Y124.409 E.01366
G1 X96.665 Y124.358 E.01367
G1 X96.271 Y124.17 E.01369
G1 X95.94 Y123.888 E.01363
G1 X95.716 Y123.513 E.0137
G1 X95.598 Y123.094 E.01365
G1 X95.62 Y122.659 E.01366
G1 X95.754 Y122.244 E.01367
G1 X95.921 Y122.021 E.00874
G1 E-1.05 F3600
;WIPE_START
G1 F7200
G1 X95.957 Y121.973 E-.0285
G1 X96.015 Y121.895 E-.04617
G1 X96.357 Y121.625 E-.20697
G1 X96.691 Y121.506 E-.16836
;WIPE_END
G1 X98.047 Y122.762 F9000
G1 E1.5 F2400
;TYPE:Solid infill
;WIDTH:0.444408
G1 F1200
G1 X97.548 Y122.263 E.02356
G1 X97.455 Y122.203 E.00369
G1 X97.224 Y122.128 E.00811
G1 X96.982 Y122.115 E.00809
G1 X96.859 Y122.142 E.0042
G1 X97.864 Y123.147 E.04745
G1 X97.803 Y123.303 E.00559
G1 X97.716 Y123.437 E.00533
G1 X97.652 Y123.503 E.00307
G1 X96.501 Y122.352 E.05434
G1 X96.35 Y122.552 E.00837
G1 X96.29 Y122.708 E.00558
G1 X97.295 Y123.713 E.04745
G1 X97.168 Y123.74 E.00433
G1 X97.008 Y123.742 E.00534
