; generated by PrusaSlicer 2.8.1 on 2024-10-04 at 19:40:42 UTC

; 

; external perimeters extrusion width = 0.42mm
; perimeters extrusion width = 0.44mm
; infill extrusion width = 0.44mm
; solid infill extrusion width = 0.44mm
; top infill extrusion width = 0.40mm
; first layer extrusion width = 0.42mm

; external perimeters extrusion width = 0.42mm
; perimeters extrusion width = 0.44mm
; infill extrusion width = 0.44mm
; solid infill extrusion width = 0.44mm
; top infill extrusion width = 0.40mm
; first layer extrusion width = 0.42mm

M73 P0 R20

EXCLUDE_OBJECT_DEFINE NAME='tank_mower_Track_assemblytrack_stl' CENTER=102.932,128.500 POLYGON=[[114.500,123.100],[110.000,123.100],[110.000,133.900],[114.500,133.900],[114.500,138.500],[96.000,138.500],[96.000,133.400],[91.500,133.400],[91.500,123.600],[96.000,123.600],[96.000,118.500],[114.500,118.500]]
EXCLUDE_OBJECT_DEFINE NAME='tank_mower_Track_assemblytrack_stl' CENTER=102.932,102.500 POLYGON=[[114.500,97.100],[110.000,97.100],[110.000,107.900],[114.500,107.900],[114.500,112.500],[96.000,112.500],[96.000,107.400],[91.500,107.400],[91.500,97.600],[96.000,97.600],[96.000,92.500],[114.500,92.500]]

M190 S60 ; set bed temperature and wait for it to be reached
M104 S200 ; set temperature
;TYPE:Custom
START_PRINT BED_TEMP=60 EXTRUDER_TEMP=200
M109 S200 ; set temperature and wait for it to be reached
G21 ; set units to millimeters
G90 ; use absolute coordinates
M83 ; use relative distances for extrusion
; Filament gcode
M107
;LAYER_CHANGE
;Z:0.2
;HEIGHT:0.2
G1 E-1.5 F3600
G1 Z.2 F9000
G1 X93.278 Y90.839
G1 Z.2
G1 E1.5 F2400
M204 S500
;TYPE:Skirt/Brim
;WIDTH:0.42
G1 F1200
G1 X94.414 Y89.734 E.04969
G1 X96 Y89.311 E.05147
G1 X112.6 Y89.311 E.52048
G1 X114.135 Y89.705 E.04969
G1 X115.291 Y90.789 E.04969
G1 X115.789 Y92.5 E.05587
G1 X115.789 Y138.5 E1.4423
G1 X115.395 Y140.035 E.04969
G1 X114.311 Y141.191 E.04969
G1 X112.6 Y141.689 E.05587
G1 X96 Y141.689 E.52048
G1 X94.465 Y141.295 E.04969
G1 X93.278 Y140.161 E.05147
G1 X90.167 Y135.061 E.18731
G1 X89.7 Y133.4 E.0541
G1 X89.7 Y97.6 E1.12248
G1 X90.167 Y95.939 E.0541
G1 X93.247 Y90.891 E.18541
G1 E-1.05 F3600
;WIPE_START
G1 F7200
G1 X93.278 Y90.839 E-.02876
G1 X93.913 Y90.221 E-.42124
;WIPE_END
EXCLUDE_OBJECT_START NAME='tank_mower_Track_assemblytrack_stl'
G1 X97.492 Y97 F9000
G1 E1.5 F2400
;TYPE:Perimeter
;WIDTH:0.46146
G1 F1200
G1 X97.539 Y96.926 E.00305
;WIDTH:0.419999
G1 X97.879 Y96.813 E.01123
G1 X106.121 Y96.813 E.25842
G1 X106.315 Y96.847 E.00618
G1 X106.476 Y96.938 E.0058
G1 X106.584 Y97.053 E.00495
G1 X106.687 Y97.379 E.01072
G1 X106.687 Y107.621 E.32113
G1 X106.584 Y107.947 E.01072
G1 X106.476 Y108.062 E.00495
G1 X106.219 Y108.179 E.00885
G1 X106.121 Y108.187 E.00308
G1 X97.879 Y108.187 E.25842
G1 X97.539 Y108.074 E.01123
;WIDTH:0.463679
G1 X97.445 Y107.959 E.0052
;WIDTH:0.507359
G1 X97.351 Y107.845 E.00571
;WIDTH:0.551038
G1 X97.257 Y107.731 E.00624
G1 X97.251 Y107.279 E.0191
;WIDTH:0.544381
G1 X97.271 Y106.986 E.01225
;WIDTH:0.502921
G1 X97.292 Y106.693 E.01124
;WIDTH:0.46146
G1 X97.313 Y106.4 E.01022
;WIDTH:0.419999
G1 X97.313 Y98.6 E.24456
;WIDTH:0.463679
G1 X97.291 Y98.358 E.0085
;WIDTH:0.507358
G1 X97.269 Y98.116 E.00938
;WIDTH:0.551037
G1 X97.247 Y97.874 E.01027
G1 X97.251 Y97.379 E.02091
;WIDTH:0.544381
G1 X97.347 Y97.228 E.00746
;WIDTH:0.502921
G1 X97.443 Y97.077 E.00684
;WIDTH:0.46146
G1 X97.46 Y97.051 E.00108
G1 X97.46 Y97.051 F9000
G1 X97.747 Y97.264
;TYPE:External perimeter
;WIDTH:0.419999
G1 F1200
G1 X97.765 Y97.228 E.00126
G1 X97.879 Y97.19 E.00377
G1 X106.121 Y97.19 E.25842
G1 X106.24 Y97.232 E.00396
G1 X106.31 Y97.379 E.0051
G1 X106.31 Y107.621 E.32113
G1 X106.24 Y107.768 E.0051
G1 X106.121 Y107.81 E.00396
G1 X97.879 Y107.81 E.25842
G1 X97.765 Y107.772 E.00377
M73 P1 R20
G1 X97.69 Y107.621 E.00529
G1 X97.69 Y97.379 E.32113
G1 X97.72 Y97.318 E.00213
G1 X97.72 Y97.318 F9000
G1 X96.514 Y98.109
;TYPE:Perimeter
;WIDTH:0.463679
G1 F1200
G1 X96.555 Y98.059 E.00226
;WIDTH:0.507358
G1 X96.649 Y97.945 E.00571
;WIDTH:0.551037
G1 X96.743 Y97.831 E.00624
G1 X96.749 Y97.379 E.0191
;WIDTH:0.544381
G1 X96.729 Y97.086 E.01225
;WIDTH:0.502921
G1 X96.708 Y96.793 E.01124
;WIDTH:0.46146
G1 X96.687 Y96.5 E.01022
;WIDTH:0.419999
G1 X96.687 Y93.187 E.10388
G1 X111.913 Y93.187 E.4774
G1 X111.913 Y96.413 E.10115
G1 X109.781 Y96.421 E.06685
G1 X109.552 Y96.517 E.00779
G1 X109.358 Y96.758 E.0097
G1 X109.313 Y96.979 E.00707
G1 X109.313 Y107.948 E.34392
G1 X109.358 Y108.242 E.00933
G1 X109.439 Y108.377 E.00494
G1 X109.703 Y108.559 E.01005
G1 X109.879 Y108.587 E.00559
G1 X111.913 Y108.587 E.06377
G1 X111.913 Y110.2 E.05057
G1 X111.913 Y111.813 E.05057
G1 X96.687 Y111.813 E.4774
G1 X96.687 Y108.5 E.10388
;WIDTH:0.463679
G1 X96.709 Y108.258 E.0085
;WIDTH:0.507359
G1 X96.731 Y108.016 E.00938
;WIDTH:0.551038
G1 X96.753 Y107.774 E.01027
G1 X96.749 Y107.279 E.02091
;WIDTH:0.544381
G1 X96.653 Y107.128 E.00746
;WIDTH:0.502921
G1 X96.557 Y106.977 E.00684
;WIDTH:0.46146
G1 X96.461 Y106.826 E.00623
;WIDTH:0.419999
G1 X96.121 Y106.713 E.01123
G1 X93.576 Y106.713 E.0798
G1 X93.576 Y98.287 E.26419
G1 X96.121 Y98.287 E.0798
G1 X96.461 Y98.174 E.01123
;WIDTH:0.463679
G1 X96.476 Y98.155 E.00085
G1 X96.476 Y98.155 F9000
G1 X96.253 Y97.836
;TYPE:External perimeter
;WIDTH:0.419999
G1 F1200
G1 X96.31 Y97.721 E.00402
G1 X96.31 Y92.81 E.15398
G1 X112.29 Y92.81 E.50104
G1 X112.29 Y96.79 E.12479
G1 X109.879 Y96.79 E.0756
G1 X109.77 Y96.825 E.00359
G1 X109.69 Y96.979 E.00544
G1 X109.69 Y107.948 E.34392
G1 X109.732 Y108.14 E.00616
G1 X109.879 Y108.21 E.0051
G1 X112.29 Y108.21 E.0756
G1 X112.29 Y110.2 E.06239
G1 X112.29 Y112.19 E.06239
G1 X96.31 Y112.19 E.50104
G1 X96.31 Y107.279 E.15398
G1 X96.235 Y107.128 E.00529
G1 X96.121 Y107.09 E.00377
G1 X93.199 Y107.09 E.09162
G1 X93.199 Y97.91 E.28783
G1 X96.121 Y97.91 E.09162
G1 X96.216 Y97.878 E.00314
G1 E-1.05 F3600
;WIPE_START
G1 F7200
G1 X96.253 Y97.836 E-.02659
G1 X96.31 Y97.721 E-.06097
G1 X96.31 Y96.958 E-.36244
;WIPE_END
G1 X111.021 Y93.308 F9000
G1 E1.5 F2400
;TYPE:Solid infill
;WIDTH:0.424352
G1 F1200
G1 X111.623 Y93.91 E.027
G1 X111.623 Y94.449 E.0171
G1 X110.651 Y93.477 E.0436
G1 X110.112 Y93.477 E.0171
G1 X111.623 Y94.988 E.06777
G1 X111.623 Y95.528 E.01713
G1 X109.572 Y93.477 E.09199
G1 X109.033 Y93.477 E.0171
G1 X111.623 Y96.067 E.11617
G1 X111.623 Y96.123 E.00178
G1 X111.138 Y96.123 E.01538
G1 X108.493 Y93.477 E.11866
G1 X107.954 Y93.477 E.0171
G1 X110.599 Y96.123 E.11866
G1 X110.06 Y96.123 E.0171
G1 X107.414 Y93.477 E.11868
G1 X106.875 Y93.477 E.0171
G1 X109.578 Y96.181 E.12126
G1 X109.384 Y96.279 E.00689
G1 X109.256 Y96.398 E.00554
G1 X106.336 Y93.477 E.13099
G1 X105.796 Y93.477 E.01713
G1 X109.067 Y96.748 E.14672
G1 X109.023 Y96.968 E.00712
G1 X109.023 Y97.243 E.00872
G1 X105.257 Y93.477 E.16892
G1 X104.717 Y93.477 E.01713
G1 X109.023 Y97.783 E.19314
G1 X109.023 Y98.322 E.0171
M73 P2 R20
G1 X104.178 Y93.477 E.21732
G1 X103.638 Y93.477 E.01713
G1 X109.023 Y98.862 E.24154
G1 X109.023 Y99.401 E.0171
G1 X106.975 Y97.354 E.09184
G1 X106.958 Y97.193 E.00513
G1 X106.825 Y96.888 E.01055
G1 X106.658 Y96.71 E.00774
G1 X106.414 Y96.573 E.00888
G1 X106.147 Y96.526 E.0086
G1 X103.099 Y93.477 E.13674
G1 X102.56 Y93.477 E.0171
G1 X105.605 Y96.523 E.1366
G1 X105.065 Y96.523 E.01713
G1 X102.02 Y93.477 E.1366
G1 X101.481 Y93.477 E.0171
G1 X104.526 Y96.523 E.1366
G1 X103.986 Y96.523 E.01713
G1 X100.941 Y93.477 E.1366
G1 X100.402 Y93.477 E.0171
G1 X103.447 Y96.523 E.1366
G1 X102.908 Y96.523 E.0171
G1 X99.862 Y93.477 E.13662
G1 X99.323 Y93.477 E.0171
G1 X102.368 Y96.523 E.1366
G1 X101.829 Y96.523 E.0171
G1 X98.784 Y93.477 E.1366
G1 X98.244 Y93.477 E.01713
G1 X101.289 Y96.523 E.1366
G1 X100.75 Y96.523 E.0171
G1 X97.705 Y93.477 E.1366
G1 X97.165 Y93.477 E.01713
G1 X100.211 Y96.523 E.13662
G1 X99.671 Y96.523 E.01713
G1 X96.977 Y93.829 E.12084
G1 X96.977 Y94.368 E.0171
G1 X99.132 Y96.523 E.09666
G1 X98.592 Y96.523 E.01713
G1 X96.977 Y94.908 E.07244
G1 X96.977 Y95.447 E.0171
G1 X98.053 Y96.523 E.04826
G1 X97.862 Y96.523 E.00606
G1 X97.601 Y96.61 E.00873
G1 X96.977 Y95.987 E.02797
G1 X96.983 Y96.532 E.01729
G1 X97.392 Y96.941 E.01835
G1 X97.392 Y96.941 F9000
G1 X96.807 Y97.974
G1 F1200
G1 X96.93 Y98.097 E.00552
G1 X97.023 Y98.609 E.0165
G1 X97.023 Y98.729 E.00381
G1 X96.667 Y98.374 E.01595
G1 X96.631 Y98.413 E.00168
G1 X96.283 Y98.529 E.01163
G1 X97.023 Y99.268 E.03317
G1 X97.023 Y99.808 E.01713
G1 X95.792 Y98.577 E.05521
G1 X95.253 Y98.577 E.0171
G1 X97.023 Y100.347 E.07939
G1 X97.023 Y100.887 E.01713
G1 X94.713 Y98.577 E.10361
G1 X94.174 Y98.577 E.0171
G1 X97.023 Y101.426 E.12779
G1 X97.023 Y101.965 E.0171
G1 X93.866 Y98.809 E.14158
G1 X93.866 Y99.348 E.0171
G1 X97.023 Y102.505 E.1416
G1 X97.023 Y103.044 E.0171
G1 X93.866 Y99.888 E.14158
G1 X93.866 Y100.427 E.0171
G1 X97.023 Y103.584 E.1416
G1 X97.023 Y104.123 E.0171
G1 X93.866 Y100.967 E.14158
G1 X93.866 Y101.506 E.0171
G1 X97.023 Y104.663 E.1416
G1 X97.023 Y105.202 E.0171
G1 X93.866 Y102.045 E.1416
G1 X93.866 Y102.585 E.01713
G1 X97.023 Y105.741 E.14158
G1 X97.023 Y106.281 E.01713
G1 X93.866 Y103.124 E.1416
G1 X93.866 Y103.664 E.01713
G1 X96.97 Y106.767 E.1392
G1 X96.935 Y107.01 E.00779
G1 X96.638 Y106.589 E.01634
G1 X96.138 Y106.423 E.01671
G1 X96.085 Y106.423 E.00168
G1 X93.866 Y104.203 E.09955
G1 X93.866 Y104.743 E.01713
G1 X95.546 Y106.423 E.07535
G1 X95.007 Y106.423 E.0171
G1 X93.866 Y105.282 E.05118
G1 X93.866 Y105.821 E.0171
G1 X94.467 Y106.423 E.02698
G1 X93.928 Y106.423 E.0171
G1 X93.696 Y106.191 E.01041
G1 E-1.05 F3600
;WIPE_START
G1 F7200
G1 X93.928 Y106.423 E-.15585
G1 X94.467 Y106.423 E-.25603
G1 X94.41 Y106.366 E-.03812
;WIPE_END
G1 X106.808 Y97.726 F9000
G1 E1.5 F2400
G1 F1200
G1 X109.023 Y99.94 E.09933
G1 X109.023 Y100.48 E.01713
G1 X106.977 Y98.435 E.09175
G1 X106.977 Y98.974 E.0171
G1 X109.023 Y101.019 E.09175
G1 X109.023 Y101.559 E.01713
G1 X106.977 Y99.514 E.09175
G1 X106.977 Y100.053 E.0171
G1 X109.023 Y102.098 E.09175
G1 X109.023 Y102.638 E.01713
G1 X106.977 Y100.592 E.09177
G1 X106.977 Y101.132 E.01713
M73 P2 R19
G1 X109.023 Y103.177 E.09175
G1 X109.023 Y103.716 E.0171
G1 X106.977 Y101.671 E.09175
G1 X106.977 Y102.211 E.01713
G1 X109.023 Y104.256 E.09175
G1 X109.023 Y104.795 E.0171
G1 X106.977 Y102.75 E.09175
G1 X106.977 Y103.29 E.01713
G1 X109.023 Y105.335 E.09175
G1 X109.023 Y105.874 E.0171
G1 X106.977 Y103.829 E.09175
G1 X106.977 Y104.368 E.0171
M73 P3 R19
G1 X109.023 Y106.413 E.09175
G1 X109.023 Y106.953 E.01713
G1 X106.977 Y104.908 E.09175
G1 X106.977 Y105.447 E.0171
G1 X109.192 Y107.662 E.09935
G1 E-1.05 F3600
;WIPE_START
G1 F7200
G1 X108.522 Y106.992 E-.45
;WIPE_END
G1 X111.317 Y108.708 F9000
G1 E1.5 F2400
G1 F1200
G1 X111.623 Y109.014 E.01373
G1 X111.623 Y109.553 E.0171
G1 X110.947 Y108.877 E.03032
G1 X110.408 Y108.877 E.0171
G1 X111.623 Y110.092 E.0545
G1 X111.623 Y110.632 E.01713
G1 X109.868 Y108.877 E.07872
G1 X109.613 Y108.836 E.00819
G1 X109.384 Y108.721 E.00813
G1 X109.212 Y108.56 E.00747
G1 X109.088 Y108.353 E.00765
G1 X109.023 Y108.032 E.01039
G1 X106.977 Y105.987 E.09175
G1 X106.977 Y106.526 E.0171
G1 X111.623 Y111.171 E.20837
G1 X111.623 Y111.523 E.01116
G1 X111.435 Y111.523 E.00596
G1 X106.977 Y107.065 E.19996
G1 X106.977 Y107.605 E.01713
G1 X110.895 Y111.523 E.17574
G1 X110.356 Y111.523 E.0171
G1 X106.861 Y108.028 E.15676
G1 X106.825 Y108.112 E.0029
G1 X106.658 Y108.29 E.00774
G1 X106.61 Y108.317 E.00175
G1 X109.816 Y111.523 E.1438
G1 X109.277 Y111.523 E.0171
G1 X106.216 Y108.462 E.1373
G1 X106.13 Y108.477 E.00277
G1 X105.692 Y108.477 E.01389
G1 X108.737 Y111.523 E.1366
G1 X108.198 Y111.523 E.0171
G1 X105.153 Y108.477 E.1366
G1 X104.613 Y108.477 E.01713
G1 X107.659 Y111.523 E.13662
G1 X107.119 Y111.523 E.01713
G1 X104.074 Y108.477 E.1366
G1 X103.535 Y108.477 E.0171
G1 X106.58 Y111.523 E.1366
G1 X106.04 Y111.523 E.01713
G1 X102.995 Y108.477 E.1366
G1 X102.456 Y108.477 E.0171
G1 X105.501 Y111.523 E.1366
G1 X104.961 Y111.523 E.01713
G1 X101.916 Y108.477 E.1366
G1 X101.377 Y108.477 E.0171
G1 X104.422 Y111.523 E.1366
G1 X103.883 Y111.523 E.0171
G1 X100.837 Y108.477 E.13662
G1 X100.298 Y108.477 E.0171
G1 X103.343 Y111.523 E.1366
G1 X102.804 Y111.523 E.0171
G1 X99.759 Y108.477 E.1366
G1 X99.219 Y108.477 E.01713
G1 X102.264 Y111.523 E.1366
G1 X101.725 Y111.523 E.0171
G1 X98.68 Y108.477 E.1366
G1 X98.14 Y108.477 E.01713
G1 X101.185 Y111.523 E.1366
G1 X100.646 Y111.523 E.0171
G1 X97.47 Y108.347 E.14245
G1 X97.369 Y108.313 E.00338
G1 X97.071 Y107.993 E.01387
G1 X96.995 Y108.411 E.01347
G1 X100.107 Y111.523 E.13958
G1 X99.567 Y111.523 E.01713
G1 X96.977 Y108.933 E.11617
G1 X96.977 Y109.472 E.0171
G1 X99.028 Y111.523 E.09199
G1 X98.488 Y111.523 E.01713
G1 X96.977 Y110.012 E.06777
G1 X96.977 Y110.551 E.0171
G1 X97.949 Y111.523 E.0436
G1 X97.409 Y111.523 E.01713
G1 X96.808 Y110.921 E.02698
G1 E-1.05 F3600
;WIPE_START
G1 F7200
G1 X97.409 Y111.523 E-.40406
G1 X97.506 Y111.523 E-.04594
;WIPE_END
EXCLUDE_OBJECT_END NAME='tank_mower_Track_assemblytrack_stl'
EXCLUDE_OBJECT_START NAME='tank_mower_Track_assemblytrack_stl'
G1 X97.492 Y123 F9000
G1 E1.5 F2400
;TYPE:Perimeter
;WIDTH:0.46146
G1 F1200
G1 X97.539 Y122.926 E.00305
;WIDTH:0.419999
G1 X97.879 Y122.813 E.01123
G1 X106.121 Y122.813 E.25842
G1 X106.315 Y122.847 E.00618
G1 X106.476 Y122.938 E.0058
G1 X106.584 Y123.053 E.00495
G1 X106.687 Y123.379 E.01072
G1 X106.687 Y133.621 E.32113
G1 X106.584 Y133.947 E.01072
G1 X106.476 Y134.062 E.00495
G1 X106.219 Y134.179 E.00885
G1 X106.121 Y134.187 E.00308
G1 X97.879 Y134.187 E.25842
G1 X97.539 Y134.074 E.01123
;WIDTH:0.463679
G1 X97.445 Y133.959 E.0052
;WIDTH:0.507359
G1 X97.351 Y133.845 E.00571
;WIDTH:0.551038
G1 X97.257 Y133.731 E.00624
G1 X97.251 Y133.279 E.0191
;WIDTH:0.544381
G1 X97.271 Y132.986 E.01225
;WIDTH:0.502921
G1 X97.292 Y132.693 E.01124
;WIDTH:0.46146
G1 X97.313 Y132.4 E.01022
;WIDTH:0.419999
G1 X97.313 Y124.6 E.24456
;WIDTH:0.463679
G1 X97.291 Y124.358 E.0085
;WIDTH:0.507358
G1 X97.269 Y124.116 E.00938
;WIDTH:0.551037
G1 X97.247 Y123.874 E.01027
G1 X97.251 Y123.379 E.02091
;WIDTH:0.544381
G1 X97.347 Y123.228 E.00746
;WIDTH:0.502921
G1 X97.443 Y123.077 E.00684
;WIDTH:0.46146
G1 X97.46 Y123.051 E.00108
G1 X97.46 Y123.051 F9000
G1 X97.747 Y123.264
;TYPE:External perimeter
;WIDTH:0.419999
G1 F1200
G1 X97.765 Y123.228 E.00126
G1 X97.879 Y123.19 E.00377
G1 X106.121 Y123.19 E.25842
G1 X106.24 Y123.232 E.00396
G1 X106.31 Y123.379 E.0051
G1 X106.31 Y133.621 E.32113
G1 X106.24 Y133.768 E.0051
M73 P4 R19
G1 X106.121 Y133.81 E.00396
G1 X97.879 Y133.81 E.25842
G1 X97.765 Y133.772 E.00377
G1 X97.69 Y133.621 E.00529
G1 X97.69 Y123.379 E.32113
G1 X97.72 Y123.318 E.00213
G1 X97.72 Y123.318 F9000
G1 X96.514 Y124.109
;TYPE:Perimeter
;WIDTH:0.463679
G1 F1200
G1 X96.555 Y124.059 E.00226
;WIDTH:0.507358
G1 X96.649 Y123.945 E.00571
;WIDTH:0.551037
G1 X96.743 Y123.831 E.00624
G1 X96.749 Y123.379 E.0191
;WIDTH:0.544381
G1 X96.729 Y123.086 E.01225
;WIDTH:0.502921
G1 X96.708 Y122.793 E.01124
;WIDTH:0.46146
G1 X96.687 Y122.5 E.01022
;WIDTH:0.419999
G1 X96.687 Y119.187 E.10388
G1 X111.913 Y119.187 E.4774
G1 X111.913 Y122.413 E.10115
G1 X109.781 Y122.421 E.06685
G1 X109.552 Y122.517 E.00779
G1 X109.358 Y122.758 E.0097
G1 X109.313 Y122.979 E.00707
G1 X109.313 Y133.948 E.34392
G1 X109.358 Y134.242 E.00933
G1 X109.439 Y134.377 E.00494
G1 X109.703 Y134.559 E.01005
G1 X109.879 Y134.587 E.00559
G1 X111.913 Y134.587 E.06377
G1 X111.913 Y136.2 E.05057
G1 X111.913 Y137.813 E.05057
G1 X96.687 Y137.813 E.4774
G1 X96.687 Y134.5 E.10388
;WIDTH:0.463679
G1 X96.709 Y134.258 E.0085
;WIDTH:0.507359
G1 X96.731 Y134.016 E.00938
;WIDTH:0.551038
G1 X96.753 Y133.774 E.01027
G1 X96.749 Y133.279 E.02091
;WIDTH:0.544381
G1 X96.653 Y133.128 E.00746
;WIDTH:0.502921
G1 X96.557 Y132.977 E.00684
;WIDTH:0.46146
G1 X96.461 Y132.826 E.00623
;WIDTH:0.419999
G1 X96.121 Y132.713 E.01123
G1 X93.576 Y132.713 E.0798
G1 X93.576 Y124.287 E.26419
G1 X96.121 Y124.287 E.0798
G1 X96.461 Y124.174 E.01123
;WIDTH:0.463679
G1 X96.476 Y124.155 E.00085
G1 X96.476 Y124.155 F9000
G1 X96.253 Y123.836
;TYPE:External perimeter
;WIDTH:0.419999
G1 F1200
G1 X96.31 Y123.721 E.00402
