; generated by PrusaSlicer 2.8.1 on 2024-10-24 at 18:33:02 UTC

; 

; external perimeters extrusion width = 0.42mm
; perimeters extrusion width = 0.44mm
; infill extrusion width = 0.44mm
; solid infill extrusion width = 0.44mm
; top infill extrusion width = 0.40mm
; first layer extrusion width = 0.42mm

M73 P0 R4

EXCLUDE_OBJECT_DEFINE NAME='tank_mower_Battery_assemblyBattery_holder_stl' CENTER=104.455,122.134 POLYGON=[[109.801,103.896],[110.820,134.179],[106.990,138.276],[95.180,138.276],[101.234,131.800],[100.562,111.812],[96.564,111.946],[96.297,103.997],[99.295,103.896],[99.428,107.848],[103.426,107.713],[104.459,108.679],[105.172,129.867],[107.670,129.783],[106.903,106.996],[105.404,107.046],[106.803,103.997]]

M190 S60 ; set bed temperature and wait for it to be reached
M104 S205 ; set temperature
;TYPE:Custom
START_PRINT BED_TEMP=60 EXTRUDER_TEMP=205
M220 S150
M109 S205 ; set temperature and wait for it to be reached
G21 ; set units to millimeters
G90 ; use absolute coordinates
M83 ; use relative distances for extrusion
; Filament gcode
M107
;LAYER_CHANGE
;Z:0.2
;HEIGHT:0.2
G1 E-1.5 F3600
G1 Z.2 F9000
G1 X94.317 Y101.032
G1 Z.2
G1 E1.5 F2400
M204 S500
;TYPE:Skirt/Brim
;WIDTH:0.42
G1 F1200
G1 X96.177 Y100.434 E.06126
G1 X99.295 Y100.331 E.09782
G1 X109.801 Y100.331 E.32941
G1 X111.431 Y100.725 E.05258
G1 X112.7 Y101.821 E.05257
G1 X113.365 Y103.777 E.06478
G1 X114.384 Y134.059 E.95001
G1 X114.044 Y135.702 E.05261
G1 X113.425 Y136.614 E.03456
G1 X109.594 Y140.711 E.17587
G1 X108.193 Y141.633 E.05259
M73 P1 R4
G1 X106.99 Y141.842 E.03828
G1 X95.18 Y141.842 E.37029
G1 X93.55 Y141.447 E.05259
G1 X92.281 Y140.352 E.05255
G1 X91.616 Y138.16 E.07182
G1 X92.733 Y103.881 E1.07536
G1 X93.18 Y102.265 E.05257
G1 X94.276 Y101.076 E.0507
G1 X94.276 Y101.076 F9000
G1 X94.563 Y101.363
G1 F1200
G1 X94.674 Y101.252 E.00492
G1 X96.19 Y100.811 E.0495
G1 X99.295 Y100.708 E.09741
G1 X109.801 Y100.708 E.32941
G1 X111.336 Y101.102 E.04969
G1 X112.492 Y102.186 E.04969
G1 X112.988 Y103.789 E.05261
G1 X114.007 Y134.072 E.95004
G1 X113.665 Y135.619 E.04968
M73 P2 R4
G1 X113.149 Y136.357 E.02823
G1 X109.319 Y140.454 E.17585
G1 X107.983 Y141.306 E.04968
G1 X106.99 Y141.465 E.03153
G1 X95.18 Y141.465 E.37029
G1 X93.645 Y141.071 E.04969
G1 X92.49 Y139.987 E.04967
G1 X91.993 Y138.172 E.059
G1 X93.11 Y103.894 E1.07533
G1 X93.553 Y102.372 E.0497
M73 P3 R4
G1 X94.521 Y101.406 E.04288
G1 E-1.05 F3600
;WIPE_START
G1 F7200
G1 X94.563 Y101.363 E-.02855
G1 X94.674 Y101.252 E-.07456
G1 X95.375 Y101.048 E-.34689
;WIPE_END
G1 Z1.2 F9000
EXCLUDE_OBJECT_START NAME='tank_mower_Battery_assemblyBattery_holder_stl'
G1 X96.617 Y104.297
G1 Z.2
G1 E1.5 F2400
;TYPE:External perimeter
;WIDTH:0.419999
G1 F1200
G1 X98.996 Y104.217 E.07463
G1 X99.122 Y107.979 E.11802
G1 X99.162 Y108.089 E.00367
G1 X99.317 Y108.161 E.00536
G1 X103.308 Y108.027 E.12521
G1 X104.153 Y108.817 E.03627
G1 X104.866 Y129.999 E.66452
G1 X104.937 Y130.14 E.00495
G1 X105.06 Y130.181 E.00407
G1 X107.802 Y130.088 E.08602
G1 X107.95 Y130.008 E.00527
G1 X107.984 Y129.894 E.00373
G1 X107.209 Y106.864 E.7225
G1 X107.15 Y106.732 E.00453
M73 P4 R4
G1 X107.015 Y106.682 E.00451
G1 X105.895 Y106.719 E.03514
G1 X107.005 Y104.301 E.08342
G1 X109.502 Y104.217 E.07834
G1 X109.55 Y105.642 E.04471
G1 X110.506 Y134.061 E.89156
G1 X106.855 Y137.966 E.16762
G1 X97.642 Y137.967 E.28887
G1 X96.65 Y138 E.03112
G1 X96.171 Y138.063 E.01515
G1 X95.697 Y138.052 E.01487
G1 X95.999 Y137.709 E.01433
G1 X96.386 Y137.392 E.01569
G1 X97.088 Y136.689 E.03115
G1 X101.495 Y131.975 E.20233
G1 X101.546 Y131.84 E.00452
G1 X100.868 Y111.68 E.63246
G1 X100.808 Y111.548 E.00455
M73 P5 R4
G1 X100.673 Y111.498 E.00451
G1 X96.864 Y111.626 E.1195
G1 X96.619 Y104.357 E.22804
G1 E-1.05 F3600
;WIPE_START
G1 F7200
G1 X96.617 Y104.297 E-.02852
G1 X97.504 Y104.267 E-.42148
;WIPE_END
G1 Z1.2 F9000
G1 X104.053 Y109.433
G1 Z.2
G1 E1.5 F2400
;TYPE:Solid infill
;WIDTH:0.422275
G1 F1200
G1 X102.949 Y108.33 E.04923
G1 X102.43 Y108.347 E.01638
G1 X103.896 Y109.813 E.0654
G1 X103.915 Y110.368 E.01752
G1 X101.911 Y108.365 E.08937
G1 X101.392 Y108.382 E.01638
G1 X103.934 Y110.923 E.11337
G1 X103.952 Y111.478 E.01752
G1 X100.873 Y108.4 E.13733
G1 X100.354 Y108.417 E.01638
G1 X103.971 Y112.034 E.16135
G1 X103.99 Y112.589 E.01752
G1 X99.671 Y108.27 E.19267
G1 E-1.05 F3600
;WIPE_START
G1 F7200
G1 X100.341 Y108.94 E-.45
;WIPE_END
G1 Z1.2 F9000
G1 X98.895 Y104.812
M73 P6 R4
G1 Z.2
G1 E1.5 F2400
G1 F1200
G1 X98.604 Y104.52 E.013
G1 X98.085 Y104.538 E.01638
G1 X98.738 Y105.191 E.02913
G1 X98.757 Y105.746 E.01752
G1 X97.566 Y104.555 E.05313
G1 X97.047 Y104.573 E.01638
G1 X98.775 Y106.301 E.07708
G1 X98.794 Y106.857 E.01755
G1 X96.931 Y104.994 E.08311
G1 X96.95 Y105.549 E.01752
G1 X98.988 Y107.587 E.09091
G1 E-1.05 F3600
;WIPE_START
G1 F7200
G1 X98.318 Y106.917 E-.45
;WIPE_END
G1 Z1.2 F9000
G1 X96.793 Y105.928
G1 Z.2
G1 E1.5 F2400
G1 F1200
G1 X104.008 Y113.144 E.32188
G1 X104.027 Y113.699 E.01752
G1 X96.987 Y106.659 E.31405
G1 X97.006 Y107.214 E.01752
G1 X104.046 Y114.254 E.31405
G1 X104.064 Y114.809 E.01752
M73 P7 R4
G1 X101.166 Y111.911 E.12928
G1 X101.158 Y111.66 E.00792
G1 X101.114 Y111.481 E.00581
G1 X101.008 Y111.335 E.00569
G1 X100.855 Y111.238 E.00571
G1 X100.674 Y111.207 E.00579
G1 X100.469 Y111.214 E.00647
G1 X97.024 Y107.769 E.15368
G1 X97.043 Y108.325 E.01755
G1 X99.95 Y111.232 E.12968
G1 X99.431 Y111.249 E.01638
G1 X97.062 Y108.88 E.10568
G1 X97.08 Y109.435 E.01752
G1 X98.912 Y111.266 E.0817
G1 X98.393 Y111.284 E.01638
G1 X97.099 Y109.99 E.05772
G1 X97.118 Y110.545 E.01752
G1 X97.874 Y111.301 E.03372
G1 X97.355 Y111.319 E.01638
G1 X96.961 Y110.925 E.01758
G1 E-1.05 F3600
;WIPE_START
G1 F7200
G1 X97.355 Y111.319 E-.26467
G1 X97.745 Y111.306 E-.18533
;WIPE_END
G1 Z1.2 F9000
G1 X101.009 Y112.291
G1 Z.2
G1 E1.5 F2400
G1 F1200
G1 X104.083 Y115.365 E.13713
G1 X104.102 Y115.92 E.01752
G1 X101.203 Y113.021 E.12932
G1 X101.222 Y113.577 E.01755
G1 X104.12 Y116.475 E.12928
G1 X104.139 Y117.03 E.01752
G1 X101.241 Y114.132 E.12928
G1 X101.259 Y114.687 E.01752
G1 X104.158 Y117.585 E.1293
G1 X104.176 Y118.14 E.01752
M73 P8 R4
G1 X101.278 Y115.242 E.12928
G1 X101.297 Y115.797 E.01752
G1 X104.195 Y118.696 E.1293
G1 X104.214 Y119.251 E.01752
G1 X101.315 Y116.352 E.12932
G1 X101.334 Y116.908 E.01755
G1 X104.232 Y119.806 E.12928
G1 X104.251 Y120.361 E.01752
G1 X101.353 Y117.463 E.12928
G1 X101.371 Y118.018 E.01752
G1 X104.27 Y120.916 E.1293
G1 X104.289 Y121.471 E.01752
G1 X101.39 Y118.573 E.1293
G1 X101.409 Y119.128 E.01752
G1 X104.307 Y122.027 E.1293
G1 X104.326 Y122.582 E.01752
G1 X101.427 Y119.683 E.12932
G1 X101.446 Y120.239 E.01755
G1 X104.345 Y123.137 E.1293
G1 X104.363 Y123.692 E.01752
G1 X101.465 Y120.794 E.12928
G1 X101.484 Y121.349 E.01752
G1 X104.382 Y124.247 E.12928
G1 X104.401 Y124.803 E.01755
G1 X101.502 Y121.904 E.12932
G1 X101.521 Y122.459 E.01752
G1 X104.419 Y125.358 E.1293
G1 X104.438 Y125.913 E.01752
M73 P9 R4
G1 X101.54 Y123.014 E.1293
G1 X101.558 Y123.57 E.01755
G1 X104.457 Y126.468 E.1293
G1 X104.475 Y127.023 E.01752
G1 X101.577 Y124.125 E.12928
G1 X101.596 Y124.68 E.01752
G1 X104.494 Y127.578 E.12928
G1 X104.513 Y128.134 E.01755
G1 X101.614 Y125.235 E.12932
G1 X101.633 Y125.79 E.01752
G1 X104.531 Y128.689 E.1293
G1 X104.55 Y129.244 E.01752
G1 X101.476 Y126.17 E.13713
G1 E-1.05 F3600
;WIPE_START
G1 F7200
G1 X102.146 Y126.84 E-.45
;WIPE_END
G1 Z1.2 F9000
G1 X108.643 Y104.366
G1 Z.2
G1 E1.5 F2400
G1 F1200
G1 X109.236 Y104.959 E.02645
G1 X109.255 Y105.515 E.01755
G1 X108.288 Y104.548 E.04314
G1 X107.769 Y104.566 E.01638
G1 X109.273 Y106.07 E.06709
G1 X109.292 Y106.625 E.01752
G1 X107.25 Y104.583 E.09109
G1 X107.194 Y104.585 E.00177
G1 X107.043 Y104.913 E.01139
G1 X109.311 Y107.18 E.10115
G1 X109.329 Y107.735 E.01752
M73 P10 R4
G1 X106.875 Y105.281 E.10947
G1 X106.706 Y105.648 E.01274
G1 X109.348 Y108.291 E.11788
G1 X109.367 Y108.846 E.01752
G1 X107.504 Y106.983 E.08311
G1 X107.499 Y106.834 E.0047
G1 X107.339 Y106.483 E.01217
G1 X107.021 Y106.391 E.01044
G1 X106.916 Y106.395 E.00331
G1 X106.537 Y106.016 E.01691
G1 X106.369 Y106.384 E.01276
G1 X106.561 Y106.576 E.00856
G1 X106.561 Y106.576 F9000
G1 X107.347 Y107.362
G1 F1200
G1 X109.386 Y109.401 E.09096
G1 X109.404 Y109.956 E.01752
G1 X107.541 Y108.093 E.08311
G1 X107.559 Y108.648 E.01752
G1 X109.423 Y110.511 E.08313
G1 X109.442 Y111.066 E.01752
G1 X107.578 Y109.203 E.08313
G1 X107.596 Y109.758 E.01752
G1 X109.46 Y111.622 E.08315
G1 X109.479 Y112.177 E.01752
G1 X107.615 Y110.313 E.08315
G1 X107.634 Y110.868 E.01752
G1 X109.498 Y112.732 E.08315
G1 X109.516 Y113.287 E.01752
G1 X107.652 Y111.423 E.08315
G1 X107.671 Y111.978 E.01752
G1 X109.535 Y113.842 E.08315
G1 X109.554 Y114.397 E.01752
G1 X107.689 Y112.533 E.08317
G1 X107.708 Y113.088 E.01752
G1 X109.572 Y114.953 E.08317
G1 X109.591 Y115.508 E.01752
G1 X107.726 Y113.643 E.0832
G1 X107.745 Y114.198 E.01752
G1 X109.61 Y116.063 E.0832
G1 X109.628 Y116.618 E.01752
G1 X107.763 Y114.753 E.0832
G1 X107.782 Y115.308 E.01752
M73 P11 R4
G1 X109.647 Y117.173 E.0832
G1 X109.666 Y117.728 E.01752
G1 X107.8 Y115.863 E.08322
G1 X107.819 Y116.418 E.01752
G1 X109.684 Y118.284 E.08322
G1 X109.703 Y118.839 E.01752
G1 X107.837 Y116.973 E.08324
G1 X107.856 Y117.528 E.01752
G1 X109.722 Y119.394 E.08324
G1 X109.74 Y119.949 E.01752
G1 X107.875 Y118.083 E.08322
G1 X107.893 Y118.638 E.01752
G1 X109.759 Y120.504 E.08324
G1 X109.778 Y121.059 E.01752
G1 X107.912 Y119.193 E.08324
G1 X107.93 Y119.748 E.01752
G1 X109.796 Y121.615 E.08326
G1 X109.815 Y122.17 E.01752
G1 X107.949 Y120.303 E.08326
G1 X107.967 Y120.858 E.01752
G1 X109.834 Y122.725 E.08329
G1 X109.853 Y123.28 E.01752
G1 X107.986 Y121.413 E.08329
G1 X108.004 Y121.968 E.01752
G1 X109.871 Y123.835 E.08329
G1 X109.89 Y124.39 E.01752
G1 X108.023 Y122.523 E.08329
G1 X108.041 Y123.078 E.01752
G1 X109.909 Y124.946 E.08333
G1 X109.927 Y125.501 E.01752
G1 X108.06 Y123.633 E.08331
G1 X108.078 Y124.188 E.01752
G1 X109.946 Y126.056 E.08333
G1 X109.965 Y126.611 E.01752
G1 X108.097 Y124.744 E.08331
G1 X108.116 Y125.299 E.01752
G1 X109.983 Y127.166 E.08329
G1 X110.002 Y127.721 E.01752
M73 P12 R4
G1 X108.134 Y125.854 E.08331
G1 X108.153 Y126.409 E.01752
G1 X110.021 Y128.277 E.08333
G1 X110.039 Y128.832 E.01752
G1 X108.171 Y126.964 E.08333
G1 X108.19 Y127.519 E.01752
G1 X110.058 Y129.387 E.08333
G1 X110.077 Y129.942 E.01752
G1 X108.208 Y128.074 E.08335
G1 X108.227 Y128.629 E.01752
G1 X110.095 Y130.497 E.08333
G1 X110.114 Y131.052 E.01752
G1 X108.245 Y129.184 E.08335
G1 X108.264 Y129.739 E.01752
G1 X110.133 Y131.608 E.08337
G1 X110.151 Y132.163 E.01752
G1 X108.177 Y130.188 E.08808
G1 X107.999 Y130.337 E.00732
G1 X107.829 Y130.377 E.00551
G1 X110.17 Y132.718 E.10443
G1 X110.189 Y133.273 E.01752
G1 X107.311 Y130.395 E.12839
G1 X106.791 Y130.412 E.01641
G1 X110.207 Y133.828 E.15239
G1 X110.212 Y133.951 E.00388
G1 X110.01 Y134.167 E.00933
G1 X106.272 Y130.429 E.16675
G1 X105.753 Y130.447 E.01638
G1 X109.75 Y134.444 E.1783
G1 X109.491 Y134.722 E.01199
G1 X105.233 Y130.464 E.18995
G1 X105.018 Y130.471 E.00679
G1 X104.85 Y130.426 E.00549
G1 X104.751 Y130.364 E.00368
G1 X104.628 Y130.216 E.00607
G1 X104.576 Y130.02 E.0064
G1 X104.569 Y129.799 E.00697
G1 X101.67 Y126.901 E.1293
M73 P13 R4
G1 X101.689 Y127.456 E.01752
G1 X109.232 Y134.999 E.33649
G1 X108.973 Y135.276 E.01196
G1 X101.708 Y128.011 E.32409
G1 X101.726 Y128.566 E.01752
G1 X108.714 Y135.553 E.31171
G1 X108.454 Y135.831 E.01201
G1 X101.745 Y129.121 E.29931
G1 X101.764 Y129.676 E.01752
G1 X108.195 Y136.108 E.2869
G1 X107.936 Y136.385 E.01196
G1 X101.782 Y130.232 E.2745
G1 X101.801 Y130.787 E.01752
G1 X107.677 Y136.662 E.2621
G1 X107.417 Y136.94 E.01201
G1 X101.82 Y131.342 E.2497
G1 X101.829 Y131.888 E.01723
M73 P14 R4
G1 X107.158 Y137.217 E.23772
G1 X106.899 Y137.494 E.01196
G1 X101.645 Y132.24 E.23438
G1 X101.386 Y132.518 E.01199
G1 X106.544 Y137.676 E.23009
G1 X106.008 Y137.676 E.01691
G1 X101.127 Y132.795 E.21774
G1 X100.867 Y133.072 E.01198
G1 X105.471 Y137.676 E.20538
G1 X104.935 Y137.676 E.01691
G1 X100.608 Y133.349 E.19302
G1 X100.349 Y133.627 E.01199
G1 X104.398 Y137.676 E.18062
G1 X103.862 Y137.676 E.01691
G1 X100.09 Y133.904 E.16827
G1 X99.83 Y134.181 E.01198
G1 X103.325 Y137.676 E.15591
G1 X102.789 Y137.676 E.01691
G1 X99.571 Y134.458 E.14355
G1 X99.312 Y134.736 E.01199
M73 P15 R4
G1 X102.252 Y137.676 E.13115
G1 X101.716 Y137.676 E.01691
G1 X99.053 Y135.013 E.11879
G1 X98.793 Y135.29 E.01198
G1 X101.18 Y137.676 E.10646
G1 X100.643 Y137.676 E.01694
G1 X98.534 Y135.567 E.09408
G1 X98.275 Y135.845 E.01199
G1 X100.107 Y137.676 E.0817
G1 X99.57 Y137.676 E.01694
G1 X98.016 Y136.122 E.06932
G1 X97.757 Y136.399 E.01196
G1 X99.034 Y137.676 E.05697
G1 X98.497 Y137.676 E.01694
G1 X97.497 Y136.676 E.04461
G1 X97.236 Y136.952 E.01198
G1 X97.961 Y137.676 E.03232
G1 X97.431 Y137.683 E.01672
G1 X96.968 Y137.22 E.02065
G1 X96.7 Y137.488 E.01196
G1 X97.076 Y137.865 E.0168
;LAYER_CHANGE
;Z:0.4
;HEIGHT:0.2
;BEFORE_LAYER_CHANGE
G92 E0
;0.4


G1 E-1.05 F3600
;WIPE_START
G1 F7200
G1 X96.7 Y137.488 E-.25291
G1 X96.968 Y137.22 E-.18003
G1 X96.993 Y137.245 E-.01706
;WIPE_END
G1 Z.4 F9000
;AFTER_LAYER_CHANGE
;0.4
G1 Z.4
G1 X95.664 Y138.066
G1 E1.5 F2400
;TYPE:External perimeter
;WIDTH:0.419999
G1 F1500
G1 X101.394 Y131.937 E.26307
G1 X101.445 Y131.802 E.00452
G1 X100.771 Y111.783 E.62804
G1 X100.711 Y111.652 E.00452
G1 X100.576 Y111.601 E.00452
G1 X96.767 Y111.729 E.1195
G1 X96.514 Y104.2 E.2362
G1 X99.092 Y104.113 E.08088
M73 P16 R4
G1 X99.219 Y107.876 E.11805
G1 X99.257 Y107.984 E.00359
G1 X99.414 Y108.058 E.00544
G1 X103.346 Y107.926 E.12335
G1 X104.252 Y108.773 E.03889
G1 X104.963 Y129.895 E.66264
G1 X105.031 Y130.035 E.00488
M73 P16 R3
G1 X105.157 Y130.077 E.00416
G1 X107.699 Y129.992 E.07975
G1 X107.811 Y129.95 E.00375
G1 X107.881 Y129.797 E.00528
G1 X107.113 Y106.967 E.71622
G1 X107.053 Y106.836 E.00452
G1 X106.918 Y106.785 E.00452
G1 X105.737 Y106.825 E.03705
G1 X106.939 Y104.203 E.09044
G1 X109.598 Y104.113 E.08342
G1 X109.65 Y105.656 E.04841
G1 X110.607 Y134.099 E.89231
G1 X106.899 Y138.066 E.17026
M73 P17 R3
G1 X95.724 Y138.066 E.35038
G1 E-1.05 F3600
;WIPE_START
G1 F7200
G1 X95.664 Y138.066 E-.0285
G1 X96.27 Y137.418 E-.4215
;WIPE_END
G1 Z1.4 F9000
G1 X109.11 Y104.43
G1 Z.4
G1 E1.5 F2400
;TYPE:Solid infill
;WIDTH:0.439999
G1 X107.135 Y104.497 E.06525
G1 X106.213 Y106.508 E.07304
G1 X106.893 Y106.485 E.02246
G1 X107.231 Y106.595 E.01174
G1 X107.396 Y106.891 E.01119
G1 X107.413 Y106.966 E.00254
G1 X108.105 Y127.52 E.67902
G1 X108.161 Y129.777 E.07454
;WIDTH:0.422198
G1 X108.093 Y129.962 E.00622
G1 X108.211 Y129.797 E.0064
;WIDTH:0.439999
G1 X109.975 Y128.005 E.08302
G1 X110.102 Y128.005 E.00419
G1 X109.308 Y104.424 E.77902
G1 X108.925 Y104.834 E.01852
M73 P18 R3
G1 X109.694 Y127.723 E.75616
G1 X108.548 Y128.871 E.05356
G1 X107.81 Y106.953 E.72408
G1 X107.798 Y106.85 E.00342
G1 X107.661 Y106.514 E.01198
G1 X107.457 Y106.268 E.01055
G1 X107.092 Y106.12 E.013
G1 X106.841 Y106.09 E.00835
G1 X107.394 Y104.885 E.04378
G1 X108.726 Y104.841 E.044
G1 X108.541 Y105.244 E.01464
G1 X108.599 Y106.926 E.05557
;WIDTH:0.436951
G1 X109.294 Y127.565 E.6766
G1 X108.912 Y127.947 E.0177
G1 X108.205 Y106.939 E.68869
;WIDTH:0.445956
G1 X108.189 Y106.768 E.00576
G1 X108.023 Y106.351 E.01504
;WIDTH:0.439999
G1 X107.799 Y106.035 E.01279
G1 X107.683 Y105.942 E.00491
G1 X107.407 Y105.808 E.01013
G1 X107.652 Y105.274 E.0194
G1 X108.343 Y105.251 E.02283
G1 X108.168 Y105.692 E.01567
;WIDTH:0.544614
G1 X108.123 Y105.648 E.00263
G1 X108.063 Y105.664 E.00259
G1 X108.046 Y105.725 E.00264
G1 X108.091 Y105.769 E.00263
G1 X108.151 Y105.753 E.00259
G1 E-1.05 F3600
;WIPE_START
G1 F7200
G1 X108.091 Y105.769 E-.0295
G1 X108.046 Y105.725 E-.02989
G1 X108.063 Y105.664 E-.03008
G1 X108.123 Y105.648 E-.0295
G1 X108.168 Y105.692 E-.02989
G1 X108.343 Y105.251 E-.22537
G1 X108.184 Y105.256 E-.07577
;WIPE_END
G1 Z1.4 F9000
G1 X98.802 Y104.424
M73 P19 R3
G1 Z.4
G1 E1.5 F2400
;WIDTH:0.439999
G1 X98.924 Y107.93 E.11583
G1 X98.996 Y108.125 E.00686
G1 X99.173 Y108.291 E.00801
G1 X99.39 Y108.355 E.00747
G1 X99.874 Y108.343 E.01599
