; generated by PrusaSlicer 2.8.1 on 2024-10-23 at 09:15:36 UTC

; 

; external perimeters extrusion width = 0.42mm
; perimeters extrusion width = 0.44mm
; infill extrusion width = 0.44mm
; solid infill extrusion width = 0.44mm
; top infill extrusion width = 0.40mm
; support material extrusion width = 0.36mm
; first layer extrusion width = 0.42mm

M73 P0 R48

EXCLUDE_OBJECT_DEFINE NAME='tank_mower_Battery_assemblyBattery_holder_stl' CENTER=104.022,114.779 POLYGON=[[97.757,97.851],[106.565,98.456],[111.080,103.637],[109.039,133.367],[106.046,133.162],[104.755,130.066],[106.252,130.169],[107.813,107.422],[104.820,107.217],[103.368,128.367],[102.302,129.296],[98.311,129.022],[98.013,133.367],[95.040,133.163],[95.612,124.827],[99.583,125.100],[100.953,105.147],[97.254,100.903],[97.465,97.831]]

M190 S60 ; set bed temperature and wait for it to be reached
M104 S205 ; set temperature
;TYPE:Custom
START_PRINT BED_TEMP=60 EXTRUDER_TEMP=205
M220 S150
M109 S205 ; set temperature and wait for it to be reached
G21 ; set units to millimeters
G90 ; use absolute coordinates
M83 ; use relative distances for extrusion
; Filament gcode
M107
;LAYER_CHANGE
;Z:0.2
;HEIGHT:0.2
G1 E-1.5 F3600
G1 Z.2 F9000
G1 X95.738 Y95.151
G1 Z.2
G1 E1.5 F2400
M204 S500
;TYPE:Skirt/Brim
;WIDTH:0.42
G1 F1200
G1 X97.684 Y94.65 E.06301
G1 X105.17 Y95.164 E.23527
G1 X106.783 Y95.275 E.05069
G1 X107.885 Y95.554 E.03564
G1 X121.354 Y101.682 E.46397
G1 X122.702 Y102.48 E.04912
G1 X124.001 Y103.538 E.05253
G1 X125.119 Y104.786 E.05254
G1 X126.028 Y106.194 E.05255
G1 X126.859 Y108.202 E.06814
G1 X127.212 Y109.84 E.05254
G1 X127.305 Y111.012 E.03686
G1 X127.212 Y112.685 E.05254
G1 X126.859 Y114.323 E.05254
G1 X126.255 Y115.885 E.05251
G1 X125.219 Y117.615 E.06323
G1 X111.564 Y135.315 E.70093
G1 X110.314 Y136.289 E.04969
G1 X109.039 Y136.556 E.04084
G1 X98.013 Y136.556 E.34571
G1 X94.821 Y136.344 E.1003
G1 X93.317 Y135.846 E.04967
G1 X92.343 Y134.864 E.04337
G1 X85.594 Y124.167 E.39657
G1 X84.942 Y123.009 E.04167
G1 X84.333 Y121.423 E.05327
G1 X84.001 Y119.757 E.05326
G1 X83.956 Y118.06 E.05323
G1 X84.197 Y116.379 E.05325
G1 X84.922 Y114.307 E.06883
G1 X94.661 Y96.314 E.6415
G1 X95.697 Y95.195 E.04781
G1 E-1.05 F3600
;WIPE_START
G1 F7200
G1 X95.738 Y95.151 E-.02857
G1 X96.597 Y94.93 E-.42143
;WIPE_END
G1 Z1.2 F9000
EXCLUDE_OBJECT_START NAME='tank_mower_Battery_assemblyBattery_holder_stl'
G1 X117.083 Y103.803
G1 Z.2
G1 E1.5 F2400
;TYPE:Support material
G1 F1200
G1 X117.803 Y103.859 E.02264
G1 X118.947 Y104.134 E.03689
G1 X120.034 Y104.584 E.03689
G1 X121.036 Y105.199 E.03686
G1 X121.931 Y105.962 E.03688
G1 X122.694 Y106.857 E.03688
G1 X123.309 Y107.86 E.03689
G1 X123.759 Y108.946 E.03686
G1 X124.034 Y110.09 E.03689
G1 X124.126 Y111.262 E.03686
G1 X124.034 Y112.435 E.03689
G1 X123.928 Y112.876 E.01422
G1 X123.759 Y113.578 E.02264
G1 X123.309 Y114.665 E.03689
G1 X122.694 Y115.668 E.03689
G1 X121.931 Y116.562 E.03685
G1 X121.036 Y117.326 E.0369
G1 X120.034 Y117.94 E.03685
G1 X118.947 Y118.39 E.03689
G1 X117.803 Y118.665 E.03689
G1 X116.631 Y118.757 E.03686
G1 X115.458 Y118.665 E.03689
G1 X114.315 Y118.39 E.03686
G1 X113.228 Y117.94 E.03689
G1 X112.225 Y117.326 E.03687
G1 X111.331 Y116.562 E.03687
G1 X110.706 Y115.83 E.03018
G1 X111.387 Y105.915 E.31161
G1 X112.225 Y105.199 E.03456
G1 X113.228 Y104.584 E.03689
G1 X114.315 Y104.134 E.03689
G1 X115.458 Y103.859 E.03686
G1 X117.027 Y103.798 E.04923
G1 X117.027 Y103.798 F9000
G1 X123.59 Y113.543
G1 F1200
G1 X123.59 Y109.695 E.12065
G1 X123.435 Y109.051 E.02077
G1 X123.171 Y108.413 E.02165
G1 X123.171 Y114.111 E.17866
G1 X122.752 Y114.924 E.02868
G1 X122.752 Y107.6 E.22964
G1 X122.333 Y106.956 E.02409
G1 X122.333 Y115.568 E.27002
G1 X121.914 Y116.059 E.02024
G1 X121.914 Y106.465 E.30081
G1 X121.495 Y106.037 E.01878
G1 X121.495 Y116.488 E.32768
G1 X121.076 Y116.846 E.01728
G1 X121.076 Y105.679 E.35013
G1 X120.657 Y105.364 E.01644
G1 X120.657 Y117.16 E.36986
G1 X120.238 Y117.417 E.01541
G1 X120.238 Y105.107 E.38597
G1 X119.819 Y104.863 E.0152
G1 X119.819 Y117.662 E.4013
G1 X119.4 Y117.835 E.01421
G1 X119.4 Y104.689 E.41218
G1 X118.981 Y104.515 E.01423
G1 X118.981 Y118.009 E.42309
G1 X118.562 Y118.134 E.01371
G1 X118.562 Y104.391 E.4309
G1 X118.143 Y104.29 E.01351
G1 X118.143 Y118.234 E.4372
G1 X117.724 Y118.331 E.01348
G1 X117.724 Y104.194 E.44326
G1 X117.305 Y104.161 E.01318
G1 X117.305 Y118.364 E.44533
G1 X116.886 Y118.397 E.01318
G1 X116.886 Y104.128 E.44739
G1 X116.467 Y104.12 E.01314
G1 X116.467 Y118.404 E.44786
G1 X116.048 Y118.371 E.01318
G1 X116.048 Y104.153 E.4458
G1 X115.629 Y104.186 E.01318
G1 X115.629 Y118.338 E.44373
G1 X115.21 Y118.256 E.01339
G1 X115.21 Y104.268 E.43858
G1 X114.791 Y104.369 E.01351
G1 X114.791 Y118.156 E.43228
G1 X114.372 Y118.047 E.01357
G1 X114.372 Y104.477 E.42548
G1 X113.953 Y104.651 E.01423
G1 X113.953 Y117.873 E.41457
G1 X113.534 Y117.7 E.01421
G1 X113.534 Y104.825 E.40369
G1 X113.115 Y105.051 E.01493
G1 X113.115 Y117.473 E.38948
G1 X112.696 Y117.216 E.01541
G1 X112.696 Y105.308 E.37337
G1 X112.277 Y105.6 E.01601
G1 X112.277 Y116.924 E.35506
G1 X111.858 Y116.566 E.01728
G1 X111.858 Y105.958 E.33261
G1 X111.716 Y106.08 E.00587
G1 X111.439 Y110.102 E.12641
G1 X111.439 Y116.428 E.19835
G1 E-1.05 F3600
;WIPE_START
G1 F7200
G1 X111.439 Y115.481 E-.45
;WIPE_END
G1 Z1.2 F9000
G1 X94.72 Y111.874
G1 Z.2
G1 E1.5 F2400
G1 F1200
G1 X95.392 Y111.96 E.02124
G1 X96.5 Y112.299 E.03633
G1 X97.535 Y112.821 E.03635
G1 X98.467 Y113.51 E.03634
G1 X99.269 Y114.347 E.03635
G1 X99.804 Y115.139 E.02997
G1 X99.269 Y122.931 E.24489
G1 X98.467 Y123.768 E.03635
G1 X97.467 Y124.492 E.03871
G1 X95.453 Y124.353 E.0633
G1 X95.164 Y124.605 E.01202
G1 X95.113 Y125.354 E.02354
G1 X94.242 Y125.466 E.02753
G1 X93.084 Y125.417 E.03634
G1 X91.952 Y125.173 E.03631
G1 X90.876 Y124.74 E.03637
G1 X89.889 Y124.133 E.03633
G1 X89.019 Y123.367 E.03634
G1 X88.291 Y122.465 E.03634
G1 X87.726 Y121.454 E.03631
G1 X87.34 Y120.361 E.03634
G1 X87.225 Y119.694 E.02122
G1 X87.144 Y119.219 E.01511
G1 X87.144 Y118.06 E.03634
G1 X87.34 Y116.917 E.03636
G1 X87.726 Y115.825 E.03631
G1 X88.291 Y114.813 E.03634
G1 X88.594 Y114.438 E.01512
G1 X89.019 Y113.911 E.02123
G1 X89.889 Y113.146 E.03632
G1 X90.876 Y112.538 E.03635
G1 X91.952 Y112.106 E.03635
G1 X93.084 Y111.862 E.03631
G1 X94.242 Y111.812 E.03634
G1 X94.664 Y111.866 E.01334
G1 X94.664 Y111.866 F9000
G1 X99.289 Y120.158
G1 F1200
G1 X99.289 Y114.983 E.16226
G1 X98.87 Y114.421 E.02198
G1 X98.87 Y122.857 E.2645
G1 X98.451 Y123.294 E.01898
G1 X98.451 Y113.984 E.29191
G1 X98.032 Y113.611 E.01759
G1 X98.032 Y123.668 E.31533
G1 X97.613 Y123.978 E.01634
G1 X97.613 Y113.301 E.33477
G1 X97.194 Y113.029 E.01566
G1 X97.194 Y124.133 E.34816
G1 X96.775 Y124.104 E.01317
G1 X96.775 Y112.818 E.35386
G1 X96.356 Y112.61 E.01467
G1 X96.356 Y124.075 E.35948
G1 X95.937 Y124.046 E.01317
G1 X95.937 Y112.482 E.36258
G1 X95.518 Y112.353 E.01375
G1 X95.518 Y124.018 E.36575
G1 X95.336 Y124.005 E.00572
G1 X95.099 Y124.211 E.00985
G1 X95.099 Y112.264 E.37459
G1 X94.68 Y112.211 E.01324
M73 P1 R48
G1 X94.68 Y125.068 E.40312
G1 X94.261 Y125.121 E.01324
G1 X94.261 Y112.157 E.40648
G1 X93.842 Y112.169 E.01314
G1 X93.842 Y125.109 E.40572
G1 X93.423 Y125.091 E.01315
G1 X93.423 Y112.187 E.4046
G1 X93.005 Y112.226 E.01316
G1 X93.005 Y125.052 E.40215
G1 X92.586 Y124.962 E.01344
G1 X92.586 Y112.316 E.39651
M73 P1 R47
G1 X92.167 Y112.407 E.01344
G1 X92.167 Y124.872 E.39083
G1 X92.051 Y124.847 E.00372
G1 X91.748 Y124.725 E.01024
G1 X91.748 Y112.553 E.38164
G1 X91.329 Y112.722 E.01417
G1 X91.329 Y124.557 E.37108
G1 X90.91 Y124.363 E.01448
G1 X90.91 Y112.916 E.35891
G1 X90.491 Y113.174 E.01543
G1 X90.491 Y124.105 E.34273
G1 X90.072 Y123.841 E.01553
G1 X90.072 Y113.437 E.32621
G1 X89.653 Y113.806 E.01751
G1 X89.653 Y123.473 E.3031
G1 X89.234 Y123.093 E.01774
G1 X89.234 Y114.186 E.27927
G1 X88.815 Y114.705 E.02091
G1 X88.815 Y122.574 E.24673
G1 X88.396 Y121.957 E.02338
G1 X88.396 Y115.322 E.20804
G1 X87.977 Y116.134 E.02865
G1 X87.977 Y121.145 E.15712
G1 X87.67 Y120.275 E.02893
G1 X87.558 Y119.624 E.02071
G1 X87.558 Y116.81 E.08823
G1 E-1.05 F3600
;WIPE_START
G1 F7200
G1 X87.558 Y117.757 E-.45
;WIPE_END
G1 Z1.2 F9000
G1 X97.753 Y98.162
G1 Z.2
G1 E1.5 F2400
;TYPE:External perimeter
;WIDTH:0.419999
G1 F1200
G1 X106.415 Y98.756 E.27223
G1 X110.762 Y103.744 E.20745
G1 X110.691 Y104.785 E.03272
G1 X108.751 Y133.037 E.88791
G1 X106.259 Y132.865 E.07832
G1 X105.234 Y130.41 E.08341
G1 X106.352 Y130.486 E.03513
G1 X106.465 Y130.458 E.00365
G1 X106.553 Y130.311 E.00537
G1 X108.131 Y107.322 E.7225
G1 X108.102 Y107.209 E.00366
G1 X107.959 Y107.121 E.00526
G1 X104.72 Y106.899 E.10179
G1 X104.595 Y106.936 E.00409
G1 X104.519 Y107.074 E.00494
G1 X103.068 Y128.218 E.66451
G1 X102.195 Y128.978 E.03629
G1 X98.212 Y128.705 E.12518
G1 X98.055 Y128.771 E.00534
G1 X98.011 Y128.88 E.00369
G1 X97.725 Y133.037 E.13065
G1 X95.37 Y132.875 E.07401
G1 X95.9 Y125.158 E.24253
G1 X99.683 Y125.418 E.11889
G1 X99.82 Y125.372 E.00453
G1 X99.884 Y125.242 E.00454
G1 X101.266 Y105.118 E.63246
G1 X101.22 Y104.981 E.00453
G1 X97.573 Y100.797 E.17403
G1 X97.749 Y98.222 E.08093
G1 E-1.05 F3600
;WIPE_START
G1 F7200
G1 X97.753 Y98.162 E-.02856
G1 X98.638 Y98.223 E-.42144
;WIPE_END
G1 Z1.2 F9000
G1 X105.527 Y98.816
G1 Z.2
G1 E1.5 F2400
;TYPE:Solid infill
;WIDTH:0.420148
G1 F1200
G1 X109.848 Y103.138 E.1917
G1 X110.464 Y103.844 E.02939
G1 X110.436 Y104.258 E.01302
G1 X105.137 Y98.96 E.23504
G1 X104.564 Y98.92 E.01802
G1 X110.401 Y104.757 E.25892
G1 X110.367 Y105.257 E.01572
G1 X103.991 Y98.881 E.28283
G1 X103.419 Y98.842 E.01798
G1 X110.333 Y105.756 E.3067
G1 X110.299 Y106.255 E.01569
G1 X102.846 Y98.802 E.33061
G1 X102.273 Y98.763 E.01801
G1 X110.264 Y106.754 E.35447
G1 X110.23 Y107.254 E.01572
G1 X101.7 Y98.724 E.37838
G1 X101.127 Y98.684 E.01802
G1 X110.196 Y107.753 E.40229
G1 X110.161 Y108.252 E.01569
G1 X100.555 Y98.645 E.42614
G1 X99.982 Y98.606 E.01801
G1 X110.127 Y108.751 E.45002
G1 X110.093 Y109.25 E.01569
G1 X108.405 Y107.563 E.07486
G1 X108.421 Y107.326 E.00745
G1 X108.353 Y107.053 E.00882
G1 X108.168 Y106.884 E.00786
G1 X107.993 Y106.833 E.00572
G1 X107.652 Y106.81 E.01072
G1 X99.409 Y98.566 E.36567
G1 X98.836 Y98.527 E.01801
G1 X107.079 Y106.77 E.36565
G1 X106.507 Y106.731 E.01798
G1 X98.263 Y98.488 E.36567
G1 X98.023 Y98.471 E.00755
G1 X98.003 Y98.761 E.00912
G1 X105.934 Y106.692 E.35181
G1 X105.362 Y106.653 E.01798
G1 X97.969 Y99.26 E.32795
G1 X97.935 Y99.76 E.01572
G1 X104.789 Y106.614 E.30404
G1 X104.695 Y106.608 E.00295
G1 X104.523 Y106.644 E.00551
G1 X104.384 Y106.742 E.00533
G1 X97.9 Y100.259 E.2876
G1 X97.87 Y100.696 E.01374
G1 X98.317 Y101.209 E.02134
G1 X104.225 Y107.117 E.26207
G1 X104.191 Y107.616 E.01569
G1 X101.527 Y104.952 E.11817
G1 X101.552 Y105.029 E.00254
G1 X101.521 Y105.48 E.01418
G1 X104.157 Y108.115 E.11691
G1 X104.122 Y108.615 E.01572
G1 X101.487 Y105.98 E.11689
G1 X101.453 Y106.479 E.01569
G1 X104.088 Y109.114 E.11689
G1 X104.054 Y109.613 E.01569
G1 X101.419 Y106.979 E.11686
G1 X101.385 Y107.478 E.01569
G1 X104.02 Y110.112 E.11686
G1 X103.985 Y110.612 E.01572
G1 X101.351 Y107.977 E.11686
G1 X101.317 Y108.477 E.01572
G1 X103.951 Y111.111 E.11684
G1 X103.917 Y111.61 E.01569
G1 X101.283 Y108.976 E.11684
G1 X101.249 Y109.476 E.01572
G1 X103.883 Y112.109 E.11682
G1 X103.848 Y112.608 E.01569
G1 X101.215 Y109.975 E.1168
G1 X101.181 Y110.475 E.01572
G1 X103.814 Y113.108 E.1168
G1 X103.78 Y113.607 E.01569
G1 X101.147 Y110.974 E.1168
G1 X101.113 Y111.474 E.01572
G1 X103.745 Y114.106 E.11675
G1 X103.711 Y114.605 E.01569
G1 X101.079 Y111.973 E.11675
G1 X101.045 Y112.473 E.01572
G1 X103.677 Y115.104 E.11673
G1 X103.643 Y115.604 E.01572
G1 X101.011 Y112.972 E.11675
G1 X100.977 Y113.471 E.01569
G1 X103.608 Y116.103 E.11673
G1 X103.574 Y116.602 E.01569
G1 X100.943 Y113.971 E.11671
G1 X100.909 Y114.47 E.01569
G1 X103.54 Y117.101 E.11671
G1 X103.506 Y117.6 E.01569
G1 X100.875 Y114.97 E.11669
G1 X100.841 Y115.469 E.01569
G1 X103.471 Y118.1 E.11669
G1 X103.437 Y118.599 E.01569
G1 X100.807 Y115.969 E.11666
G1 X100.773 Y116.468 E.01569
G1 X103.403 Y119.098 E.11666
G1 X103.368 Y119.597 E.01569
G1 X100.739 Y116.968 E.11662
G1 X100.705 Y117.467 E.01569
G1 X103.334 Y120.097 E.11664
G1 X103.3 Y120.596 E.01569
G1 X100.671 Y117.967 E.11662
G1 X100.637 Y118.466 E.01569
G1 X103.266 Y121.095 E.11662
G1 X103.231 Y121.594 E.01569
G1 X100.603 Y118.965 E.1166
G1 X100.569 Y119.465 E.01572
G1 X103.197 Y122.093 E.11658
G1 X103.163 Y122.593 E.01572
G1 X100.535 Y119.964 E.1166
G1 X100.501 Y120.464 E.01572
G1 X103.129 Y123.092 E.11658
G1 X103.094 Y123.591 E.01569
G1 X100.467 Y120.963 E.11655
G1 X100.433 Y121.463 E.01572
G1 X103.06 Y124.09 E.11653
G1 X103.026 Y124.589 E.01569
G1 X100.399 Y121.962 E.11653
G1 X100.364 Y122.462 E.01572
M73 P2 R47
G1 X102.992 Y125.089 E.11655
G1 X102.957 Y125.588 E.01569
G1 X100.33 Y122.961 E.11653
G1 X100.296 Y123.461 E.01572
G1 X102.923 Y126.087 E.11651
G1 X102.889 Y126.586 E.01569
G1 X100.262 Y123.96 E.11651
G1 X100.228 Y124.459 E.01569
G1 X102.854 Y127.085 E.11649
G1 X102.82 Y127.585 E.01572
G1 X100.194 Y124.959 E.11649
G1 X100.173 Y125.273 E.00987
G1 X100.13 Y125.428 E.00505
G1 X102.783 Y128.081 E.11768
G1 X102.498 Y128.329 E.01185
G1 X99.851 Y125.683 E.1174
G1 X99.743 Y125.707 E.00347
G1 X99.313 Y125.678 E.01352
G1 X102.213 Y128.578 E.12864
G1 X102.095 Y128.68 E.00489
G1 X101.759 Y128.657 E.01056
G1 X98.741 Y125.64 E.13385
G1 X98.17 Y125.601 E.01795
G1 X101.186 Y128.618 E.13381
G1 X100.613 Y128.578 E.01802
G1 X97.598 Y125.563 E.13374
G1 X97.026 Y125.525 E.01798
G1 X100.04 Y128.539 E.1337
G1 X99.467 Y128.5 E.01801
G1 X96.454 Y125.486 E.13368
G1 X96.17 Y125.467 E.00893
G1 X96.153 Y125.719 E.00792
G1 X98.895 Y128.46 E.12161
G1 X98.322 Y128.421 E.01801
G1 X96.118 Y126.218 E.09775
G1 X96.084 Y126.717 E.01569
G1 X97.9 Y128.533 E.08056
G1 X97.828 Y128.582 E.00273
G1 X97.719 Y128.885 E.0101
G1 X96.05 Y127.216 E.07404
G1 X96.016 Y127.715 E.01569
G1 X97.685 Y129.385 E.07406
G1 X97.651 Y129.884 E.01569
G1 X95.981 Y128.215 E.07406
G1 X95.947 Y128.714 E.01569
G1 X97.616 Y130.383 E.07404
G1 X97.582 Y130.882 E.01569
G1 X95.913 Y129.213 E.07404
G1 X95.879 Y129.712 E.01569
G1 X97.548 Y131.381 E.07404
G1 X97.513 Y131.881 E.01572
G1 X95.844 Y130.211 E.07406
G1 X95.81 Y130.711 E.01572
G1 X97.479 Y132.38 E.07404
G1 X97.455 Y132.727 E.01091
G1 X97.281 Y132.715 E.00547
G1 X95.776 Y131.21 E.06676
G1 X95.741 Y131.709 E.01569
G1 X96.708 Y132.676 E.0429
G1 X96.135 Y132.636 E.01802
G1 X95.548 Y132.049 E.02604
G1 E-1.05 F3600
;WIPE_START
G1 F7200
G1 X96.135 Y132.636 E-.39432
G1 X96.252 Y132.644 E-.05568
;WIPE_END
G1 Z1.2 F9000
G1 X110.218 Y109.909
G1 Z.2
G1 E1.5 F2400
G1 F1200
G1 X108.371 Y108.062 E.08193
G1 X108.337 Y108.561 E.01569
G1 X110.024 Y110.249 E.07486
G1 X109.99 Y110.748 E.01569
G1 X108.302 Y109.06 E.07488
G1 X108.268 Y109.56 E.01572
G1 X109.956 Y111.247 E.07486
G1 X109.922 Y111.746 E.01569
G1 X108.234 Y110.059 E.07486
G1 X108.2 Y110.558 E.01569
G1 X109.887 Y112.246 E.07486
G1 X109.853 Y112.745 E.01569
G1 X108.165 Y111.057 E.07488
G1 X108.131 Y111.556 E.01569
G1 X109.819 Y113.244 E.07488
G1 X109.784 Y113.743 E.01569
G1 X108.097 Y112.056 E.07483
G1 X108.063 Y112.555 E.01569
G1 X109.75 Y114.242 E.07483
G1 X109.716 Y114.742 E.01572
G1 X108.028 Y113.054 E.07488
G1 X107.994 Y113.553 E.01569
G1 X109.682 Y115.241 E.07488
G1 X109.647 Y115.74 E.01569
G1 X107.96 Y114.052 E.07486
G1 X107.925 Y114.552 E.01572
G1 X109.613 Y116.239 E.07486
G1 X109.579 Y116.739 E.01572
G1 X107.891 Y115.051 E.07488
G1 X107.857 Y115.55 E.01569
G1 X109.545 Y117.238 E.07488
G1 X109.51 Y117.737 E.01569
G1 X107.823 Y116.049 E.07486
G1 X107.788 Y116.548 E.01569
G1 X109.476 Y118.236 E.07488
G1 X109.442 Y118.735 E.01569
G1 X107.754 Y117.048 E.07486
G1 X107.72 Y117.547 E.01569
G1 X109.408 Y119.235 E.07488
G1 X109.373 Y119.734 E.01569
G1 X107.686 Y118.046 E.07486
G1 X107.651 Y118.545 E.01569
G1 X109.339 Y120.233 E.07488
G1 X109.305 Y120.732 E.01569
G1 X107.617 Y119.045 E.07486
G1 X107.583 Y119.544 E.01569
G1 X109.27 Y121.231 E.07483
G1 X109.236 Y121.731 E.01572
G1 X107.548 Y120.043 E.07488
