; generated by PrusaSlicer 2.8.1 on 2024-10-25 at 16:03:12 UTC

; 

; external perimeters extrusion width = 0.42mm
; perimeters extrusion width = 0.44mm
; infill extrusion width = 0.44mm
; solid infill extrusion width = 0.44mm
; top infill extrusion width = 0.40mm
; support material extrusion width = 0.36mm
; first layer extrusion width = 0.42mm

M73 P0 R24

EXCLUDE_OBJECT_DEFINE NAME='tank_mower_Track_assemblyOverWheel_stl' CENTER=103.452,115.500 POLYGON=[[110.578,95.513],[111.330,96.711],[110.452,100.559],[111.701,101.211],[113.496,102.410],[115.119,103.833],[116.461,105.350],[120.016,103.638],[121.351,104.105],[123.521,108.610],[123.054,109.945],[119.498,111.657],[119.810,113.346],[119.951,115.500],[119.810,117.654],[119.498,119.343],[123.054,121.055],[123.521,122.390],[121.351,126.895],[120.016,127.362],[116.461,125.650],[115.119,127.167],[113.496,128.590],[111.701,129.789],[110.452,130.441],[111.330,134.289],[110.578,135.487],[105.703,136.599],[104.506,135.847],[103.627,131.999],[101.298,131.859],[99.181,131.438],[97.137,130.744],[96.134,130.289],[93.674,133.375],[92.268,133.533],[88.359,130.415],[88.201,129.010],[90.662,125.924],[89.162,123.750],[88.207,121.814],[87.514,119.771],[87.327,119.000],[83.380,119.000],[82.380,118.000],[82.380,113.000],[83.380,112.000],[87.327,112.000],[87.514,111.229],[88.207,109.186],[89.162,107.250],[90.662,105.076],[88.201,101.990],[88.359,100.585],[92.268,97.467],[93.674,97.625],[96.134,100.711],[97.137,100.256],[99.181,99.562],[101.298,99.141],[103.627,99.001],[104.506,95.153],[105.703,94.401]]

M190 S60 ; set bed temperature and wait for it to be reached
M104 S205 ; set temperature
;TYPE:Custom
START_PRINT BED_TEMP=60 EXTRUDER_TEMP=205
;M220 S150
M109 S205 ; set temperature and wait for it to be reached
G21 ; set units to millimeters
G90 ; use absolute coordinates
M83 ; use relative distances for extrusion
; Filament gcode
M107
;LAYER_CHANGE
;Z:0.2
;HEIGHT:0.2
G1 E-1.5 F3600
G1 Z.2 F9000
G1 X84.577 Y93.175
G1 Z.2
G1 E1.5 F2400
;TYPE:Skirt/Brim
;WIDTH:0.42
G1 X85.405 Y92.578 E.03201
G1 X88.039 Y91.261 E.09234
G1 X88.774 Y91 E.02446
G1 X100.627 Y88.366 E.38071
G1 X101.319 Y88.29 E.02183
G1 X111.167 Y88.29 E.30878
G1 X112.176 Y88.453 E.03205
G1 X116.127 Y89.77 E.13058
G1 X117.16 Y90.346 E.03708
G1 X125.276 Y97.126 E.33158
G1 X127.91 Y99.76 E.1168
G1 X128.68 Y101.007 E.04595
G1 X129.997 Y104.958 E.13058
G1 X130.161 Y105.966 E.03202
G1 X130.161 Y125.034 E.59786
G1 X129.997 Y126.042 E.03202
G1 X128.68 Y129.993 E.13058
G1 X127.91 Y131.24 E.04595
G1 X125.276 Y133.874 E.1168
G1 X117.16 Y140.654 E.33158
G1 X116.127 Y141.23 E.03708
G1 X112.176 Y142.547 E.13058
G1 X111.167 Y142.71 E.03205
G1 X101.319 Y142.71 E.30878
G1 X100.627 Y142.634 E.02183
G1 X88.774 Y140 E.38071
G1 X88.039 Y139.739 E.02446
G1 X85.405 Y138.422 E.09234
G1 X84.577 Y137.825 E.03201
G1 X81.942 Y135.191 E.11682
G1 X81.212 Y134.056 E.04231
G1 X77.26 Y123.519 E.35285
G1 X77.057 Y122.4 E.03566
G1 X77.057 Y108.6 E.43269
G1 X77.26 Y107.481 E.03566
M73 P0 R23
G1 X81.212 Y96.944 E.35285
G1 X81.942 Y95.809 E.04231
G1 X84.534 Y93.217 E.11493
G1 E-1.05 F3600
;WIPE_START
G1 F7200
G1 X84.577 Y93.175 E-.02855
G1 X85.297 Y92.656 E-.42145
;WIPE_END
G1 Z.7 F9000
EXCLUDE_OBJECT_START NAME='tank_mower_Track_assemblyOverWheel_stl'
G1 X111.167 Y92.795
G1 Z.2
G1 E1.5 F2400
;TYPE:Support material
G1 X115.119 Y92.795 E.12391
G1 X115.119 Y98.064 E.16521
G1 X116.436 Y98.064 E.04129
G1 X116.436 Y99.381 E.04129
G1 X123.021 Y99.381 E.20647
G1 X123.021 Y100.698 E.04129
G1 X124.338 Y100.698 E.04129
G1 X124.338 Y102.015 E.04129
G1 X125.655 Y102.015 E.04129
G1 X125.655 Y105.966 E.12388
G1 X126.972 Y105.966 E.04129
G1 X126.972 Y113.18 E.22619
G1 X125.655 Y113.18 E.04129
G1 X125.655 Y114.497 E.04129
G1 X123.021 Y114.497 E.08259
G1 X123.021 Y116.503 E.0629
G1 X125.655 Y116.503 E.08259
G1 X125.655 Y117.82 E.04129
G1 X126.972 Y117.82 E.04129
G1 X126.972 Y125.034 E.22619
G1 X125.655 Y125.034 E.04129
G1 X125.655 Y128.985 E.12388
G1 X124.338 Y128.985 E.04129
G1 X124.338 Y130.302 E.04129
G1 X123.021 Y130.302 E.04129
G1 X123.021 Y131.619 E.04129
G1 X116.436 Y131.619 E.20647
G1 X116.436 Y132.936 E.04129
G1 X115.119 Y132.936 E.04129
G1 X115.119 Y138.205 E.16521
G1 X111.167 Y138.205 E.12391
G1 X111.167 Y139.522 E.04129
G1 X101.319 Y139.522 E.30878
G1 X101.319 Y138.205 E.04129
G1 X100.002 Y138.205 E.04129
G1 X100.002 Y135.57 E.08262
G1 X97.996 Y135.57 E.0629
G1 X97.996 Y136.888 E.04132
G1 X89.465 Y136.888 E.26748
G1 X89.465 Y135.57 E.04132
G1 X86.831 Y135.57 E.08259
G1 X86.831 Y134.253 E.04129
G1 X85.514 Y134.253 E.04129
G1 X85.514 Y132.936 E.04129
G1 X84.197 Y132.936 E.04129
G1 X84.197 Y122.4 E.33035
G1 X80.246 Y122.4 E.12388
G1 X80.246 Y108.6 E.43269
G1 X84.197 Y108.6 E.12388
G1 X84.197 Y98.064 E.33035
G1 X85.514 Y98.064 E.04129
G1 X85.514 Y96.747 E.04129
G1 X86.831 Y96.747 E.04129
G1 X86.831 Y95.43 E.04129
G1 X89.465 Y95.43 E.08259
G1 X89.465 Y94.112 E.04132
G1 X97.996 Y94.112 E.26748
G1 X97.996 Y95.43 E.04132
G1 X100.002 Y95.43 E.0629
G1 X100.002 Y92.795 E.08262
G1 X101.319 Y92.795 E.04129
G1 X101.319 Y91.478 E.04129
G1 X111.167 Y91.478 E.30878
G1 X111.167 Y92.739 E.03954
G1 X111.167 Y92.739 F9000
G1 X108.377 Y99.326
G1 F2400
G1 X109.905 Y99.326 E.04791
G1 X109.905 Y100.643 E.04129
G1 X112.539 Y100.643 E.08259
G1 X112.539 Y101.961 E.04132
G1 X113.856 Y101.961 E.04129
G1 X113.856 Y103.278 E.04129
G1 X115.173 Y103.278 E.04129
G1 X115.173 Y104.595 E.04129
G1 X116.49 Y104.595 E.04129
G1 X116.49 Y105.912 E.04129
G1 X117.807 Y105.912 E.04129
G1 X117.807 Y108.546 E.08259
G1 X119.124 Y108.546 E.04129
G1 X119.124 Y112.497 E.12388
G1 X120.441 Y112.497 E.04129
G1 X120.441 Y118.503 E.18831
G1 X119.124 Y118.503 E.04129
G1 X119.124 Y122.454 E.12388
G1 X117.807 Y122.454 E.04129
G1 X117.807 Y125.088 E.08259
G1 X116.49 Y125.088 E.04129
M73 P1 R23
G1 X116.49 Y126.405 E.04129
G1 X115.173 Y126.405 E.04129
G1 X115.173 Y127.722 E.04129
G1 X113.856 Y127.722 E.04129
G1 X113.856 Y129.039 E.04129
G1 X112.539 Y129.039 E.04129
G1 X112.539 Y130.357 E.04132
G1 X109.905 Y130.357 E.08259
G1 X109.905 Y131.674 E.04129
G1 X97.314 Y131.674 E.39478
G1 X97.314 Y130.357 E.04129
G1 X94.679 Y130.357 E.08262
G1 X94.679 Y129.039 E.04132
G1 X92.045 Y129.039 E.08259
G1 X92.045 Y127.722 E.04129
G1 X90.728 Y127.722 E.04129
G1 X90.728 Y126.405 E.04129
G1 X89.411 Y126.405 E.04129
G1 X89.411 Y123.771 E.08259
G1 X88.094 Y123.771 E.04129
G1 X88.094 Y119.82 E.12388
G1 X86.777 Y119.82 E.04129
G1 X86.777 Y112.707 E.22302
G1 X86.777 Y111.18 E.04788
G1 X88.094 Y111.18 E.04129
G1 X88.094 Y107.229 E.12388
G1 X89.411 Y107.229 E.04129
G1 X89.411 Y104.595 E.08259
G1 X90.728 Y104.595 E.04129
G1 X90.728 Y103.278 E.04129
G1 X92.045 Y103.278 E.04129
G1 X92.045 Y101.961 E.04129
G1 X94.679 Y101.961 E.08259
G1 X94.679 Y100.643 E.04132
G1 X97.314 Y100.643 E.08262
G1 X97.314 Y99.326 E.04129
G1 X108.321 Y99.326 E.34512
G1 E-1.05 F3600
;WIPE_START
G1 F7200
G1 X107.374 Y99.326 E-.45
;WIPE_END
G1 Z.7 F9000
G1 X126.413 Y124.864
G1 Z.2
G1 E1.5 F2400
G1 X126.413 Y118.159 E.21023
G1 X125.994 Y118.159 E.01314
G1 X125.994 Y124.694 E.2049
G1 X125.575 Y124.694 E.01314
G1 X125.575 Y118.159 E.2049
G1 X125.316 Y118.159 E.00812
G1 X125.316 Y116.842 E.04129
G1 X125.156 Y116.842 E.00502
G1 X125.156 Y128.646 E.37011
G1 X124.737 Y128.646 E.01314
G1 X124.737 Y116.842 E.37011
G1 X124.318 Y116.842 E.01314
G1 X124.318 Y128.646 E.37011
G1 X123.999 Y128.646 E.01
G1 X123.999 Y129.963 E.04129
G1 X123.899 Y129.963 E.00314
G1 X123.899 Y116.842 E.4114
G1 X123.48 Y116.842 E.01314
G1 X123.48 Y129.963 E.4114
G1 X123.061 Y129.963 E.01314
G1 X123.061 Y116.842 E.4114
G1 X122.682 Y116.842 E.01188
G1 X122.682 Y114.158 E.08415
G1 X123.061 Y114.158 E.01188
G1 X123.061 Y101.037 E.4114
G1 X123.48 Y101.037 E.01314
G1 X123.48 Y114.158 E.4114
G1 X123.899 Y114.158 E.01314
G1 X123.899 Y101.037 E.4114
G1 X123.999 Y101.037 E.00314
G1 X123.999 Y102.354 E.04129
G1 X124.318 Y102.354 E.01
G1 X124.318 Y114.158 E.37011
G1 X124.737 Y114.158 E.01314
G1 X124.737 Y102.354 E.37011
G1 X125.156 Y102.354 E.01314
G1 X125.156 Y114.158 E.37011
G1 X125.316 Y114.158 E.00502
G1 X125.316 Y112.841 E.04129
G1 X125.575 Y112.841 E.00812
G1 X125.575 Y106.306 E.2049
G1 X125.994 Y106.306 E.01314
G1 X125.994 Y112.841 E.2049
G1 X126.413 Y112.841 E.01314
G1 X126.413 Y106.136 E.21023
G1 E-1.05 F3600
;WIPE_START
G1 F7200
G1 X126.413 Y107.083 E-.45
;WIPE_END
G1 Z.7 F9000
G1 X122.642 Y131.45
G1 Z.2
G1 E1.5 F2400
G1 X122.642 Y99.72 E.99487
G1 X122.223 Y99.72 E.01314
G1 X122.223 Y131.28 E.98954
G1 X121.804 Y131.28 E.01314
G1 X121.804 Y99.72 E.98954
G1 X121.385 Y99.72 E.01314
G1 X121.385 Y131.28 E.98954
G1 X120.966 Y131.28 E.01314
G1 X120.966 Y99.72 E.98954
G1 X120.548 Y99.72 E.01311
M73 P2 R23
G1 X120.548 Y112.158 E.38998
G1 X120.129 Y112.158 E.01314
G1 X120.129 Y99.72 E.38998
G1 X119.71 Y99.72 E.01314
G1 X119.71 Y112.158 E.38998
G1 X119.463 Y112.158 E.00774
G1 X119.463 Y108.207 E.12388
G1 X119.291 Y108.207 E.00539
G1 X119.291 Y99.72 E.2661
G1 X118.872 Y99.72 E.01314
G1 X118.872 Y108.207 E.2661
G1 X118.453 Y108.207 E.01314
G1 X118.453 Y99.72 E.2661
G1 X118.034 Y99.72 E.01314
G1 X118.034 Y105.572 E.18349
G1 X117.615 Y105.572 E.01314
G1 X117.615 Y99.72 E.18349
G1 X117.196 Y99.72 E.01314
G1 X117.196 Y105.572 E.18349
G1 X116.829 Y105.572 E.01151
G1 X116.777 Y99.72 E.18349
G1 X116.358 Y99.72 E.01314
G1 X116.358 Y104.255 E.14219
G1 X115.939 Y104.255 E.01314
G1 X115.939 Y98.403 E.18349
G1 X115.52 Y98.403 E.01314
G1 X115.52 Y104.255 E.18349
G1 X115.512 Y102.938 E.04129
G1 X115.101 Y102.938 E.01289
G1 X115.101 Y98.403 E.14219
G1 X114.779 Y98.403 E.0101
G1 X114.779 Y93.135 E.16517
G1 X114.682 Y93.135 E.00304
G1 X114.682 Y102.938 E.30737
G1 X114.263 Y102.938 E.01314
G1 X114.263 Y93.135 E.30737
G1 X113.844 Y93.135 E.01314
G1 X113.844 Y101.621 E.26607
G1 X113.425 Y101.621 E.01314
G1 X113.425 Y93.135 E.26607
G1 X113.006 Y93.135 E.01314
G1 X113.006 Y101.621 E.26607
G1 X112.878 Y101.621 E.00401
G1 X112.878 Y100.304 E.04129
G1 X112.587 Y100.304 E.00912
G1 X112.587 Y93.135 E.22478
G1 X112.168 Y93.135 E.01314
G1 X112.168 Y100.304 E.22478
G1 X111.749 Y100.304 E.01314
G1 X111.749 Y93.135 E.22478
G1 X111.33 Y93.135 E.01314
G1 X111.33 Y100.304 E.22478
G1 X110.911 Y100.304 E.01314
G1 X110.911 Y93.135 E.22478
G1 X110.828 Y93.135 E.0026
G1 X110.828 Y91.818 E.04129
G1 X110.492 Y91.818 E.01054
G1 X110.492 Y100.304 E.26607
G1 X110.244 Y100.304 E.00778
G1 X110.244 Y98.987 E.04129
G1 X110.073 Y98.987 E.00536
G1 X110.073 Y91.818 E.22478
G1 X109.654 Y91.818 E.01314
G1 X109.654 Y98.987 E.22478
G1 X109.235 Y98.987 E.01314
G1 X109.235 Y91.818 E.22478
G1 X108.816 Y91.818 E.01314
G1 X108.816 Y98.987 E.22478
G1 X108.397 Y98.987 E.01314
G1 X108.397 Y91.818 E.22478
G1 X107.978 Y91.818 E.01314
G1 X107.978 Y98.987 E.22478
G1 X107.559 Y98.987 E.01314
G1 X107.559 Y91.818 E.22478
G1 X107.14 Y91.818 E.01314
G1 X107.14 Y98.987 E.22478
G1 X106.721 Y98.987 E.01314
G1 X106.721 Y91.818 E.22478
G1 X106.302 Y91.818 E.01314
G1 X106.302 Y98.987 E.22478
G1 X105.883 Y98.987 E.01314
G1 X105.883 Y91.818 E.22478
G1 X105.464 Y91.818 E.01314
G1 X105.464 Y98.987 E.22478
G1 X105.045 Y98.987 E.01314
G1 X105.045 Y91.818 E.22478
G1 X104.626 Y91.818 E.01314
G1 X104.626 Y98.987 E.22478
G1 X104.207 Y98.987 E.01314
G1 X104.207 Y91.818 E.22478
G1 X103.788 Y91.818 E.01314
G1 X103.788 Y98.987 E.22478
G1 X103.369 Y98.987 E.01314
G1 X103.369 Y91.818 E.22478
G1 X102.95 Y91.818 E.01314
G1 X102.95 Y98.987 E.22478
G1 X102.532 Y98.987 E.01311
G1 X102.532 Y91.818 E.22478
G1 X102.113 Y91.818 E.01314
G1 X102.113 Y98.987 E.22478
G1 X101.694 Y98.987 E.01314
G1 X101.659 Y91.818 E.22478
G1 X101.659 Y93.135 E.04129
G1 X101.275 Y93.135 E.01204
G1 X101.275 Y98.987 E.18349
G1 X100.856 Y98.987 E.01314
G1 X100.856 Y93.135 E.18349
G1 X100.437 Y93.135 E.01314
G1 X100.437 Y98.987 E.18349
G1 X100.018 Y98.987 E.01314
G1 X100.018 Y95.769 E.1009
G1 X99.599 Y95.769 E.01314
G1 X99.599 Y98.987 E.1009
G1 X99.18 Y98.987 E.01314
G1 X99.18 Y95.769 E.1009
G1 X98.761 Y95.769 E.01314
G1 X98.761 Y98.987 E.1009
G1 X98.342 Y98.987 E.01314
G1 X98.342 Y95.769 E.1009
G1 X97.923 Y95.769 E.01314
G1 X97.923 Y98.987 E.1009
G1 X97.504 Y98.987 E.01314
G1 X97.504 Y94.452 E.14219
G1 X97.085 Y94.452 E.01314
G1 X97.085 Y98.987 E.14219
G1 X96.974 Y98.987 E.00348
G1 X96.974 Y100.304 E.04129
G1 X96.666 Y100.304 E.00966
G1 X96.666 Y94.452 E.18349
G1 X96.247 Y94.452 E.01314
G1 X96.247 Y100.304 E.18349
G1 X95.828 Y100.304 E.01314
G1 X95.828 Y94.452 E.18349
G1 X95.409 Y94.452 E.01314
G1 X95.409 Y100.304 E.18349
G1 X94.99 Y100.304 E.01314
M73 P3 R23
G1 X94.99 Y94.452 E.18349
G1 X94.571 Y94.452 E.01314
G1 X94.571 Y100.304 E.18349
G1 X94.34 Y100.304 E.00724
G1 X94.34 Y101.621 E.04129
G1 X94.152 Y101.621 E.00589
G1 X94.152 Y94.452 E.22478
G1 X93.733 Y94.452 E.01314
G1 X93.733 Y101.621 E.22478
G1 X93.314 Y101.621 E.01314
G1 X93.314 Y94.452 E.22478
G1 X92.895 Y94.452 E.01314
G1 X92.895 Y101.621 E.22478
G1 X92.476 Y101.621 E.01314
G1 X92.476 Y94.452 E.22478
G1 X92.057 Y94.452 E.01314
G1 X92.057 Y101.621 E.22478
G1 X91.706 Y101.621 E.01101
G1 X91.706 Y102.938 E.04129
G1 X91.638 Y102.938 E.00213
G1 X91.638 Y94.452 E.26607
G1 X91.219 Y94.452 E.01314
G1 X91.219 Y102.938 E.26607
G1 X90.8 Y102.938 E.01314
G1 X90.8 Y94.452 E.26607
G1 X90.381 Y94.452 E.01314
G1 X90.381 Y104.255 E.30737
G1 X89.962 Y104.255 E.01314
G1 X89.962 Y94.452 E.30737
G1 X89.805 Y94.452 E.00492
G1 X89.805 Y95.769 E.04129
G1 X89.543 Y95.769 E.00821
G1 X89.543 Y104.255 E.26607
G1 X89.124 Y104.255 E.01314
G1 X89.124 Y95.769 E.26607
G1 X88.705 Y95.769 E.01314
G1 X88.705 Y106.89 E.34869
G1 X88.286 Y106.89 E.01314
G1 X88.286 Y95.769 E.34869
G1 X87.867 Y95.769 E.01314
G1 X87.867 Y106.89 E.34869
G1 X87.755 Y106.89 E.00351
G1 X87.755 Y110.841 E.12388
G1 X87.448 Y110.841 E.00963
G1 X87.448 Y95.769 E.47257
G1 X87.171 Y95.769 E.00869
G1 X87.171 Y97.086 E.04129
G1 X87.029 Y97.086 E.00445
G1 X87.029 Y110.841 E.43128
G1 X86.61 Y110.841 E.01314
G1 X86.61 Y97.086 E.43128
G1 X86.191 Y97.086 E.01314
G1 X86.191 Y133.914 E1.15472
G1 X86.61 Y133.914 E.01314
G1 X86.61 Y120.159 E.43128
G1 X87.029 Y120.159 E.01314
G1 X87.029 Y133.914 E.43128
G1 X87.171 Y133.914 E.00445
G1 X87.171 Y135.231 E.04129
G1 X87.448 Y135.231 E.00869
G1 X87.448 Y120.159 E.47257
G1 X87.755 Y120.159 E.00963
G1 X87.755 Y124.11 E.12388
G1 X87.867 Y124.111 E.00351
G1 X87.867 Y135.231 E.34866
G1 X88.286 Y135.231 E.01314
G1 X88.286 Y124.111 E.34866
G1 X88.705 Y124.111 E.01314
G1 X88.705 Y135.231 E.34866
G1 X89.124 Y135.231 E.01314
G1 X89.124 Y126.745 E.26607
G1 X89.543 Y126.745 E.01314
G1 X89.543 Y135.231 E.26607
G1 X89.805 Y135.231 E.00821
G1 X89.805 Y136.548 E.04129
G1 X89.962 Y136.548 E.00492
G1 X89.962 Y126.745 E.30737
G1 X90.381 Y126.745 E.01314
G1 X90.381 Y136.548 E.30737
G1 X90.8 Y136.548 E.01314
G1 X90.8 Y128.062 E.26607
G1 X91.219 Y128.062 E.01314
G1 X91.219 Y136.548 E.26607
G1 X91.638 Y136.548 E.01314
G1 X91.638 Y128.062 E.26607
G1 X91.706 Y128.062 E.00213
G1 X91.706 Y129.379 E.04129
G1 X92.057 Y129.379 E.01101
G1 X92.057 Y136.548 E.22478
G1 X92.476 Y136.548 E.01314
G1 X92.476 Y129.379 E.22478
G1 X92.895 Y129.379 E.01314
G1 X92.895 Y136.548 E.22478
G1 X93.314 Y136.548 E.01314
G1 X93.314 Y129.379 E.22478
G1 X93.733 Y129.379 E.01314
G1 X93.733 Y136.548 E.22478
G1 X94.152 Y136.548 E.01314
G1 X94.152 Y129.379 E.22478
G1 X94.34 Y129.379 E.00589
G1 X94.34 Y130.696 E.04129
G1 X94.571 Y130.696 E.00724
G1 X94.571 Y136.548 E.18349
G1 X94.99 Y136.548 E.01314
G1 X94.99 Y130.696 E.18349
G1 X95.409 Y130.696 E.01314
G1 X95.409 Y136.548 E.18349
G1 X95.828 Y136.548 E.01314
G1 X95.828 Y130.696 E.18349
G1 X96.247 Y130.696 E.01314
G1 X96.247 Y136.548 E.18349
G1 X96.666 Y136.548 E.01314
G1 X96.666 Y130.696 E.18349
G1 X96.974 Y130.696 E.00966
M73 P4 R23
G1 X96.974 Y132.013 E.04129
G1 X97.085 Y132.013 E.00348
G1 X97.085 Y136.548 E.14219
G1 X97.504 Y136.548 E.01314
G1 X97.504 Y132.013 E.14219
G1 X97.923 Y132.013 E.01314
G1 X97.923 Y135.231 E.1009
G1 X98.342 Y135.231 E.01314
G1 X98.342 Y132.013 E.1009
G1 X98.761 Y132.013 E.01314
G1 X98.761 Y135.231 E.1009
G1 X99.18 Y135.231 E.01314
G1 X99.18 Y132.013 E.1009
G1 X99.599 Y132.013 E.01314
