; generated by PrusaSlicer 2.8.1 on 2024-10-20 at 12:36:21 UTC

; 

; external perimeters extrusion width = 0.42mm
; perimeters extrusion width = 0.44mm
; infill extrusion width = 0.44mm
; solid infill extrusion width = 0.44mm
; top infill extrusion width = 0.40mm
; first layer extrusion width = 0.42mm

M73 P0 R116

EXCLUDE_OBJECT_DEFINE NAME='tank_mower_Track_plate_stl' CENTER=113.233,125.736 POLYGON=[[167.875,29.396],[170.086,29.627],[172.264,30.076],[173.333,30.380],[175.421,31.146],[177.423,32.113],[178.385,32.670],[179.319,33.274],[181.092,34.616],[182.723,36.126],[183.481,36.940],[184.198,37.790],[185.501,39.592],[186.620,41.513],[187.544,43.535],[187.930,44.578],[188.545,46.714],[188.946,48.901],[189.129,51.117],[189.138,52.229],[188.197,109.943],[188.068,111.087],[187.828,111.918],[187.472,112.705],[186.828,113.661],[101.587,198.940],[100.699,199.673],[99.949,200.103],[98.587,200.568],[97.443,200.697],[38.617,201.629],[36.401,201.446],[35.303,201.272],[33.139,200.763],[31.035,200.044],[29.013,199.120],[27.092,198.001],[25.290,196.698],[24.440,195.981],[22.851,194.426],[21.423,192.722],[20.170,190.885],[19.105,188.934],[18.237,186.887],[17.576,184.764],[17.127,182.586],[16.896,180.375],[16.884,178.152],[17.091,175.938],[17.516,173.756],[18.154,171.626],[18.551,170.587],[19.497,168.575],[20.637,166.666],[21.960,164.879],[23.452,163.231],[151.537,35.186],[153.256,33.776],[155.107,32.544],[157.070,31.499],[159.126,30.654],[161.256,30.016],[163.438,29.591],[165.652,29.384]]

M190 S60 ; set bed temperature and wait for it to be reached
M104 S200 ; set temperature
;TYPE:Custom
START_PRINT BED_TEMP=60 EXTRUDER_TEMP=200
M109 S200 ; set temperature and wait for it to be reached
G21 ; set units to millimeters
G90 ; use absolute coordinates
M83 ; use relative distances for extrusion
; Filament gcode
M107
;LAYER_CHANGE
;Z:0.2
;HEIGHT:0.2
G1 E-1.5 F3600
G1 Z.2 F9000
G1 X91.084 Y91.112
G1 Z.2
G1 E1.5 F2400
M204 S500
;TYPE:Skirt/Brim
;WIDTH:0.42
G1 F1200
G1 X149.339 Y32.876 E2.5827
G1 X151.297 Y31.261 E.07958
G1 X153.405 Y29.847 E.07959
G1 X155.642 Y28.648 E.07958
G1 X157.935 Y27.696 E.07785
G1 X159.343 Y27.233 E.04647
G1 X161.81 Y26.633 E.07961
G1 X164.324 Y26.279 E.0796
G1 X166.86 Y26.175 E.07958
G1 X169.237 Y26.306 E.07464
G1 X170.652 Y26.489 E.04474
G1 X172.984 Y26.97 E.07466
G1 X175.41 Y27.717 E.07959
G1 X176.737 Y28.242 E.04475
G1 X178.881 Y29.278 E.07466
G1 X180.163 Y30.022 E.04647
G1 X182.209 Y31.429 E.07786
G1 X184.034 Y32.958 E.07465
G1 X185.814 Y34.767 E.07957
G1 X187.408 Y36.743 E.0796
G1 X188.216 Y37.919 E.04474
G1 X189.414 Y39.977 E.07466
G1 X190.476 Y42.282 E.07957
G1 X190.971 Y43.621 E.04476
G1 X191.63 Y45.909 E.07466
G1 X192.116 Y48.56 E.08451
G1 X192.312 Y50.933 E.07466
G1 X192.327 Y52.202 E.03979
G1 X191.383 Y110.071 E1.81468
G1 X191.202 Y111.672 E.05052
G1 X190.793 Y113.091 E.0463
G1 X190.094 Y114.543 E.05053
G1 X189.239 Y115.747 E.0463
G1 X103.842 Y201.195 E3.78778
G1 X102.779 Y202.106 E.04389
G1 X101.401 Y202.942 E.05054
G1 X99.603 Y203.604 E.06007
G1 X98.452 Y203.819 E.03671
G1 X97.571 Y203.883 E.0277
G1 X38.433 Y204.812 E1.85446
G1 X36.06 Y204.616 E.07466
G1 X33.562 Y204.166 E.07958
G1 X32.181 Y203.805 E.04476
G1 X29.929 Y203.034 E.07463
G1 X28.616 Y202.473 E.04477
G1 X26.502 Y201.378 E.07465
G1 X24.37 Y200 E.07959
G1 X23.235 Y199.136 E.04472
G1 X21.34 Y197.446 E.07961
G1 X19.622 Y195.578 E.07957
G1 X18.096 Y193.55 E.07958
G1 X16.778 Y191.381 E.07958
G1 X15.68 Y189.092 E.0796
G1 X14.814 Y186.706 E.07959
G1 X14.187 Y184.247 E.07957
G1 X13.806 Y181.737 E.0796
G1 X13.674 Y179.202 E.07959
G1 X13.794 Y176.667 E.07957
G1 X14.163 Y174.155 E.07961
G1 X14.778 Y171.693 E.07957
G1 X15.633 Y169.303 E.07959
G1 X16.72 Y167.009 E.07959
G1 X18.028 Y164.834 E.07958
G1 X19.544 Y162.798 E.07959
G1 X21.198 Y160.977 E.07713
G1 X91.041 Y91.155 E3.09649
G1 E-1.05 F3600
;WIPE_START
G1 F7200
G1 X91.084 Y91.112 E-.02889
G1 X91.711 Y90.485 E-.42111
;WIPE_END
EXCLUDE_OBJECT_START NAME='tank_mower_Track_plate_stl'
G1 X138.079 Y150.067 F9000
G1 E1.5 F2400
;TYPE:Perimeter
;WIDTH:0.419999
G1 F1200
G1 X138.128 Y150.023 E.00206
G1 X138.242 Y149.946 E.00431
M73 P0 R115
G1 X138.682 Y149.706 E.01571
G1 X139.179 Y149.548 E.01635
G1 X139.663 Y149.488 E.01529
G1 X140.17 Y149.513 E.01592
G1 X140.673 Y149.634 E.01622
G1 X141.145 Y149.849 E.01626
G1 X141.598 Y150.169 E.01739
G1 X141.978 Y150.572 E.01737
G1 X142.271 Y151.043 E.01739
G1 X142.465 Y151.563 E.0174
G1 X142.552 Y152.111 E.0174
G1 X142.528 Y152.665 E.01739
G1 X142.396 Y153.203 E.01737
G1 X142.172 Y153.683 E.01661
G1 X141.855 Y154.12 E.01693
G1 X141.436 Y154.504 E.01782
G1 X140.96 Y154.79 E.01741
G1 X140.437 Y154.975 E.01739
G1 X139.888 Y155.054 E.01739
G1 X139.335 Y155.022 E.01737
G1 X138.798 Y154.881 E.01741
G1 X138.301 Y154.636 E.01737
G1 X137.861 Y154.298 E.0174
G1 X137.527 Y153.924 E.01572
G1 X137.252 Y153.463 E.01683
G1 X137.078 Y152.979 E.01613
G1 X136.991 Y152.432 E.01737
G1 X137.014 Y151.878 E.01739
G1 X137.147 Y151.339 E.01741
G1 X137.384 Y150.838 E.01738
G1 X137.715 Y150.393 E.01739
G1 X138.034 Y150.107 E.01343
G1 X138.034 Y150.107 F9000
G1 X138.275 Y150.401
;TYPE:External perimeter
G1 F1200
G1 X138.426 Y150.275 E.00617
G1 X138.848 Y150.048 E.01502
G1 X139.278 Y149.913 E.01413
G1 X139.648 Y149.865 E.0117
G1 X140.119 Y149.887 E.01478
G1 X140.585 Y150.003 E.01506
G1 X141.018 Y150.21 E.01505
G1 X141.402 Y150.497 E.01503
G1 X141.721 Y150.856 E.01506
G1 X141.963 Y151.27 E.01504
G1 X142.118 Y151.724 E.01504
G1 X142.179 Y152.2 E.01505
G1 X142.146 Y152.678 E.01502
G1 X142.02 Y153.136 E.01489
G1 X141.863 Y153.466 E.01146
G1 X141.585 Y153.857 E.01504
G1 X141.235 Y154.185 E.01504
G1 X140.827 Y154.437 E.01504
G1 X140.377 Y154.603 E.01504
G1 X139.903 Y154.677 E.01504
G1 X139.423 Y154.655 E.01507
G1 X138.958 Y154.539 E.01503
G1 X138.525 Y154.333 E.01503
G1 X138.141 Y154.045 E.01505
G1 X137.822 Y153.687 E.01503
G1 X137.58 Y153.272 E.01506
G1 X137.425 Y152.818 E.01504
G1 X137.363 Y152.343 E.01502
G1 X137.397 Y151.864 E.01506
G1 X137.524 Y151.402 E.01502
G1 X137.741 Y150.974 E.01505
G1 X138.059 Y150.579 E.0159
G1 X138.228 Y150.439 E.00688
G1 E-1.05 F3600
;WIPE_START
G1 F7200
G1 X138.275 Y150.401 E-.02871
G1 X138.426 Y150.275 E-.09342
G1 X138.848 Y150.048 E-.22761
G1 X139.05 Y149.985 E-.10026
;WIPE_END
G1 X133.62 Y127.05 F9000
G1 E1.5 F2400
;TYPE:Perimeter
G1 F1200
G1 X133.283 Y127.116 E.01077
G1 X132.729 Y127.106 E.01737
G1 X132.187 Y126.987 E.0174
G1 X131.68 Y126.763 E.01738
G1 X131.227 Y126.443 E.01739
G1 X130.847 Y126.039 E.01739
G1 X130.542 Y125.548 E.01812
G1 X130.36 Y125.049 E.01665
G1 X130.273 Y124.501 E.0174
G1 X130.297 Y123.947 E.01739
G1 X130.429 Y123.408 E.0174
G1 X130.666 Y122.907 E.01738
G1 X130.998 Y122.462 E.01741
G1 X131.41 Y122.092 E.01736
G1 X131.889 Y121.811 E.01741
G1 X132.413 Y121.63 E.01738
G1 X132.919 Y121.557 E.01603
G1 X133.428 Y121.579 E.01597
G1 X133.92 Y121.694 E.01584
G1 X134.427 Y121.918 E.01738
G1 X134.88 Y122.238 E.01739
G1 X135.261 Y122.642 E.01741
G1 X135.553 Y123.113 E.01738
G1 X135.747 Y123.632 E.01737
G1 X135.834 Y124.18 E.0174
G1 X135.811 Y124.734 E.01739
G1 X135.678 Y125.273 E.01741
G1 X135.441 Y125.774 E.01738
G1 X135.137 Y126.19 E.01615
G1 X134.767 Y126.539 E.01595
G1 X134.343 Y126.809 E.01576
G1 X133.865 Y127.002 E.01616
G1 X133.678 Y127.038 E.00597
G1 X133.678 Y127.038 F9000
G1 X133.592 Y126.683
;TYPE:External perimeter
G1 F1200
G1 X133.16 Y126.745 E.01368
G1 X132.679 Y126.718 E.01511
G1 X132.24 Y126.608 E.01419
G1 X131.807 Y126.402 E.01503
G1 X131.423 Y126.114 E.01505
G1 X131.104 Y125.756 E.01503
G1 X130.874 Y125.369 E.01412
G1 X130.709 Y124.895 E.01574
G1 X130.645 Y124.412 E.01528
G1 X130.679 Y123.933 E.01506
G1 X130.807 Y123.471 E.01503
G1 X131.024 Y123.043 E.01505
G1 X131.321 Y122.666 E.01505
G1 X131.687 Y122.356 E.01504
G1 X132.107 Y122.125 E.01503
G1 X132.561 Y121.982 E.01492
G1 X132.931 Y121.935 E.01169
G1 X133.402 Y121.956 E.01478
G1 X133.867 Y122.073 E.01503
G1 X134.3 Y122.279 E.01503
G1 X134.684 Y122.567 E.01505
G1 X135.003 Y122.925 E.01503
G1 X135.245 Y123.339 E.01504
G1 X135.4 Y123.793 E.01504
G1 X135.462 Y124.269 E.01505
G1 X135.428 Y124.748 E.01506
G1 X135.301 Y125.21 E.01502
G1 X135.087 Y125.634 E.01489
G1 X134.867 Y125.926 E.01146
G1 X134.517 Y126.254 E.01504
G1 X134.109 Y126.506 E.01504
G1 X133.651 Y126.671 E.01526
G1 E-1.05 F3600
;WIPE_START
G1 F7200
G1 X133.592 Y126.683 E-.0286
G1 X133.16 Y126.745 E-.2073
G1 X132.71 Y126.72 E-.2141
;WIPE_END
G1 X179.573 Y110.745 F9000
G1 E1.5 F2400
;TYPE:Perimeter
G1 F1200
G1 X179.504 Y110.553 E.0064
G1 X179.417 Y110.005 E.0174
G1 X179.441 Y109.451 E.01739
G1 X179.573 Y108.913 E.01737
G1 X179.81 Y108.411 E.01741
G1 X180.141 Y107.966 E.01739
G1 X180.554 Y107.596 E.01739
G1 X181.033 Y107.315 E.01741
G1 X181.557 Y107.135 E.01737
G1 X182.089 Y107.062 E.01684
G1 X182.634 Y107.094 E.01712
G1 X183.17 Y107.235 E.01738
G1 X183.668 Y107.48 E.0174
G1 X184.108 Y107.818 E.0174
G1 X184.471 Y108.237 E.01738
G1 X184.745 Y108.719 E.01738
G1 X184.917 Y109.246 E.01738
G1 X184.983 Y109.771 E.01659
G1 X184.948 Y110.299 E.01659
G1 X184.815 Y110.8 E.01625
G1 X184.585 Y111.278 E.01663
G1 X184.265 Y111.71 E.01686
G1 X183.862 Y112.078 E.01711
G1 X183.386 Y112.363 E.0174
G1 X182.864 Y112.549 E.01737
G1 X182.315 Y112.627 E.01739
G1 X181.761 Y112.595 E.0174
G1 X181.225 Y112.454 E.01738
G1 X180.727 Y112.21 E.01739
G1 X180.288 Y111.872 E.01737
G1 X179.953 Y111.497 E.01577
G1 X179.678 Y111.036 E.01683
G1 X179.594 Y110.802 E.0078
G1 X179.594 Y110.802 F9000
G1 X179.946 Y110.669
;TYPE:External perimeter
G1 F1200
G1 X179.851 Y110.392 E.00918
G1 X179.789 Y109.916 E.01505
G1 X179.823 Y109.438 E.01503
G1 X179.951 Y108.975 E.01506
G1 X180.168 Y108.547 E.01505
G1 X180.465 Y108.171 E.01502
G1 X180.831 Y107.861 E.01504
G1 X181.251 Y107.629 E.01504
G1 X181.705 Y107.486 E.01492
G1 X182.075 Y107.439 E.01169
G1 X182.546 Y107.461 E.01478
G1 X183.011 Y107.577 E.01503
G1 X183.444 Y107.783 E.01503
G1 X183.828 Y108.071 E.01505
G1 X184.147 Y108.429 E.01503
G1 X184.389 Y108.844 E.01506
G1 X184.544 Y109.298 E.01504
G1 X184.606 Y109.773 E.01502
G1 X184.572 Y110.252 E.01506
G1 X184.378 Y110.848 E.01965
G1 X184.223 Y111.148 E.01059
G1 X183.893 Y111.544 E.01616
G1 X183.661 Y111.759 E.00992
G1 X183.253 Y112.011 E.01504
G1 X182.803 Y112.177 E.01504
G1 X182.329 Y112.251 E.01504
G1 X181.85 Y112.229 E.01503
G1 X181.384 Y112.113 E.01506
G1 X180.951 Y111.906 E.01505
G1 X180.567 Y111.619 E.01503
G1 X180.248 Y111.26 E.01506
G1 X180.006 Y110.846 E.01504
G1 X179.965 Y110.725 E.00401
G1 E-1.05 F3600
;WIPE_START
G1 F7200
G1 X179.946 Y110.669 E-.02809
G1 X179.851 Y110.392 E-.1391
G1 X179.789 Y109.916 E-.22801
G1 X179.797 Y109.801 E-.0548
;WIPE_END
G1 X50.014 Y169.929 F9000
G1 E1.5 F2400
;TYPE:Perimeter
G1 F1200
G1 X50.192 Y170.408 E.01602
G1 X50.283 Y170.985 E.01832
G1 X50.257 Y171.569 E.01833
G1 X50.117 Y172.136 E.01831
G1 X49.889 Y172.629 E.01703
G1 X49.596 Y173.046 E.01598
G1 X49.198 Y173.433 E.01741
G1 X48.709 Y173.754 E.01834
G1 X48.166 Y173.971 E.01833
G1 X47.591 Y174.076 E.01833
G1 X47.007 Y174.066 E.01831
G1 X46.436 Y173.939 E.01834
G1 X45.902 Y173.703 E.01831
;WIDTH:0.460072
G1 X45.771 Y173.634 E.00514
;WIDTH:0.500145
G1 X45.64 Y173.566 E.00561
;WIDTH:0.540218
G1 X45.509 Y173.497 E.00612
;WIDTH:0.580291
G1 X45.378 Y173.429 E.0066
;WIDTH:0.586419
G1 X44.993 Y173.028 E.02512
G1 X44.924 Y172.881 E.00734
;WIDTH:0.544814
G1 X44.855 Y172.735 E.00674
;WIDTH:0.503209
G1 X44.786 Y172.589 E.00618
;WIDTH:0.461604
G1 X44.717 Y172.442 E.00565
;WIDTH:0.419999
G1 X44.513 Y171.894 E.01833
G1 X44.422 Y171.317 E.01832
G1 X44.447 Y170.733 E.01833
G1 X44.588 Y170.166 E.01832
G1 X44.838 Y169.637 E.01835
G1 X45.188 Y169.169 E.01832
G1 X45.623 Y168.78 E.0183
G1 X46.127 Y168.484 E.01833
G1 X46.672 Y168.297 E.01807
G1 X47.214 Y168.218 E.01717
G1 X47.725 Y168.238 E.01603
G1 X48.268 Y168.363 E.01747
G1 X48.839 Y168.618 E.01961
G1 X49.28 Y168.937 E.01707
G1 X49.68 Y169.363 E.01832
G1 X49.988 Y169.86 E.01833
G1 X49.993 Y169.872 E.00041
G1 X49.993 Y169.872 F9000
G1 X49.656 Y170.04
;TYPE:External perimeter
G1 F1200
G1 X49.664 Y170.052 E.00045
G1 X49.836 Y170.532 E.01599
G1 X49.909 Y171.037 E.016
G1 X49.881 Y171.545 E.01595
G1 X49.753 Y172.038 E.01597
G1 X49.575 Y172.419 E.01319
G1 X49.285 Y172.83 E.01577
G1 X48.921 Y173.174 E.0157
G1 X48.489 Y173.445 E.01599
G1 X48.015 Y173.624 E.01589
G1 X47.508 Y173.706 E.0161
G1 X46.985 Y173.684 E.01641
G1 X46.489 Y173.56 E.01603
G1 X46.029 Y173.342 E.01596
G1 X45.628 Y173.043 E.01568
G1 X45.282 Y172.656 E.01628
G1 X45.025 Y172.216 E.01598
G1 X44.861 Y171.736 E.0159
G1 X44.794 Y171.228 E.01607
G1 X44.829 Y170.721 E.01593
G1 X44.961 Y170.236 E.01576
G1 X45.19 Y169.781 E.01597
G1 X45.5 Y169.384 E.01579
G1 X45.886 Y169.053 E.01594
G1 X46.33 Y168.804 E.01596
G1 X46.813 Y168.648 E.01591
G1 X47.22 Y168.595 E.01287
G1 X47.721 Y168.618 E.01573
G1 X48.215 Y168.742 E.01597
G1 X48.656 Y168.947 E.01525
G1 X49.061 Y169.245 E.01577
G1 X49.4 Y169.616 E.01576
G1 X49.625 Y169.988 E.01363
G1 E-1.05 F3600
;WIPE_START
G1 F7200
G1 X49.656 Y170.04 E-.02876
G1 X49.664 Y170.052 E-.00685
G1 X49.836 Y170.532 E-.2422
G1 X49.888 Y170.89 E-.17219
;WIPE_END
G1 X151.944 Y104.649 F9000
G1 E1.5 F2400
;TYPE:Perimeter
G1 F1200
G1 X151.755 Y104.334 E.01152
G1 X151.573 Y103.835 E.01665
G1 X151.487 Y103.288 E.01736
G1 X151.51 Y102.734 E.01739
G1 X151.643 Y102.195 E.01741
G1 X151.879 Y101.694 E.01736
G1 X152.211 Y101.249 E.01741
G1 X152.624 Y100.879 E.01739
G1 X153.102 Y100.598 E.01739
G1 X153.626 Y100.417 E.01738
G1 X154.128 Y100.344 E.01591
G1 X154.63 Y100.364 E.01575
G1 X155.133 Y100.481 E.01619
G1 X155.641 Y100.705 E.01741
G1 X156.093 Y101.025 E.01736
G1 X156.474 Y101.429 E.01741
G1 X156.767 Y101.9 E.01739
G1 X156.96 Y102.419 E.01736
G1 X157.047 Y102.967 E.0174
G1 X157.024 Y103.521 E.01739
G1 X156.891 Y104.06 E.01741
G1 X156.654 Y104.561 E.01738
G1 X156.323 Y105.006 E.01739
G1 X155.91 Y105.376 E.01739
G1 X155.455 Y105.646 E.01659
G1 X154.96 Y105.826 E.01651
G1 X154.439 Y105.909 E.01654
G1 X153.924 Y105.892 E.01616
G1 X153.4 Y105.774 E.01684
G1 X152.893 Y105.55 E.01738
G1 X152.357 Y105.154 E.0209
G1 X152.019 Y104.775 E.01592
G1 X151.974 Y104.7 E.00274
G1 X151.974 Y104.7 F9000
G1 X152.283 Y104.484
;TYPE:External perimeter
G1 F1200
G1 X152.075 Y104.128 E.01293
G1 X151.921 Y103.674 E.01503
G1 X151.859 Y103.199 E.01502
G1 X151.892 Y102.72 E.01505
G1 X152.02 Y102.258 E.01503
G1 X152.237 Y101.83 E.01505
G1 X152.534 Y101.453 E.01505
G1 X152.9 Y101.143 E.01504
G1 X153.321 Y100.912 E.01506
G1 X153.774 Y100.769 E.01489
G1 X154.144 Y100.721 E.0117
G1 X154.615 Y100.743 E.01478
G1 X155.08 Y100.859 E.01503
G1 X155.514 Y101.066 E.01508
G1 X155.897 Y101.354 E.01502
G1 X156.216 Y101.712 E.01503
G1 X156.458 Y102.126 E.01504
G1 X156.613 Y102.58 E.01504
G1 X156.675 Y103.056 E.01505
G1 X156.641 Y103.535 E.01506
G1 X156.514 Y103.997 E.01502
G1 X156.297 Y104.425 E.01505
G1 X155.999 Y104.801 E.01504
G1 X155.638 Y105.109 E.01488
G1 X155.322 Y105.293 E.01147
G1 X154.872 Y105.459 E.01504
G1 X154.398 Y105.533 E.01504
G1 X153.919 Y105.511 E.01503
G1 X153.453 Y105.395 E.01506
G1 X153.02 Y105.189 E.01503
G1 X152.636 Y104.901 E.01505
G1 X152.317 Y104.543 E.01503
G1 X152.313 Y104.536 E.00025
G1 E-1.05 F3600
;WIPE_START
G1 F7200
G1 X152.283 Y104.484 E-.02852
G1 X152.075 Y104.128 E-.19585
G1 X151.922 Y103.679 E-.22563
;WIPE_END
G1 X26.644 Y171.854 F9000
G1 E1.5 F2400
;TYPE:Perimeter
G1 F1200
G1 X26.76 Y172.076 E.00785
G1 X26.879 Y172.506 E.01399
G1 X26.913 Y172.944 E.01377
G1 X26.842 Y173.47 E.01664
G1 X26.653 Y173.967 E.01667
G1 X26.364 Y174.392 E.01611
G1 X25.99 Y174.736 E.01593
G1 X25.599 Y174.968 E.01426
G1 X25.17 Y175.119 E.01426
G1 X24.719 Y175.181 E.01427
G1 X24.265 Y175.153 E.01426
G1 X23.825 Y175.035 E.01428
G1 X23.418 Y174.833 E.01425
G1 X23.058 Y174.554 E.01428
G1 X22.724 Y174.145 E.01656
G1 X22.505 Y173.715 E.01513
G1 X22.399 Y173.379 E.01105
G1 X22.348 Y172.927 E.01426
G1 X22.388 Y172.473 E.01429
G1 X22.516 Y172.037 E.01425
G1 X22.729 Y171.634 E.01429
G1 X23.017 Y171.282 E.01426
G1 X23.369 Y170.994 E.01426
G1 X23.771 Y170.781 E.01426
G1 X24.195 Y170.654 E.01388
